(/Applications/pcbgcode.repo/pcb-gcode.ulp)
(Copyright 2005 - 2012 by John Johnson)
(See readme.txt for licensing terms.)
(This file generated from the board:)
(.../808_handclap/eagle/808_handclap.brd)
(Current profile is .../pcbgcode.repo/profiles/mach.pp  )
(This file generated 8/19/15 10:43 PM)
(Settings from pcb-machine.h)
(spindle on time = 0.0000)
(spindle speed = 20000.0000)
(tool change at 0.0000  0.0000  3.0000  )
(feed rate xy = F0     )
(feed rate z  = F20    )
(Z Axis Settings)
(  High     Up        Down     Drill)
(1.0000  	0.0500  	-0.0040 	-0.0730 )
(Settings from pcb-defaults.h)
(isolate min = 0.0010)
(isolate max = 0.0100)
(isolate step = 0.0010)
(Generated bottom outlines, bottom drill, )
(Unit of measure: inch)
( Tool|       Size       |  Min Sub |  Max Sub |   Count )
( T01 | 0.800mm 0.0315in | 0.0000in | 0.0000in |       0 )
( T02 | 0.813mm 0.0320in | 0.0000in | 0.0000in |       0 )
( T03 | 1.016mm 0.0400in | 0.0000in | 0.0000in |       0 )
( T04 | 1.200mm 0.0472in | 0.0000in | 0.0000in |       0 )
(Inch Mode)
G20
(Absolute Coordinates)
G90
S20000
G00 Z1.0000  
G00 X0.0000  Y0.0000  
M03
G04 P0.000000
M05
G00 Z3.0000  
M06 T01  ; 0.0315  
G01 Z0.0000  F20    
M06 
G00 Z0.0500  
M03
G04 P0.000000
G82 X-0.4500 Y0.5900  Z-0.0730 F20    R0.0500  P0.010000
G82 X-0.7500 Y1.0100  
G82 X-0.9600 Y1.0100  
G82 X-0.5700 Y1.2400  
G82 X-0.5800 Y1.6700  
G82 X-1.0600 Y2.1300  
G82 X-1.9000 Y1.6100  
G82 X-1.8900 Y1.4200  
G82 X-2.2400 Y0.9900  
G82 X-2.3400 Y0.9900  
G82 X-2.4400 Y0.9900  
G82 X-2.5400 Y0.9900  
G82 X-2.6400 Y0.9900  
G82 X-2.7400 Y0.9900  
G82 X-2.8400 Y0.9900  
G82 X-2.9400 Y0.9900  
G82 X-3.0400 Y0.9900  
G82 X-3.1200 Y1.0900  
G82 X-3.1800 Y0.9100  
G82 X-3.0089 Y0.7100  
G82 X-2.8711 Y0.7100  
G82 X-2.5100 Y0.4900  
G82 X-2.2200 Y0.8100  
G82 X-2.5300 Y1.2200  
G82 X-2.9700 Y1.6000  
G82 X-3.7900 Y1.1700  
G82 X-1.0900 Y0.3600  
G82 X-1.0389 Y0.2800  
G82 X-0.9011 Y0.2800  
M05
G00 Z3.0000  
G00 X0.0000  Y0.0000  
M06 T02  ; 0.0320  
G01 Z0.0000  F20    
M06 
G00 Z0.0500  
M03
G04 P0.000000
G82 X-0.2400 Y2.0400  Z-0.0730 F20    R0.0500  P0.010000
G82 X-0.2400 Y2.1400  
G82 X-0.2600 Y2.3500  
G82 X-0.4100 Y2.3000  
G82 X-0.5400 Y2.3700  
G82 X-0.6400 Y2.3700  
G82 X-0.7400 Y2.3700  
G82 X-0.7600 Y2.2400  
G82 X-0.5800 Y2.2300  
G82 X-0.4100 Y2.0000  
G82 X-0.5800 Y1.9300  
G82 X-0.7600 Y1.9400  
G82 X-0.9600 Y1.9900  
G82 X-1.0600 Y1.9900  
G82 X-1.1600 Y1.9900  
G82 X-1.2500 Y1.9500  
G82 X-1.3200 Y2.1100  
G82 X-1.2500 Y2.2500  
G82 X-1.4000 Y2.3200  
G82 X-1.2600 Y2.4400  
G82 X-1.3300 Y2.6500  
G82 X-1.4100 Y2.6500  
G82 X-1.5200 Y2.4800  
G82 X-1.7200 Y2.4800  
G82 X-1.7000 Y2.3200  
G82 X-1.6200 Y2.1100  
G82 X-1.5500 Y1.9500  
G82 X-1.7200 Y1.9300  
G82 X-1.8200 Y1.8310  
G82 X-1.8200 Y2.0290  
G82 X-1.9300 Y2.2000  
G82 X-1.9300 Y2.3000  
G82 X-1.9300 Y2.4000  
G82 X-1.8500 Y2.5900  
G82 X-1.8900 Y2.7700  
G82 X-1.8900 Y2.8700  
G82 X-2.0600 Y2.7400  
G82 X-2.0500 Y2.5900  
G82 X-2.1000 Y2.5900  
G82 X-2.2000 Y2.3700  
G82 X-2.2000 Y2.1700  
G82 X-2.3500 Y2.1700  
G82 X-2.3100 Y2.0500  
G82 X-2.1300 Y2.0300  
G82 X-2.1300 Y1.7300  
G82 X-2.0500 Y1.6000  
G82 X-2.0300 Y1.4000  
G82 X-1.8500 Y1.3100  
G82 X-1.9700 Y1.2000  
G82 X-1.8500 Y1.0100  
G82 X-1.7700 Y0.9900  
G82 X-1.9500 Y0.9500  
G82 X-1.7800 Y0.7400  
G82 X-1.9500 Y0.6500  
G82 X-2.3400 Y0.5100  
G82 X-2.6200 Y0.5900  
G82 X-2.6200 Y0.6900  
G82 X-2.6200 Y0.7900  
G82 X-2.3400 Y0.8100  
G82 X-2.5700 Y1.1300  
G82 X-2.4200 Y1.3100  
G82 X-2.3300 Y1.4000  
G82 X-2.3900 Y1.4800  
G82 X-2.3500 Y1.6000  
G82 X-2.4800 Y1.6000  
G82 X-2.7000 Y1.6200  
G82 X-2.6900 Y1.4800  
G82 X-2.7200 Y1.3100  
G82 X-2.8800 Y1.3800  
G82 X-2.8700 Y1.1300  
G82 X-3.2200 Y1.2600  
G82 X-3.1600 Y1.4300  
G82 X-3.1600 Y1.5300  
G82 X-3.1600 Y1.6300  
G82 X-3.2300 Y1.7700  
G82 X-3.3700 Y1.7000  
G82 X-3.3700 Y1.6000  
G82 X-3.3700 Y1.5000  
G82 X-3.3700 Y1.4000  
G82 X-3.6700 Y1.4000  
G82 X-3.6700 Y1.5000  
G82 X-3.6700 Y1.6000  
G82 X-3.6700 Y1.7000  
G82 X-3.6600 Y1.9500  
G82 X-3.6200 Y2.1900  
G82 X-3.4800 Y2.2500  
G82 X-3.3100 Y2.1900  
G82 X-3.2300 Y2.0700  
G82 X-3.1400 Y2.1900  
G82 X-3.0400 Y2.1900  
G82 X-2.9400 Y2.1900  
G82 X-2.8400 Y2.1900  
G82 X-2.6500 Y2.1700  
G82 X-2.6400 Y1.9800  
G82 X-2.7000 Y1.8200  
G82 X-2.8400 Y1.9800  
G82 X-3.0500 Y2.0100  
G82 X-3.0500 Y1.8100  
G82 X-2.8800 Y1.6800  
G82 X-2.4800 Y1.9000  
G82 X-2.3100 Y1.7500  
G82 X-1.8600 Y1.5300  
G82 X-1.7600 Y1.5300  
G82 X-1.6600 Y1.5300  
G82 X-1.5100 Y1.5800  
G82 X-1.5300 Y1.7700  
G82 X-1.2300 Y1.7700  
G82 X-1.2100 Y1.5800  
G82 X-1.0400 Y1.5800  
G82 X-0.9600 Y1.6000  
G82 X-0.9400 Y1.7500  
G82 X-0.6400 Y1.7500  
G82 X-0.6600 Y1.6000  
G82 X-0.4900 Y1.5800  
G82 X-0.3900 Y1.5800  
G82 X-0.2900 Y1.5800  
G82 X-0.3000 Y1.2800  
G82 X-0.3800 Y1.2800  
G82 X-0.5700 Y1.3300  
G82 X-0.6600 Y1.1000  
G82 X-0.5100 Y1.0100  
G82 X-0.5600 Y0.9100  
G82 X-0.5500 Y0.7600  
G82 X-0.6500 Y0.7600  
G82 X-0.7500 Y0.7600  
G82 X-0.8500 Y0.7600  
G82 X-0.9500 Y0.7600  
G82 X-1.0500 Y0.7600  
G82 X-1.1500 Y0.7600  
G82 X-1.3700 Y0.8600  
G82 X-1.4800 Y0.7400  
G82 X-1.4700 Y0.9900  
G82 X-1.3700 Y1.1600  
G82 X-1.2600 Y1.1200  
G82 X-1.2300 Y1.3600  
G82 X-1.0400 Y1.2800  
G82 X-0.8700 Y1.3300  
G82 X-0.9600 Y1.1200  
G82 X-0.8600 Y1.1000  
G82 X-0.9600 Y0.9100  
G82 X-0.9500 Y0.4600  
G82 X-0.8500 Y0.4600  
G82 X-0.7500 Y0.4600  
G82 X-0.6500 Y0.4600  
G82 X-0.5500 Y0.4600  
G82 X-0.5100 Y0.2900  
G82 X-0.7100 Y0.2900  
G82 X-1.0500 Y0.4600  
G82 X-1.1500 Y0.4600  
G82 X-1.1600 Y0.3400  
G82 X-1.4600 Y0.3400  
G82 X-1.5300 Y1.3600  
G82 X-2.2700 Y1.2000  
G82 X-2.9800 Y0.5300  
G82 X-3.2800 Y0.5300  
G82 X-3.2600 Y0.7700  
G82 X-3.3600 Y0.7700  
G82 X-3.2200 Y0.9600  
G82 X-3.4700 Y1.0900  
G82 X-3.5700 Y1.0900  
G82 X-3.6200 Y0.7700  
G82 X-3.6200 Y0.5700  
G82 X-3.2600 Y0.2900  
G82 X-3.1600 Y0.2900  
G82 X-3.3600 Y1.9500  
G82 X-3.4800 Y2.4500  
G82 X-3.6200 Y2.4900  
G82 X-3.4200 Y2.6810  
G82 X-3.3200 Y2.7800  
G82 X-3.4200 Y2.8790  
G82 X-3.0900 Y2.9400  
G82 X-2.8400 Y2.9600  
G82 X-2.8400 Y2.7600  
G82 X-2.9800 Y2.6100  
G82 X-3.0900 Y2.6400  
G82 X-3.0400 Y2.4900  
G82 X-3.1400 Y2.4900  
G82 X-3.3100 Y2.4900  
G82 X-2.9400 Y2.4900  
G82 X-2.8400 Y2.4900  
G82 X-2.6800 Y2.6100  
G82 X-2.5800 Y2.7500  
G82 X-2.5800 Y2.8500  
G82 X-2.3500 Y2.9000  
G82 X-2.3600 Y2.7400  
G82 X-2.4000 Y2.5900  
G82 X-2.4200 Y2.3900  
G82 X-2.5200 Y2.3900  
G82 X-2.6200 Y2.3900  
G82 X-2.1500 Y2.9000  
G82 X-1.6300 Y2.9900  
G82 X-1.4000 Y2.8600  
G82 X-1.2000 Y2.8600  
G82 X-1.1400 Y2.6600  
G82 X-0.9400 Y2.6600  
G82 X-0.9600 Y2.4400  
G82 X-0.9500 Y2.2500  
G82 X-0.6800 Y2.5300  
G82 X-0.4700 Y2.5300  
G82 X-0.4700 Y2.7300  
G82 X-0.2600 Y2.6500  
G82 X-0.6800 Y2.8300  
G82 X-1.6300 Y2.6900  
G82 X-0.3100 Y1.0100  
G82 X-0.3200 Y0.8100  
G82 X-0.3200 Y0.5100  
M05
G00 Z3.0000  
G00 X0.0000  Y0.0000  
M06 T03  ; 0.0400  
G01 Z0.0000  F20    
M06 
G00 Z0.0500  
M03
G04 P0.000000
G82 X-0.1100 Y2.6700  Z-0.0730 F20    R0.0500  P0.010000
G82 X-0.2300 Y1.7600  
G82 X-1.6700 Y0.3500  
G82 X-1.6700 Y0.2500  
G82 X-1.7700 Y0.2500  
G82 X-1.7700 Y0.3500  
G82 X-1.8700 Y0.3500  
G82 X-1.9700 Y0.3500  
G82 X-2.0700 Y0.3500  
G82 X-2.0700 Y0.2500  
G82 X-1.9700 Y0.2500  
G82 X-1.8700 Y0.2500  
G82 X-2.1700 Y0.2500  
G82 X-2.1700 Y0.3500  
G82 X-2.2700 Y0.3500  
G82 X-2.2700 Y0.2500  
G82 X-2.3700 Y0.2500  
G82 X-2.3700 Y0.3500  
G82 X-3.5300 Y0.3300  
M05
G00 Z3.0000  
G00 X0.0000  Y0.0000  
M06 T04  ; 0.0472  
G01 Z0.0000  F20    
M06 
G00 Z0.0500  
M03
G04 P0.000000
G82 X-0.3031 Y3.0000  Z-0.0730 F20    R0.0500  P0.010000
G82 X-0.5000 Y3.0000  
G82 X-0.6969 Y3.0000  
T01 
G00 Z1.0000  
M05
M02
