(/Applications/pcbgcode.repo/pcb-gcode.ulp)
(Copyright 2005 - 2012 by John Johnson)
(See readme.txt for licensing terms.)
(This file generated from the board:)
(.../808_handclap/eagle/808_handclap.brd)
(Current profile is .../pcbgcode.repo/profiles/mach.pp  )
(This file generated 1/22/16 10:59 PM)
(Settings from pcb-machine.h)
(spindle on time = 0.0000)
(spindle speed = 15000.0000)
(milling depth = -0.0700)
(tool change at 0.0000  0.0000  3.0000  )
(feed rate xy = F10    )
(feed rate z  = F5     )
(Z Axis Settings)
(  High     Up        Down     Drill)
(1.0000  	0.0500  	-0.0040 	-0.0730 )
(Settings from pcb-defaults.h)
(isolate min = 0.0010)
(isolate max = 0.0170)
(isolate step = 0.0017)
(Generated bottom outlines, bottom drill, )
(Unit of measure: inch)
(Inch Mode)
G20
(Absolute Coordinates)
G90
S15000
G00 Z1.0000  
G00 X0.0000  Y0.0000  
M03
G04 P0.000000
G00 Z0.0500  
G00 X0.0800  Y0.0300  
G01 Z-0.0700 F5     
G01 X3.8700  Y0.0300  F10    
G01 X3.9300  Y0.0700  
G01 X3.9300  Y3.1000  
G01 X3.8600  Y3.1800  
G01 X0.0800  Y3.1800  
G01 X0.0100  Y3.0700  
G01 X0.0100  Y0.1200  
G01 X0.0800  Y0.0300  
G00 Z0.0500  
G00 X0.1550  Y0.1750  
G01 Z-0.0700 F5     
G01 X0.1600  Y0.1750  F10    
G01 X0.1600  Y0.1800  
G01 X0.1800  Y0.1800  
G01 X0.1800  Y0.1950  
G01 X0.1650  Y0.1950  
G00 Z0.0500  
G00 X0.1550  Y0.1900  
G01 Z-0.0700 F5     
G01 X0.1550  Y0.1750  F10    
G00 Z0.0500  
G00 X0.1650  Y3.0150  
G01 Z-0.0700 F5     
G01 X0.1700  Y3.0150  F10    
G01 X0.1700  Y3.0200  
G01 X0.1900  Y3.0200  
G01 X0.1900  Y3.0350  
G01 X0.1750  Y3.0350  
G00 Z0.0500  
G00 X0.1650  Y3.0300  
G01 Z-0.0700 F5     
G01 X0.1650  Y3.0150  F10    
G00 Z0.0500  
G00 X3.7450  Y3.0350  
G01 Z-0.0700 F5     
G01 X3.7500  Y3.0350  F10    
G01 X3.7500  Y3.0400  
G01 X3.7700  Y3.0400  
G01 X3.7700  Y3.0550  
G01 X3.7550  Y3.0550  
G00 Z0.0500  
G00 X3.7450  Y3.0500  
G01 Z-0.0700 F5     
G01 X3.7450  Y3.0350  F10    
G00 Z0.0500  
G00 X3.7650  Y0.2050  
G01 Z-0.0700 F5     
G01 X3.7800  Y0.2050  F10    
G01 X3.7800  Y0.1900  
G01 X3.7600  Y0.1900  
G01 X3.7600  Y0.1850  
G01 X3.7550  Y0.1850  
G01 X3.7550  Y0.2000  
G00 Z1.0000  
M05
M02
