(/Applications/pcbgcode.repo/pcb-gcode.ulp)
(Copyright 2005 - 2012 by John Johnson)
(See readme.txt for licensing terms.)
(This file generated from the board:)
(.../808_handclap/eagle/808_handclap.brd)
(Current profile is .../pcbgcode.repo/profiles/mach.pp  )
(This file generated 1/22/16 10:55 PM)
(Settings from pcb-machine.h)
(spindle on time = 0.0000)
(  Tool Size)
(0.0100  )
(spindle speed = 30000.0000)
(tool change at 0.0000  0.0000  3.0000  )
(feed rate xy = F20    )
(feed rate z  = F10    )
(Z Axis Settings)
(  High     Up        Down     Drill)
(1.0000  	0.0500  	-0.0040 	-0.0730 )
(Settings from pcb-defaults.h)
(isolate min = 0.0010)
(isolate max = 0.0170)
(isolate step = 0.0017)
(Generated bottom outlines, bottom drill, )
(Unit of measure: inch)
(Inch Mode)
G20
(Absolute Coordinates)
G90
S30000
G00 Z1.0000  
G00 X0.0000  Y0.0000  
M03
G04 P0.000000
G00 Z0.0500  
G00 X-0.0852 Y0.5386  
G01 Z-0.0040 F10    
G01 X-0.5352 Y0.0886  F20    
G01 X-0.5386 Y0.0852  
G01 X-0.5429 Y0.0828  
G01 X-0.5476 Y0.0815  
G01 X-2.8774 Y0.0815  
G01 X-2.8821 Y0.0828  
G01 X-2.8864 Y0.0852  
G01 X-3.0592 Y0.2580  
G01 X-3.0733 Y0.2580  
G01 X-3.0920 Y0.2767  
G01 X-3.0920 Y0.2916  
G01 X-3.1888 Y0.4126  
G01 X-3.2742 Y0.4980  
G01 X-3.2933 Y0.4980  
G01 X-3.3120 Y0.5167  
G01 X-3.3120 Y0.5433  
G01 X-3.2935 Y0.5618  
G01 X-3.2935 Y0.7487  
G01 X-3.2937 Y0.7498  
G01 X-3.2935 Y0.7511  
G01 X-3.2935 Y0.7524  
G01 X-3.2932 Y0.7535  
G01 X-3.2931 Y0.7546  
G01 X-3.2926 Y0.7559  
G01 X-3.2922 Y0.7571  
G01 X-3.2920 Y0.7576  
G01 X-3.2920 Y0.7673  
G01 X-3.2922 Y0.7681  
G01 X-3.2926 Y0.7689  
G01 X-3.2930 Y0.7705  
G01 X-3.3923 Y1.0983  
G01 X-3.5453 Y1.4192  
G01 X-3.5623 Y1.4361  
G01 X-3.5633 Y1.4370  
G01 X-3.5640 Y1.4378  
G01 X-3.5648 Y1.4386  
G01 X-3.5655 Y1.4398  
G01 X-3.5892 Y1.4715  
G01 X-3.6552 Y1.4715  
G01 X-3.6607 Y1.4692  
G01 X-3.6668 Y1.4680  
G01 X-3.6732 Y1.4680  
G01 X-3.6793 Y1.4692  
G01 X-3.6852 Y1.4716  
G01 X-3.6904 Y1.4751  
G01 X-3.6949 Y1.4796  
G01 X-3.6984 Y1.4848  
G01 X-3.7008 Y1.4907  
G01 X-3.7020 Y1.4968  
G01 X-3.7020 Y1.5032  
G01 X-3.7008 Y1.5093  
G01 X-3.6984 Y1.5152  
G01 X-3.6949 Y1.5204  
G01 X-3.6904 Y1.5249  
G01 X-3.6852 Y1.5284  
G01 X-3.6793 Y1.5308  
G01 X-3.6732 Y1.5320  
G01 X-3.6668 Y1.5320  
G01 X-3.6607 Y1.5308  
G01 X-3.6548 Y1.5284  
G01 X-3.6496 Y1.5249  
G01 X-3.6451 Y1.5204  
G01 X-3.6416 Y1.5152  
G01 X-3.6392 Y1.5093  
G01 X-3.6391 Y1.5085  
G01 X-3.5811 Y1.5085  
G01 X-3.5798 Y1.5087  
G01 X-3.5787 Y1.5085  
G01 X-3.5776 Y1.5085  
G01 X-3.5763 Y1.5082  
G01 X-3.5750 Y1.5080  
G01 X-3.5739 Y1.5075  
G01 X-3.5729 Y1.5072  
G01 X-3.5717 Y1.5066  
G01 X-3.5705 Y1.5061  
G01 X-3.5696 Y1.5054  
G01 X-3.5686 Y1.5048  
G01 X-3.5677 Y1.5039  
G01 X-3.5667 Y1.5030  
G01 X-3.5660 Y1.5022  
G01 X-3.5652 Y1.5014  
G01 X-3.5645 Y1.5002  
G01 X-3.5360 Y1.4622  
G01 X-3.5181 Y1.4443  
G01 X-3.5175 Y1.4439  
G01 X-3.5164 Y1.4426  
G01 X-3.5152 Y1.4414  
G01 X-3.5148 Y1.4407  
G01 X-3.5144 Y1.4402  
G01 X-3.5136 Y1.4386  
G01 X-3.5128 Y1.4371  
G01 X-3.5126 Y1.4364  
G01 X-3.3587 Y1.1139  
G01 X-3.3580 Y1.1127  
G01 X-3.3577 Y1.1117  
G01 X-3.3573 Y1.1108  
G01 X-3.3570 Y1.1094  
G01 X-3.2639 Y0.8020  
G01 X-3.2467 Y0.8020  
G01 X-3.2280 Y0.7833  
G01 X-3.2280 Y0.7567  
G01 X-3.2467 Y0.7380  
G01 X-3.2565 Y0.7380  
G01 X-3.2565 Y0.5518  
G01 X-3.2480 Y0.5433  
G01 X-3.2480 Y0.5242  
G01 X-3.1629 Y0.4391  
G01 X-3.1621 Y0.4385  
G01 X-3.1612 Y0.4374  
G01 X-3.1602 Y0.4364  
G01 X-3.1597 Y0.4355  
G01 X-3.0689 Y0.3220  
G01 X-3.0467 Y0.3220  
G01 X-3.0280 Y0.3033  
G01 X-3.0280 Y0.2792  
G01 X-2.8673 Y0.1185  
G01 X-0.5577 Y0.1185  
G01 X-0.1185 Y0.5577  
G01 X-0.1185 Y2.3723  
G01 X-0.3371 Y2.5910  
G01 X-0.3380 Y2.5916  
G01 X-0.3389 Y2.5927  
G01 X-0.3398 Y2.5936  
G01 X-0.3404 Y2.5946  
G01 X-0.3410 Y2.5955  
G01 X-0.3416 Y2.5967  
G01 X-0.3422 Y2.5979  
G01 X-0.3425 Y2.5989  
G01 X-0.4287 Y2.7999  
G01 X-0.5937 Y2.8518  
G01 X-0.5941 Y2.8518  
G01 X-0.5960 Y2.8525  
G01 X-0.5979 Y2.8531  
G01 X-0.5983 Y2.8533  
G01 X-0.5987 Y2.8535  
G01 X-0.6003 Y2.8546  
G01 X-0.6020 Y2.8557  
G01 X-0.6023 Y2.8560  
G01 X-0.6856 Y2.9149  
G01 X-0.7572 Y2.9650  
G01 X-0.7580 Y2.9646  
G01 X-0.7654 Y2.9622  
G01 X-0.7730 Y2.9610  
G01 X-0.7807 Y2.9610  
G01 X-0.7883 Y2.9622  
G01 X-0.7957 Y2.9646  
G01 X-0.8025 Y2.9681  
G01 X-0.8088 Y2.9726  
G01 X-0.8142 Y2.9781  
G01 X-0.8188 Y2.9843  
G01 X-0.8221 Y2.9910  
G01 X-1.5980 Y2.9818  
G01 X-1.5980 Y2.9767  
G01 X-1.6167 Y2.9580  
G01 X-1.6433 Y2.9580  
G01 X-1.6620 Y2.9767  
G01 X-1.6620 Y3.0033  
G01 X-1.6433 Y3.0220  
G01 X-1.6167 Y3.0220  
G01 X-1.6134 Y3.0186  
G01 X-0.8225 Y3.0280  
G01 X-0.8223 Y3.0288  
G01 X-0.8188 Y3.0357  
G01 X-0.8142 Y3.0419  
G01 X-0.8088 Y3.0474  
G01 X-0.8025 Y3.0519  
G01 X-0.7957 Y3.0554  
G01 X-0.7883 Y3.0578  
G01 X-0.7807 Y3.0590  
G01 X-0.7730 Y3.0590  
G01 X-0.7654 Y3.0578  
G01 X-0.7580 Y3.0554  
G01 X-0.7512 Y3.0519  
G01 X-0.7449 Y3.0474  
G01 X-0.7395 Y3.0419  
G01 X-0.7349 Y3.0357  
G01 X-0.7314 Y3.0288  
G01 X-0.7291 Y3.0215  
G01 X-0.7279 Y3.0139  
G01 X-0.7279 Y3.0061  
G01 X-0.7291 Y2.9985  
G01 X-0.7312 Y2.9919  
G01 X-0.6664 Y2.9465  
G01 X-0.6644 Y2.9451  
G01 X-0.6624 Y2.9438  
G01 X-0.5817 Y2.8868  
G01 X-0.4111 Y2.8332  
G01 X-0.4104 Y2.8331  
G01 X-0.4088 Y2.8324  
G01 X-0.4071 Y2.8319  
G01 X-0.4065 Y2.8315  
G01 X-0.4059 Y2.8313  
G01 X-0.4045 Y2.8302  
G01 X-0.4030 Y2.8293  
G01 X-0.4025 Y2.8288  
G01 X-0.4020 Y2.8284  
G01 X-0.4009 Y2.8270  
G01 X-0.3997 Y2.8257  
G01 X-0.3994 Y2.8251  
G01 X-0.3990 Y2.8245  
G01 X-0.3983 Y2.8229  
G01 X-0.3975 Y2.8214  
G01 X-0.3973 Y2.8207  
G01 X-0.3094 Y2.6156  
G01 X-0.0886 Y2.3948  
G01 X-0.0852 Y2.3914  
G01 X-0.0828 Y2.3871  
G01 X-0.0815 Y2.3824  
G01 X-0.0815 Y0.5476  
G01 X-0.0828 Y0.5429  
G01 X-0.0852 Y0.5386  
G00 Z0.0500  
G00 X-0.2880 Y0.5392  
G01 Z-0.0040 F10    
G01 X-0.2880 Y0.4808  F20    
G01 X-0.2892 Y0.4747  
G01 X-0.2916 Y0.4688  
G01 X-0.2951 Y0.4636  
G01 X-0.2996 Y0.4591  
G01 X-0.3048 Y0.4556  
G01 X-0.3107 Y0.4532  
G01 X-0.3168 Y0.4520  
G01 X-0.3232 Y0.4520  
G01 X-0.3293 Y0.4532  
G01 X-0.3352 Y0.4556  
G01 X-0.3397 Y0.4586  
G01 X-0.4780 Y0.2972  
G01 X-0.4780 Y0.2767  
G01 X-0.4967 Y0.2580  
G01 X-0.5233 Y0.2580  
G01 X-0.5420 Y0.2767  
G01 X-0.5420 Y0.3033  
G01 X-0.5357 Y0.3095  
G01 X-0.6330 Y0.4069  
G01 X-0.6348 Y0.4056  
G01 X-0.6407 Y0.4032  
G01 X-0.6468 Y0.4020  
G01 X-0.6532 Y0.4020  
G01 X-0.6593 Y0.4032  
G01 X-0.6652 Y0.4056  
G01 X-0.6704 Y0.4091  
G01 X-0.6749 Y0.4136  
G01 X-0.6784 Y0.4188  
G01 X-0.6808 Y0.4247  
G01 X-0.6820 Y0.4308  
G01 X-0.6820 Y0.4892  
G01 X-0.6808 Y0.4953  
G01 X-0.6784 Y0.5012  
G01 X-0.6749 Y0.5064  
G01 X-0.6704 Y0.5109  
G01 X-0.6652 Y0.5144  
G01 X-0.6593 Y0.5168  
G01 X-0.6532 Y0.5180  
G01 X-0.6468 Y0.5180  
G01 X-0.6407 Y0.5168  
G01 X-0.6348 Y0.5144  
G01 X-0.6296 Y0.5109  
G01 X-0.6251 Y0.5064  
G01 X-0.6216 Y0.5012  
G01 X-0.6192 Y0.4953  
G01 X-0.6180 Y0.4892  
G01 X-0.6180 Y0.4442  
G01 X-0.5010 Y0.3272  
G01 X-0.3520 Y0.5011  
G01 X-0.3520 Y0.5392  
G01 X-0.3508 Y0.5453  
G01 X-0.3484 Y0.5512  
G01 X-0.3449 Y0.5564  
G01 X-0.3404 Y0.5609  
G01 X-0.3352 Y0.5644  
G01 X-0.3293 Y0.5668  
G01 X-0.3232 Y0.5680  
G01 X-0.3168 Y0.5680  
G01 X-0.3107 Y0.5668  
G01 X-0.3048 Y0.5644  
G01 X-0.2996 Y0.5609  
G01 X-0.2951 Y0.5564  
G01 X-0.2916 Y0.5512  
G01 X-0.2892 Y0.5453  
G01 X-0.2880 Y0.5392  
G00 Z0.0500  
G00 X-0.3720 Y0.5314  
G01 Z-0.0040 F10    
G01 X-0.3718 Y0.5304  F20    
G01 X-0.3720 Y0.5290  
G01 X-0.3720 Y0.5276  
G01 X-0.3723 Y0.5267  
G01 X-0.3724 Y0.5256  
G01 X-0.3729 Y0.5244  
G01 X-0.3732 Y0.5231  
G01 X-0.3737 Y0.5222  
G01 X-0.3741 Y0.5212  
G01 X-0.3749 Y0.5201  
G01 X-0.3756 Y0.5189  
G01 X-0.3763 Y0.5182  
G01 X-0.3769 Y0.5174  
G01 X-0.3780 Y0.5166  
G01 X-0.3789 Y0.5156  
G01 X-0.3798 Y0.5151  
G01 X-0.3806 Y0.5145  
G01 X-0.3819 Y0.5139  
G01 X-0.3831 Y0.5132  
G01 X-0.3840 Y0.5130  
G01 X-0.5180 Y0.4544  
G01 X-0.5180 Y0.4308  
G01 X-0.5192 Y0.4247  
G01 X-0.5216 Y0.4188  
G01 X-0.5251 Y0.4136  
G01 X-0.5296 Y0.4091  
G01 X-0.5348 Y0.4056  
G01 X-0.5407 Y0.4032  
G01 X-0.5468 Y0.4020  
G01 X-0.5532 Y0.4020  
G01 X-0.5593 Y0.4032  
G01 X-0.5652 Y0.4056  
G01 X-0.5704 Y0.4091  
G01 X-0.5749 Y0.4136  
G01 X-0.5784 Y0.4188  
G01 X-0.5808 Y0.4247  
G01 X-0.5820 Y0.4308  
G01 X-0.5820 Y0.4892  
G01 X-0.5808 Y0.4953  
G01 X-0.5784 Y0.5012  
G01 X-0.5780 Y0.5017  
G01 X-0.5780 Y0.5210  
G01 X-0.6060 Y0.5420  
G01 X-0.7925 Y0.5420  
G01 X-0.8266 Y0.5079  
G01 X-0.8251 Y0.5064  
G01 X-0.8216 Y0.5012  
G01 X-0.8192 Y0.4953  
G01 X-0.8180 Y0.4892  
G01 X-0.8180 Y0.4308  
G01 X-0.8192 Y0.4247  
G01 X-0.8216 Y0.4188  
G01 X-0.8251 Y0.4136  
G01 X-0.8296 Y0.4091  
G01 X-0.8348 Y0.4056  
G01 X-0.8407 Y0.4032  
G01 X-0.8468 Y0.4020  
G01 X-0.8511 Y0.4020  
G01 X-0.8715 Y0.3561  
G01 X-0.8715 Y0.3116  
G01 X-0.8714 Y0.3107  
G01 X-0.8715 Y0.3091  
G01 X-0.8715 Y0.3076  
G01 X-0.8717 Y0.3067  
G01 X-0.8718 Y0.3059  
G01 X-0.8724 Y0.3044  
G01 X-0.8728 Y0.3029  
G01 X-0.8732 Y0.3021  
G01 X-0.8746 Y0.2984  
G01 X-0.8694 Y0.2932  
G01 X-0.8694 Y0.2668  
G01 X-0.8880 Y0.2483  
G01 X-0.9143 Y0.2483  
G01 X-0.9329 Y0.2668  
G01 X-0.9329 Y0.2932  
G01 X-0.9143 Y0.3117  
G01 X-0.9091 Y0.3117  
G01 X-0.9085 Y0.3133  
G01 X-0.9085 Y0.3590  
G01 X-0.9087 Y0.3605  
G01 X-0.9085 Y0.3614  
G01 X-0.9085 Y0.3624  
G01 X-0.9081 Y0.3638  
G01 X-0.9079 Y0.3653  
G01 X-0.9075 Y0.3662  
G01 X-0.9072 Y0.3671  
G01 X-0.9065 Y0.3684  
G01 X-0.8810 Y0.4258  
G01 X-0.8820 Y0.4308  
G01 X-0.8820 Y0.4892  
G01 X-0.8808 Y0.4953  
G01 X-0.8784 Y0.5012  
G01 X-0.8749 Y0.5064  
G01 X-0.8704 Y0.5109  
G01 X-0.8680 Y0.5125  
G01 X-0.8668 Y0.5169  
G01 X-0.8644 Y0.5211  
G01 X-0.8144 Y0.5711  
G01 X-0.8111 Y0.5744  
G01 X-0.8069 Y0.5768  
G01 X-0.8024 Y0.5780  
G01 X-0.6013 Y0.5780  
G01 X-0.6002 Y0.5782  
G01 X-0.5989 Y0.5780  
G01 X-0.5976 Y0.5780  
G01 X-0.5966 Y0.5777  
G01 X-0.5955 Y0.5776  
G01 X-0.5943 Y0.5771  
G01 X-0.5931 Y0.5768  
G01 X-0.5921 Y0.5762  
G01 X-0.5911 Y0.5758  
G01 X-0.5901 Y0.5750  
G01 X-0.5889 Y0.5744  
G01 X-0.5882 Y0.5736  
G01 X-0.5501 Y0.5450  
G01 X-0.5489 Y0.5444  
G01 X-0.5482 Y0.5436  
G01 X-0.5473 Y0.5430  
G01 X-0.5465 Y0.5420  
G01 X-0.5456 Y0.5411  
G01 X-0.5451 Y0.5401  
G01 X-0.5444 Y0.5393  
G01 X-0.5439 Y0.5381  
G01 X-0.5432 Y0.5369  
G01 X-0.5429 Y0.5359  
G01 X-0.5425 Y0.5349  
G01 X-0.5423 Y0.5336  
G01 X-0.5420 Y0.5324  
G01 X-0.5420 Y0.5313  
G01 X-0.5418 Y0.5302  
G01 X-0.5420 Y0.5289  
G01 X-0.5420 Y0.5170  
G01 X-0.5407 Y0.5168  
G01 X-0.5348 Y0.5144  
G01 X-0.5296 Y0.5109  
G01 X-0.5251 Y0.5064  
G01 X-0.5216 Y0.5012  
G01 X-0.5192 Y0.4953  
G01 X-0.5188 Y0.4933  
G01 X-0.4080 Y0.5418  
G01 X-0.4080 Y0.6325  
G01 X-0.4720 Y0.6966  
G01 X-0.4731 Y0.6974  
G01 X-0.4737 Y0.6982  
G01 X-0.4744 Y0.6989  
G01 X-0.4751 Y0.7001  
G01 X-0.4759 Y0.7012  
G01 X-0.4763 Y0.7022  
G01 X-0.4768 Y0.7031  
G01 X-0.4771 Y0.7044  
G01 X-0.4776 Y0.7057  
G01 X-0.4777 Y0.7067  
G01 X-0.4780 Y0.7076  
G01 X-0.4780 Y0.7090  
G01 X-0.4873 Y0.7927  
G01 X-0.5571 Y0.8780  
G01 X-0.5733 Y0.8780  
G01 X-0.5920 Y0.8967  
G01 X-0.5920 Y0.9233  
G01 X-0.5733 Y0.9420  
G01 X-0.5467 Y0.9420  
G01 X-0.5280 Y0.9233  
G01 X-0.5280 Y0.8993  
G01 X-0.4573 Y0.8129  
G01 X-0.4569 Y0.8126  
G01 X-0.4558 Y0.8110  
G01 X-0.4546 Y0.8096  
G01 X-0.4544 Y0.8091  
G01 X-0.4541 Y0.8088  
G01 X-0.4534 Y0.8070  
G01 X-0.4526 Y0.8052  
G01 X-0.4525 Y0.8048  
G01 X-0.4524 Y0.8043  
G01 X-0.4522 Y0.8024  
G01 X-0.4519 Y0.8006  
G01 X-0.4519 Y0.8001  
G01 X-0.4428 Y0.7183  
G01 X-0.3756 Y0.6511  
G01 X-0.3732 Y0.6469  
G01 X-0.3720 Y0.6424  
G01 X-0.3720 Y0.5314  
G00 Z0.0500  
G00 X-0.4212 Y0.5629  
G01 Z-0.0040 F10    
G01 X-0.4229 Y0.5612  F20    
G01 X-0.4251 Y0.5603  
G01 X-0.4749 Y0.5603  
G01 X-0.4771 Y0.5612  
G01 X-0.4788 Y0.5629  
G01 X-0.4797 Y0.5651  
G01 X-0.4797 Y0.5880  
G01 X-0.5429 Y0.5880  
G01 X-0.5485 Y0.5895  
G01 X-0.5535 Y0.5924  
G01 X-0.5576 Y0.5965  
G01 X-0.5676 Y0.6065  
G01 X-0.5705 Y0.6115  
G01 X-0.5720 Y0.6171  
G01 X-0.5720 Y0.7107  
G01 X-0.5749 Y0.7136  
G01 X-0.5784 Y0.7188  
G01 X-0.5808 Y0.7247  
G01 X-0.5820 Y0.7308  
G01 X-0.5820 Y0.7909  
G01 X-0.6376 Y0.8465  
G01 X-0.6405 Y0.8515  
G01 X-0.6420 Y0.8571  
G01 X-0.6420 Y0.8609  
G01 X-0.6476 Y0.8665  
G01 X-0.6505 Y0.8715  
G01 X-0.6520 Y0.8771  
G01 X-0.6520 Y0.9429  
G01 X-0.6505 Y0.9485  
G01 X-0.6476 Y0.9535  
G01 X-0.6435 Y0.9576  
G01 X-0.5735 Y1.0276  
G01 X-0.5685 Y1.0305  
G01 X-0.5629 Y1.0320  
G01 X-0.5333 Y1.0320  
G01 X-0.5233 Y1.0420  
G01 X-0.4967 Y1.0420  
G01 X-0.4780 Y1.0233  
G01 X-0.4780 Y0.9967  
G01 X-0.4967 Y0.9780  
G01 X-0.5233 Y0.9780  
G01 X-0.5333 Y0.9880  
G01 X-0.5509 Y0.9880  
G01 X-0.6080 Y0.9309  
G01 X-0.6080 Y0.8891  
G01 X-0.6065 Y0.8876  
G01 X-0.6024 Y0.8835  
G01 X-0.5995 Y0.8785  
G01 X-0.5980 Y0.8729  
G01 X-0.5980 Y0.8691  
G01 X-0.5469 Y0.8180  
G01 X-0.5407 Y0.8168  
G01 X-0.5348 Y0.8144  
G01 X-0.5296 Y0.8109  
G01 X-0.5251 Y0.8064  
G01 X-0.5216 Y0.8012  
G01 X-0.5192 Y0.7953  
G01 X-0.5180 Y0.7892  
G01 X-0.5180 Y0.7308  
G01 X-0.5192 Y0.7247  
G01 X-0.5216 Y0.7188  
G01 X-0.5251 Y0.7136  
G01 X-0.5280 Y0.7107  
G01 X-0.5280 Y0.6320  
G01 X-0.4671 Y0.6320  
G01 X-0.4615 Y0.6305  
G01 X-0.4565 Y0.6276  
G01 X-0.4486 Y0.6197  
G01 X-0.4251 Y0.6197  
G01 X-0.4229 Y0.6188  
G01 X-0.4212 Y0.6171  
G01 X-0.4203 Y0.6149  
G01 X-0.4203 Y0.5651  
G01 X-0.4212 Y0.5629  
G00 Z0.0500  
G00 X-0.3989 Y0.7025  
G01 Z-0.0040 F10    
G01 X-0.3992 Y0.7031  F20    
G01 X-0.3997 Y0.7035  
G01 X-0.4006 Y0.7051  
G01 X-0.4016 Y0.7066  
G01 X-0.4019 Y0.7072  
G01 X-0.4022 Y0.7077  
G01 X-0.4027 Y0.7094  
G01 X-0.4033 Y0.7112  
G01 X-0.4033 Y0.7118  
G01 X-0.4522 Y0.8878  
G01 X-0.4528 Y0.8901  
G01 X-0.4535 Y0.8924  
G01 X-0.4535 Y0.8926  
G01 X-0.4535 Y0.8949  
G01 X-0.4535 Y0.8973  
G01 X-0.4535 Y1.0452  
G01 X-0.7838 Y1.2686  
G01 X-0.7842 Y1.2688  
G01 X-0.7858 Y1.2700  
G01 X-0.7874 Y1.2710  
G01 X-0.7877 Y1.2714  
G01 X-0.7881 Y1.2717  
G01 X-0.7893 Y1.2733  
G01 X-0.7906 Y1.2747  
G01 X-0.7908 Y1.2752  
G01 X-0.7911 Y1.2756  
G01 X-0.7919 Y1.2774  
G01 X-0.7927 Y1.2791  
G01 X-0.7928 Y1.2796  
G01 X-0.7930 Y1.2800  
G01 X-0.7933 Y1.2820  
G01 X-0.7936 Y1.2839  
G01 X-0.7936 Y1.2844  
G01 X-0.8625 Y1.7813  
G01 X-0.9077 Y1.8265  
G01 X-1.0778 Y1.8265  
G01 X-1.0781 Y1.8264  
G01 X-1.0803 Y1.8265  
G01 X-1.0824 Y1.8265  
G01 X-1.0827 Y1.8266  
G01 X-1.0830 Y1.8266  
G01 X-1.0851 Y1.8272  
G01 X-1.0871 Y1.8278  
G01 X-1.0874 Y1.8279  
G01 X-1.0876 Y1.8280  
G01 X-1.0895 Y1.8291  
G01 X-1.0914 Y1.8302  
G01 X-1.0916 Y1.8304  
G01 X-1.0918 Y1.8305  
G01 X-1.0933 Y1.8321  
G01 X-1.0948 Y1.8336  
G01 X-1.0949 Y1.8339  
G01 X-1.0951 Y1.8341  
G01 X-1.0962 Y1.8360  
G01 X-1.0972 Y1.8379  
G01 X-1.0973 Y1.8381  
G01 X-1.1674 Y1.9684  
G01 X-1.1686 Y1.9731  
G01 X-1.1684 Y1.9780  
G01 X-1.1680 Y1.9794  
G01 X-1.1680 Y1.9827  
G01 X-1.1820 Y1.9967  
G01 X-1.1820 Y2.0233  
G01 X-1.1633 Y2.0420  
G01 X-1.1367 Y2.0420  
G01 X-1.1180 Y2.0233  
G01 X-1.1180 Y1.9967  
G01 X-1.1320 Y1.9827  
G01 X-1.1320 Y1.9806  
G01 X-1.0690 Y1.8635  
G01 X-0.8976 Y1.8635  
G01 X-0.8929 Y1.8622  
G01 X-0.8886 Y1.8598  
G01 X-0.8328 Y1.8040  
G01 X-0.8319 Y1.8033  
G01 X-0.8311 Y1.8023  
G01 X-0.8302 Y1.8014  
G01 X-0.8296 Y1.8004  
G01 X-0.8289 Y1.7994  
G01 X-0.8284 Y1.7983  
G01 X-0.8278 Y1.7971  
G01 X-0.8275 Y1.7960  
G01 X-0.8270 Y1.7950  
G01 X-0.8268 Y1.7937  
G01 X-0.8265 Y1.7924  
G01 X-0.8265 Y1.7913  
G01 X-0.7578 Y1.2957  
G01 X-0.4252 Y1.0707  
G01 X-0.4236 Y1.0698  
G01 X-0.4232 Y1.0693  
G01 X-0.4226 Y1.0690  
G01 X-0.4215 Y1.0676  
G01 X-0.4202 Y1.0664  
G01 X-0.4199 Y1.0658  
G01 X-0.4194 Y1.0653  
G01 X-0.4186 Y1.0637  
G01 X-0.4178 Y1.0621  
G01 X-0.4176 Y1.0615  
G01 X-0.4173 Y1.0609  
G01 X-0.4170 Y1.0592  
G01 X-0.4165 Y1.0574  
G01 X-0.4165 Y1.0568  
G01 X-0.4164 Y1.0561  
G01 X-0.4165 Y1.0543  
G01 X-0.4165 Y0.8975  
G01 X-0.3712 Y0.7346  
G01 X-0.2642 Y0.7428  
G01 X-0.1685 Y0.8567  
G01 X-0.1685 Y2.3423  
G01 X-0.4827 Y2.6565  
G01 X-0.6524 Y2.6565  
G01 X-0.6571 Y2.6578  
G01 X-0.6614 Y2.6602  
G01 X-0.9327 Y2.9315  
G01 X-1.5178 Y2.9315  
G01 X-1.6205 Y2.9071  
G01 X-1.6226 Y2.9065  
G01 X-1.6228 Y2.9065  
G01 X-1.6231 Y2.9064  
G01 X-1.6253 Y2.9065  
G01 X-1.6481 Y2.9065  
G01 X-1.6486 Y2.9064  
G01 X-1.6505 Y2.9065  
G01 X-1.6524 Y2.9065  
G01 X-1.6529 Y2.9066  
G01 X-1.6535 Y2.9067  
G01 X-1.6553 Y2.9073  
G01 X-1.6571 Y2.9078  
G01 X-1.6576 Y2.9080  
G01 X-1.6581 Y2.9082  
G01 X-1.6597 Y2.9092  
G01 X-1.6614 Y2.9102  
G01 X-1.6617 Y2.9106  
G01 X-1.8005 Y3.0015  
G01 X-2.2386 Y3.0015  
G01 X-2.2580 Y2.9626  
G01 X-2.2580 Y2.7224  
G01 X-2.2579 Y2.7219  
G01 X-2.2580 Y2.7195  
G01 X-2.2580 Y2.7171  
G01 X-2.2581 Y2.7166  
G01 X-2.2581 Y2.7162  
G01 X-2.2589 Y2.7138  
G01 X-2.2595 Y2.7115  
G01 X-2.2597 Y2.7111  
G01 X-2.2599 Y2.7106  
G01 X-2.2612 Y2.7086  
G01 X-2.2615 Y2.7080  
G01 X-2.2615 Y2.7076  
G01 X-2.2616 Y2.7072  
G01 X-2.2616 Y2.7068  
G01 X-2.2622 Y2.7048  
G01 X-2.2628 Y2.7029  
G01 X-2.2630 Y2.7025  
G01 X-2.2631 Y2.7021  
G01 X-2.2642 Y2.7004  
G01 X-2.2652 Y2.6986  
G01 X-2.2655 Y2.6984  
G01 X-2.2657 Y2.6980  
G01 X-2.2672 Y2.6966  
G01 X-2.2686 Y2.6952  
G01 X-2.2690 Y2.6950  
G01 X-2.3685 Y2.6038  
G01 X-2.3680 Y2.6033  
G01 X-2.3680 Y2.5767  
G01 X-2.3867 Y2.5580  
G01 X-2.4133 Y2.5580  
G01 X-2.4320 Y2.5767  
G01 X-2.4320 Y2.6033  
G01 X-2.4219 Y2.6134  
G01 X-2.4219 Y2.6138  
G01 X-2.4211 Y2.6162  
G01 X-2.4205 Y2.6185  
G01 X-2.4203 Y2.6189  
G01 X-2.4201 Y2.6194  
G01 X-2.4188 Y2.6214  
G01 X-2.4176 Y2.6235  
G01 X-2.4173 Y2.6239  
G01 X-2.4170 Y2.6243  
G01 X-2.4152 Y2.6259  
G01 X-2.4135 Y2.6276  
G01 X-2.4131 Y2.6278  
G01 X-2.3020 Y2.7297  
G01 X-2.3020 Y2.9153  
G01 X-2.3480 Y2.8739  
G01 X-2.3480 Y2.8567  
G01 X-2.3667 Y2.8380  
G01 X-2.3933 Y2.8380  
G01 X-2.4120 Y2.8567  
G01 X-2.4120 Y2.8833  
G01 X-2.3933 Y2.9020  
G01 X-2.3721 Y2.9020  
G01 X-2.3020 Y2.9651  
G01 X-2.3020 Y3.0182  
G01 X-2.3167 Y3.0280  
G01 X-3.3509 Y3.0280  
G01 X-3.7580 Y2.6209  
G01 X-3.7580 Y2.4020  
G01 X-3.3128 Y2.4020  
G01 X-3.3100 Y2.4020  
G01 X-3.3071 Y2.4020  
G01 X-3.3043 Y2.4012  
G01 X-3.3015 Y2.4005  
G01 X-3.1971 Y2.3720  
G01 X-2.9891 Y2.3720  
G01 X-2.8720 Y2.4891  
G01 X-2.8720 Y2.4932  
G01 X-2.8708 Y2.4993  
G01 X-2.8684 Y2.5052  
G01 X-2.8649 Y2.5104  
G01 X-2.8604 Y2.5149  
G01 X-2.8552 Y2.5184  
G01 X-2.8493 Y2.5208  
G01 X-2.8432 Y2.5220  
G01 X-2.8368 Y2.5220  
G01 X-2.8307 Y2.5208  
G01 X-2.8248 Y2.5184  
G01 X-2.8196 Y2.5149  
G01 X-2.8151 Y2.5104  
G01 X-2.8116 Y2.5052  
G01 X-2.8092 Y2.4993  
G01 X-2.8080 Y2.4932  
G01 X-2.8080 Y2.4868  
G01 X-2.8092 Y2.4807  
G01 X-2.8116 Y2.4748  
G01 X-2.8151 Y2.4696  
G01 X-2.8196 Y2.4651  
G01 X-2.8248 Y2.4616  
G01 X-2.8307 Y2.4592  
G01 X-2.8368 Y2.4580  
G01 X-2.8409 Y2.4580  
G01 X-2.9624 Y2.3365  
G01 X-2.9665 Y2.3324  
G01 X-2.9715 Y2.3295  
G01 X-2.9771 Y2.3280  
G01 X-3.1972 Y2.3280  
G01 X-3.2000 Y2.3280  
G01 X-3.2029 Y2.3280  
G01 X-3.2057 Y2.3288  
G01 X-3.2085 Y2.3295  
G01 X-3.3129 Y2.3580  
G01 X-3.7641 Y2.3580  
G01 X-3.7645 Y2.3565  
G01 X-3.7648 Y2.3559  
G01 X-3.7650 Y2.3553  
G01 X-3.7663 Y2.3534  
G01 X-3.7674 Y2.3515  
G01 X-3.7679 Y2.3510  
G01 X-3.7682 Y2.3505  
G01 X-3.7699 Y2.3490  
G01 X-3.7780 Y2.3409  
G01 X-3.7780 Y1.1997  
G01 X-3.7651 Y1.1997  
G01 X-3.7629 Y1.1988  
G01 X-3.7612 Y1.1971  
G01 X-3.7603 Y1.1949  
G01 X-3.7603 Y1.1451  
G01 X-3.7612 Y1.1429  
G01 X-3.7629 Y1.1412  
G01 X-3.7651 Y1.1403  
G01 X-3.8149 Y1.1403  
G01 X-3.8171 Y1.1412  
G01 X-3.8188 Y1.1429  
G01 X-3.8197 Y1.1451  
G01 X-3.8197 Y1.1702  
G01 X-3.8205 Y1.1715  
G01 X-3.8220 Y1.1771  
G01 X-3.8220 Y2.3529  
G01 X-3.8205 Y2.3585  
G01 X-3.8176 Y2.3635  
G01 X-3.8135 Y2.3676  
G01 X-3.8042 Y2.3769  
G01 X-3.8020 Y2.3836  
G01 X-3.8020 Y2.6329  
G01 X-3.8005 Y2.6385  
G01 X-3.7976 Y2.6435  
G01 X-3.7935 Y2.6476  
G01 X-3.3735 Y3.0676  
G01 X-3.3685 Y3.0705  
G01 X-3.3629 Y3.0720  
G01 X-2.3122 Y3.0720  
G01 X-2.3115 Y3.0721  
G01 X-2.3093 Y3.0720  
G01 X-2.3071 Y3.0720  
G01 X-2.3064 Y3.0718  
G01 X-2.3057 Y3.0718  
G01 X-2.3036 Y3.0711  
G01 X-2.3015 Y3.0705  
G01 X-2.3009 Y3.0701  
G01 X-2.3002 Y3.0699  
G01 X-2.2984 Y3.0687  
G01 X-2.2965 Y3.0676  
G01 X-2.2960 Y3.0671  
G01 X-2.2684 Y3.0487  
G01 X-2.2665 Y3.0476  
G01 X-2.2660 Y3.0471  
G01 X-2.2654 Y3.0467  
G01 X-2.2639 Y3.0451  
G01 X-2.2624 Y3.0435  
G01 X-2.2620 Y3.0429  
G01 X-2.2616 Y3.0423  
G01 X-2.2606 Y3.0404  
G01 X-2.2595 Y3.0385  
G01 X-2.2593 Y3.0378  
G01 X-2.2590 Y3.0372  
G01 X-2.2588 Y3.0363  
G01 X-2.2582 Y3.0368  
G01 X-2.2576 Y3.0370  
G01 X-2.2571 Y3.0372  
G01 X-2.2553 Y3.0377  
G01 X-2.2535 Y3.0383  
G01 X-2.2530 Y3.0384  
G01 X-2.2524 Y3.0385  
G01 X-2.2506 Y3.0385  
G01 X-2.2487 Y3.0386  
G01 X-2.2481 Y3.0385  
G01 X-1.7969 Y3.0385  
G01 X-1.7964 Y3.0386  
G01 X-1.7945 Y3.0385  
G01 X-1.7926 Y3.0385  
G01 X-1.7921 Y3.0384  
G01 X-1.7915 Y3.0383  
G01 X-1.7897 Y3.0377  
G01 X-1.7879 Y3.0372  
G01 X-1.7874 Y3.0370  
G01 X-1.7869 Y3.0368  
G01 X-1.7853 Y3.0358  
G01 X-1.7836 Y3.0348  
G01 X-1.7833 Y3.0344  
G01 X-1.6445 Y2.9435  
G01 X-1.6272 Y2.9435  
G01 X-1.5245 Y2.9679  
G01 X-1.5224 Y2.9685  
G01 X-1.5222 Y2.9685  
G01 X-1.5219 Y2.9686  
G01 X-1.5197 Y2.9685  
G01 X-0.9226 Y2.9685  
G01 X-0.9179 Y2.9672  
G01 X-0.9136 Y2.9648  
G01 X-0.9102 Y2.9614  
G01 X-0.6423 Y2.6935  
G01 X-0.4726 Y2.6935  
G01 X-0.4679 Y2.6922  
G01 X-0.4636 Y2.6898  
G01 X-0.4602 Y2.6864  
G01 X-0.1352 Y2.3614  
G01 X-0.1328 Y2.3571  
G01 X-0.1315 Y2.3524  
G01 X-0.1315 Y0.8508  
G01 X-0.1314 Y0.8492  
G01 X-0.1315 Y0.8484  
G01 X-0.1315 Y0.8476  
G01 X-0.1319 Y0.8460  
G01 X-0.1322 Y0.8444  
G01 X-0.1326 Y0.8436  
G01 X-0.1328 Y0.8429  
G01 X-0.1336 Y0.8414  
G01 X-0.1343 Y0.8400  
G01 X-0.1348 Y0.8393  
G01 X-0.1352 Y0.8386  
G01 X-0.1364 Y0.8375  
G01 X-0.2393 Y0.7149  
G01 X-0.2409 Y0.7130  
G01 X-0.2424 Y0.7112  
G01 X-0.2425 Y0.7111  
G01 X-0.2445 Y0.7098  
G01 X-0.2464 Y0.7084  
G01 X-0.2466 Y0.7084  
G01 X-0.2488 Y0.7076  
G01 X-0.2510 Y0.7068  
G01 X-0.2512 Y0.7067  
G01 X-0.2535 Y0.7066  
G01 X-0.2558 Y0.7064  
G01 X-0.3818 Y0.6967  
G01 X-0.3824 Y0.6965  
G01 X-0.3842 Y0.6965  
G01 X-0.3860 Y0.6964  
G01 X-0.3866 Y0.6965  
G01 X-0.3873 Y0.6965  
G01 X-0.3890 Y0.6969  
G01 X-0.3908 Y0.6973  
G01 X-0.3914 Y0.6975  
G01 X-0.3920 Y0.6977  
G01 X-0.3936 Y0.6986  
G01 X-0.3952 Y0.6994  
G01 X-0.3957 Y0.6998  
G01 X-0.3962 Y0.7001  
G01 X-0.3975 Y0.7014  
G01 X-0.3989 Y0.7025  
G00 Z0.0500  
G00 X-0.3404 Y0.7591  
G01 Z-0.0040 F10    
G01 X-0.3449 Y0.7636  F20    
G01 X-0.3484 Y0.7688  
G01 X-0.3508 Y0.7747  
G01 X-0.3520 Y0.7808  
G01 X-0.3520 Y0.8392  
G01 X-0.3508 Y0.8453  
G01 X-0.3484 Y0.8512  
G01 X-0.3449 Y0.8564  
G01 X-0.3410 Y0.8602  
G01 X-0.3912 Y0.9561  
G01 X-0.3922 Y0.9579  
G01 X-0.3923 Y0.9582  
G01 X-0.3925 Y0.9586  
G01 X-0.3930 Y0.9606  
G01 X-0.3935 Y0.9626  
G01 X-0.3935 Y0.9630  
G01 X-0.3936 Y0.9633  
G01 X-0.3935 Y0.9654  
G01 X-0.3935 Y1.1229  
G01 X-0.5520 Y1.2995  
G01 X-0.5520 Y1.2697  
G01 X-0.5451 Y1.2697  
G01 X-0.5429 Y1.2688  
G01 X-0.5412 Y1.2671  
G01 X-0.5403 Y1.2649  
G01 X-0.5403 Y1.2151  
G01 X-0.5412 Y1.2129  
G01 X-0.5429 Y1.2112  
G01 X-0.5451 Y1.2103  
G01 X-0.5949 Y1.2103  
G01 X-0.5971 Y1.2112  
G01 X-0.5988 Y1.2129  
G01 X-0.5997 Y1.2151  
G01 X-0.5997 Y1.2649  
G01 X-0.5988 Y1.2671  
G01 X-0.5971 Y1.2688  
G01 X-0.5949 Y1.2697  
G01 X-0.5880 Y1.2697  
G01 X-0.5880 Y1.3027  
G01 X-0.6020 Y1.3167  
G01 X-0.6020 Y1.3433  
G01 X-0.5833 Y1.3620  
G01 X-0.5567 Y1.3620  
G01 X-0.5380 Y1.3433  
G01 X-0.5380 Y1.3393  
G01 X-0.5379 Y1.3392  
G01 X-0.5367 Y1.3378  
G01 X-0.5354 Y1.3366  
G01 X-0.5350 Y1.3360  
G01 X-0.3980 Y1.1833  
G01 X-0.4033 Y1.2474  
G01 X-0.4060 Y1.2608  
G01 X-0.4120 Y1.2667  
G01 X-0.4120 Y1.2933  
G01 X-0.3933 Y1.3120  
G01 X-0.3667 Y1.3120  
G01 X-0.3480 Y1.2933  
G01 X-0.3480 Y1.2667  
G01 X-0.3663 Y1.2484  
G01 X-0.3567 Y1.1332  
G01 X-0.3565 Y1.1324  
G01 X-0.3565 Y1.1319  
G01 X-0.3564 Y1.1314  
G01 X-0.3565 Y1.1303  
G01 X-0.3564 Y1.1291  
G01 X-0.3565 Y1.1283  
G01 X-0.3565 Y0.9696  
G01 X-0.3038 Y0.8689  
G01 X-0.3028 Y0.8671  
G01 X-0.3027 Y0.8668  
G01 X-0.3025 Y0.8664  
G01 X-0.3020 Y0.8644  
G01 X-0.3015 Y0.8624  
G01 X-0.3015 Y0.8621  
G01 X-0.2996 Y0.8609  
G01 X-0.2951 Y0.8564  
G01 X-0.2916 Y0.8512  
G01 X-0.2892 Y0.8453  
G01 X-0.2880 Y0.8392  
G01 X-0.2880 Y0.7808  
G01 X-0.2892 Y0.7747  
G01 X-0.2916 Y0.7688  
G01 X-0.2951 Y0.7636  
G01 X-0.2996 Y0.7591  
G01 X-0.3048 Y0.7556  
G01 X-0.3107 Y0.7532  
G01 X-0.3168 Y0.7520  
G01 X-0.3232 Y0.7520  
G01 X-0.3293 Y0.7532  
G01 X-0.3352 Y0.7556  
G01 X-0.3404 Y0.7591  
G00 Z0.0500  
G00 X-0.3233 Y0.9780  
G01 Z-0.0040 F10    
G01 X-0.3420 Y0.9967  F20    
G01 X-0.3420 Y1.0233  
G01 X-0.3306 Y1.0346  
G01 X-0.3260 Y1.0532  
G01 X-0.3260 Y1.2613  
G01 X-0.3284 Y1.2648  
G01 X-0.3308 Y1.2707  
G01 X-0.3320 Y1.2768  
G01 X-0.3320 Y1.2832  
G01 X-0.3308 Y1.2893  
G01 X-0.3284 Y1.2952  
G01 X-0.3264 Y1.2981  
G01 X-0.3364 Y1.3345  
G01 X-0.6971 Y1.4500  
G01 X-0.6988 Y1.4504  
G01 X-0.6996 Y1.4508  
G01 X-0.7004 Y1.4510  
G01 X-0.7019 Y1.4519  
G01 X-0.7034 Y1.4526  
G01 X-0.7041 Y1.4531  
G01 X-0.7048 Y1.4535  
G01 X-0.7062 Y1.4546  
G01 X-0.7075 Y1.4556  
G01 X-0.7081 Y1.4563  
G01 X-0.7088 Y1.4568  
G01 X-0.7098 Y1.4582  
G01 X-0.7110 Y1.4594  
G01 X-0.7114 Y1.4602  
G01 X-0.7119 Y1.4608  
G01 X-0.7127 Y1.4623  
G01 X-0.7720 Y1.5611  
G01 X-0.7730 Y1.5627  
G01 X-0.7733 Y1.5633  
G01 X-0.7736 Y1.5638  
G01 X-0.7743 Y1.5656  
G01 X-0.7750 Y1.5674  
G01 X-0.7751 Y1.5680  
G01 X-0.7753 Y1.5686  
G01 X-0.7756 Y1.5705  
G01 X-0.7760 Y1.5724  
G01 X-0.7760 Y1.5731  
G01 X-0.7761 Y1.5737  
G01 X-0.7760 Y1.5756  
G01 X-0.7760 Y1.7776  
G01 X-0.7750 Y1.7826  
G01 X-0.7738 Y1.7854  
G01 X-0.8661 Y1.8695  
G01 X-0.8666 Y1.8698  
G01 X-0.8680 Y1.8712  
G01 X-0.8694 Y1.8725  
G01 X-0.8698 Y1.8730  
G01 X-0.8702 Y1.8734  
G01 X-0.8713 Y1.8751  
G01 X-0.8724 Y1.8766  
G01 X-0.8727 Y1.8772  
G01 X-0.8730 Y1.8777  
G01 X-0.8738 Y1.8795  
G01 X-0.8746 Y1.8813  
G01 X-0.8748 Y1.8819  
G01 X-0.8750 Y1.8824  
G01 X-0.8754 Y1.8843  
G01 X-0.8759 Y1.8862  
G01 X-0.8759 Y1.8868  
G01 X-0.8760 Y1.8874  
G01 X-0.8760 Y1.8894  
G01 X-0.8761 Y1.8914  
G01 X-0.8760 Y1.8920  
G01 X-0.8760 Y2.5642  
G01 X-0.8791 Y2.5673  
G01 X-0.8827 Y2.5709  
G01 X-0.9398 Y2.6280  
G01 X-0.9533 Y2.6280  
G01 X-0.9720 Y2.6467  
G01 X-0.9720 Y2.6602  
G01 X-1.1358 Y2.8240  
G01 X-1.2026 Y2.8240  
G01 X-1.2076 Y2.8250  
G01 X-1.2116 Y2.8267  
G01 X-1.2923 Y2.7459  
G01 X-1.2924 Y2.7458  
G01 X-1.2926 Y2.7456  
G01 X-1.2943 Y2.7440  
G01 X-1.2959 Y2.7423  
G01 X-1.2961 Y2.7422  
G01 X-1.2962 Y2.7421  
G01 X-1.2982 Y2.7408  
G01 X-1.3002 Y2.7395  
G01 X-1.3004 Y2.7394  
G01 X-1.3726 Y2.6927  
G01 X-1.3740 Y2.6740  
G01 X-1.3740 Y2.6474  
G01 X-1.3750 Y2.6424  
G01 X-1.3770 Y2.6377  
G01 X-1.3798 Y2.6334  
G01 X-1.3834 Y2.6298  
G01 X-1.3877 Y2.6270  
G01 X-1.3879 Y2.6269  
G01 X-1.3967 Y2.6180  
G01 X-1.4233 Y2.6180  
G01 X-1.4342 Y2.6290  
G01 X-1.5990 Y2.4642  
G01 X-1.5990 Y2.2474  
G01 X-1.6000 Y2.2424  
G01 X-1.6020 Y2.2377  
G01 X-1.6048 Y2.2334  
G01 X-1.6084 Y2.2298  
G01 X-1.7920 Y2.0462  
G01 X-1.7880 Y2.0423  
G01 X-1.7880 Y2.0157  
G01 X-1.8067 Y1.9970  
G01 X-1.8333 Y1.9970  
G01 X-1.8433 Y2.0070  
G01 X-1.9578 Y2.0070  
G01 X-2.0987 Y1.7440  
G01 X-2.0980 Y1.7433  
G01 X-2.0980 Y1.7167  
G01 X-2.1019 Y1.7129  
G01 X-2.1020 Y1.7127  
G01 X-2.1048 Y1.7084  
G01 X-2.1084 Y1.7048  
G01 X-2.1127 Y1.7020  
G01 X-2.1129 Y1.7019  
G01 X-2.1167 Y1.6980  
G01 X-2.1211 Y1.6980  
G01 X-2.2305 Y1.4610  
G01 X-2.2306 Y1.4606  
G01 X-2.2295 Y1.4585  
G01 X-2.2280 Y1.4529  
G01 X-2.2280 Y1.2213  
G01 X-2.2278 Y1.2197  
G01 X-2.2280 Y1.2184  
G01 X-2.2280 Y1.2171  
G01 X-2.2284 Y1.2156  
G01 X-2.2286 Y1.2140  
G01 X-2.2292 Y1.2128  
G01 X-2.2295 Y1.2115  
G01 X-2.2303 Y1.2101  
G01 X-2.2309 Y1.2087  
G01 X-2.2317 Y1.2076  
G01 X-2.2324 Y1.2065  
G01 X-2.2335 Y1.2054  
G01 X-2.2345 Y1.2041  
G01 X-2.2356 Y1.2033  
G01 X-2.2365 Y1.2024  
G01 X-2.2379 Y1.2016  
G01 X-2.2391 Y1.2006  
G01 X-2.2404 Y1.2002  
G01 X-2.2415 Y1.1995  
G01 X-2.2430 Y1.1991  
G01 X-2.2680 Y1.1891  
G01 X-2.2680 Y1.1867  
G01 X-2.2867 Y1.1680  
G01 X-2.3133 Y1.1680  
G01 X-2.3193 Y1.1740  
G01 X-2.3990 Y1.1740  
G01 X-2.3990 Y1.0025  
G01 X-2.3990 Y1.0000  
G01 X-2.3990 Y0.9974  
G01 X-2.3995 Y0.9949  
G01 X-2.4000 Y0.9924  
G01 X-2.4010 Y0.9901  
G01 X-2.4020 Y0.9877  
G01 X-2.4034 Y0.9855  
G01 X-2.4048 Y0.9834  
G01 X-2.4066 Y0.9816  
G01 X-2.4083 Y0.9800  
G01 X-2.4083 Y0.9611  
G01 X-2.4095 Y0.9550  
G01 X-2.4119 Y0.9492  
G01 X-2.4153 Y0.9440  
G01 X-2.4180 Y0.9414  
G01 X-2.4180 Y0.9191  
G01 X-2.4009 Y0.9020  
G01 X-2.1691 Y0.9020  
G01 X-1.9435 Y1.1276  
G01 X-1.9385 Y1.1305  
G01 X-1.9329 Y1.1320  
G01 X-1.7891 Y1.1320  
G01 X-1.5620 Y1.3591  
G01 X-1.5620 Y1.3733  
G01 X-1.5510 Y1.3843  
G01 X-1.5510 Y1.5734  
G01 X-1.5511 Y1.5743  
G01 X-1.5510 Y1.5759  
G01 X-1.5510 Y1.5776  
G01 X-1.5508 Y1.5785  
G01 X-1.5508 Y1.5794  
G01 X-1.5503 Y1.5810  
G01 X-1.5500 Y1.5826  
G01 X-1.5496 Y1.5834  
G01 X-1.5494 Y1.5843  
G01 X-1.5487 Y1.5858  
G01 X-1.5480 Y1.5873  
G01 X-1.5475 Y1.5881  
G01 X-1.5471 Y1.5889  
G01 X-1.5461 Y1.5902  
G01 X-1.5452 Y1.5916  
G01 X-1.5445 Y1.5922  
G01 X-1.5440 Y1.5930  
G01 X-1.5427 Y1.5940  
G01 X-1.5416 Y1.5952  
G01 X-1.5408 Y1.5957  
G01 X-1.5401 Y1.5963  
G01 X-1.5387 Y1.5971  
G01 X-1.5373 Y1.5980  
G01 X-1.5371 Y1.5981  
G01 X-1.5233 Y1.6120  
G01 X-1.4967 Y1.6120  
G01 X-1.4780 Y1.5933  
G01 X-1.4780 Y1.5667  
G01 X-1.4967 Y1.5480  
G01 X-1.4990 Y1.5480  
G01 X-1.4990 Y1.3759  
G01 X-1.4989 Y1.3743  
G01 X-1.4989 Y1.3742  
G01 X-1.4980 Y1.3733  
G01 X-1.4980 Y1.3467  
G01 X-1.5167 Y1.3280  
G01 X-1.5309 Y1.3280  
G01 X-1.7572 Y1.1017  
G01 X-1.7500 Y1.0153  
G01 X-1.7380 Y1.0033  
G01 X-1.7380 Y0.9767  
G01 X-1.7567 Y0.9580  
G01 X-1.7833 Y0.9580  
G01 X-1.8020 Y0.9767  
G01 X-1.8020 Y1.0033  
G01 X-1.7939 Y1.0114  
G01 X-1.8002 Y1.0880  
G01 X-1.9209 Y1.0880  
G01 X-2.1069 Y0.9020  
G01 X-2.0571 Y0.9020  
G01 X-2.0515 Y0.9005  
G01 X-2.0465 Y0.8976  
G01 X-1.9809 Y0.8320  
G01 X-1.7207 Y0.8320  
G01 X-1.7185 Y0.8321  
G01 X-1.7178 Y0.8320  
G01 X-1.7171 Y0.8320  
G01 X-1.7150 Y0.8314  
G01 X-1.7128 Y0.8310  
G01 X-1.7122 Y0.8307  
G01 X-1.7115 Y0.8305  
G01 X-1.7096 Y0.8294  
G01 X-1.7077 Y0.8284  
G01 X-1.7071 Y0.8280  
G01 X-1.7065 Y0.8276  
G01 X-1.7049 Y0.8261  
G01 X-1.7033 Y0.8246  
G01 X-1.7029 Y0.8240  
G01 X-1.7024 Y0.8235  
G01 X-1.7013 Y0.8216  
G01 X-1.6831 Y0.7943  
G01 X-1.6829 Y0.7941  
G01 X-1.6815 Y0.7919  
G01 X-1.6801 Y0.7898  
G01 X-1.6800 Y0.7895  
G01 X-1.6798 Y0.7892  
G01 X-1.6791 Y0.7867  
G01 X-1.6782 Y0.7843  
G01 X-1.6782 Y0.7840  
G01 X-1.6781 Y0.7836  
G01 X-1.6780 Y0.7811  
G01 X-1.6779 Y0.7785  
G01 X-1.6779 Y0.7782  
G01 X-1.6687 Y0.5020  
G01 X-1.5371 Y0.5020  
G01 X-1.5315 Y0.5005  
G01 X-1.5265 Y0.4976  
G01 X-1.5224 Y0.4935  
G01 X-1.4424 Y0.4135  
G01 X-1.4395 Y0.4085  
G01 X-1.4380 Y0.4029  
G01 X-1.4380 Y0.3633  
G01 X-1.4280 Y0.3533  
G01 X-1.4280 Y0.3391  
G01 X-1.2809 Y0.1920  
G01 X-0.8091 Y0.1920  
G01 X-0.7720 Y0.2291  
G01 X-0.7720 Y0.4107  
G01 X-0.7749 Y0.4136  
G01 X-0.7784 Y0.4188  
G01 X-0.7808 Y0.4247  
G01 X-0.7820 Y0.4308  
G01 X-0.7820 Y0.4892  
G01 X-0.7808 Y0.4953  
G01 X-0.7784 Y0.5012  
G01 X-0.7749 Y0.5064  
G01 X-0.7704 Y0.5109  
G01 X-0.7652 Y0.5144  
G01 X-0.7593 Y0.5168  
G01 X-0.7532 Y0.5180  
G01 X-0.7468 Y0.5180  
G01 X-0.7407 Y0.5168  
G01 X-0.7348 Y0.5144  
G01 X-0.7296 Y0.5109  
G01 X-0.7251 Y0.5064  
G01 X-0.7216 Y0.5012  
G01 X-0.7192 Y0.4953  
G01 X-0.7180 Y0.4892  
G01 X-0.7180 Y0.4308  
G01 X-0.7189 Y0.4264  
G01 X-0.7022 Y0.3220  
G01 X-0.6967 Y0.3220  
G01 X-0.6780 Y0.3033  
G01 X-0.6780 Y0.2767  
G01 X-0.6967 Y0.2580  
G01 X-0.7233 Y0.2580  
G01 X-0.7280 Y0.2627  
G01 X-0.7280 Y0.2171  
G01 X-0.7295 Y0.2115  
G01 X-0.7324 Y0.2065  
G01 X-0.7824 Y0.1565  
G01 X-0.7865 Y0.1524  
G01 X-0.7915 Y0.1495  
G01 X-0.7971 Y0.1480  
G01 X-1.2929 Y0.1480  
G01 X-1.2985 Y0.1495  
G01 X-1.3035 Y0.1524  
G01 X-1.4591 Y0.3080  
G01 X-1.4733 Y0.3080  
G01 X-1.4920 Y0.3267  
G01 X-1.4920 Y0.3533  
G01 X-1.4820 Y0.3633  
G01 X-1.4820 Y0.3909  
G01 X-1.5491 Y0.4580  
G01 X-1.6896 Y0.4580  
G01 X-1.6922 Y0.4579  
G01 X-1.6925 Y0.4580  
G01 X-2.0409 Y0.4580  
G01 X-2.0580 Y0.4409  
G01 X-2.0580 Y0.3930  
G01 X-2.0522 Y0.3930  
G01 X-2.0270 Y0.3678  
G01 X-2.0270 Y0.3322  
G01 X-2.0522 Y0.3070  
G01 X-2.0540 Y0.3070  
G01 X-2.0540 Y0.2930  
G01 X-2.0522 Y0.2930  
G01 X-2.0270 Y0.2678  
G01 X-2.0270 Y0.2322  
G01 X-2.0522 Y0.2070  
G01 X-2.0878 Y0.2070  
G01 X-2.1048 Y0.2240  
G01 X-2.1352 Y0.2240  
G01 X-2.1522 Y0.2070  
G01 X-2.1878 Y0.2070  
G01 X-2.2048 Y0.2240  
G01 X-2.2352 Y0.2240  
G01 X-2.2522 Y0.2070  
G01 X-2.2878 Y0.2070  
G01 X-2.3130 Y0.2322  
G01 X-2.3130 Y0.2678  
G01 X-2.3010 Y0.2798  
G01 X-2.3010 Y0.3202  
G01 X-2.3130 Y0.3322  
G01 X-2.3130 Y0.3678  
G01 X-2.2878 Y0.3930  
G01 X-2.2522 Y0.3930  
G01 X-2.2352 Y0.3760  
G01 X-2.2048 Y0.3760  
G01 X-2.1878 Y0.3930  
G01 X-2.1522 Y0.3930  
G01 X-2.1352 Y0.3760  
G01 X-2.1048 Y0.3760  
G01 X-2.1020 Y0.3788  
G01 X-2.1020 Y0.4529  
G01 X-2.1005 Y0.4585  
G01 X-2.0976 Y0.4635  
G01 X-2.0935 Y0.4676  
G01 X-2.0635 Y0.4976  
G01 X-2.0585 Y0.5005  
G01 X-2.0529 Y0.5020  
G01 X-1.7127 Y0.5020  
G01 X-1.7218 Y0.7730  
G01 X-1.7318 Y0.7880  
G01 X-1.9929 Y0.7880  
G01 X-1.9985 Y0.7895  
G01 X-2.0035 Y0.7924  
G01 X-2.0076 Y0.7965  
G01 X-2.0691 Y0.8580  
G01 X-2.4129 Y0.8580  
G01 X-2.4185 Y0.8595  
G01 X-2.4235 Y0.8624  
G01 X-2.4535 Y0.8924  
G01 X-2.4576 Y0.8965  
G01 X-2.4605 Y0.9015  
G01 X-2.4620 Y0.9071  
G01 X-2.4620 Y0.9414  
G01 X-2.4647 Y0.9440  
G01 X-2.4681 Y0.9492  
G01 X-2.4705 Y0.9550  
G01 X-2.4717 Y0.9611  
G01 X-2.4717 Y1.0189  
G01 X-2.4705 Y1.0250  
G01 X-2.4681 Y1.0308  
G01 X-2.4647 Y1.0360  
G01 X-2.4602 Y1.0404  
G01 X-2.4550 Y1.0439  
G01 X-2.4510 Y1.0456  
G01 X-2.4510 Y1.2957  
G01 X-2.4520 Y1.2967  
G01 X-2.4520 Y1.3233  
G01 X-2.4333 Y1.3420  
G01 X-2.4067 Y1.3420  
G01 X-2.3880 Y1.3233  
G01 X-2.3880 Y1.2967  
G01 X-2.3990 Y1.2857  
G01 X-2.3990 Y1.2260  
G01 X-2.3193 Y1.2260  
G01 X-2.3133 Y1.2320  
G01 X-2.2867 Y1.2320  
G01 X-2.2846 Y1.2299  
G01 X-2.2720 Y1.2349  
G01 X-2.2720 Y1.4409  
G01 X-2.2766 Y1.4455  
G01 X-2.3721 Y1.4526  
G01 X-2.3767 Y1.4480  
G01 X-2.4033 Y1.4480  
G01 X-2.4220 Y1.4667  
G01 X-2.4220 Y1.4933  
G01 X-2.4033 Y1.5120  
G01 X-2.3767 Y1.5120  
G01 X-2.3693 Y1.5045  
G01 X-2.3350 Y1.5020  
G01 X-2.2771 Y1.5020  
G01 X-2.2715 Y1.5005  
G01 X-2.2700 Y1.4996  
G01 X-2.1727 Y1.7104  
G01 X-2.2820 Y1.7303  
G01 X-2.3185 Y1.6137  
G01 X-2.3180 Y1.6133  
G01 X-2.3180 Y1.5867  
G01 X-2.3367 Y1.5680  
G01 X-2.3633 Y1.5680  
G01 X-2.3820 Y1.5867  
G01 X-2.3820 Y1.6133  
G01 X-2.3691 Y1.6262  
G01 X-2.3363 Y1.7310  
G01 X-2.3420 Y1.7367  
G01 X-2.3420 Y1.7633  
G01 X-2.3233 Y1.7820  
G01 X-2.3140 Y1.7820  
G01 X-2.3135 Y1.7823  
G01 X-2.3127 Y1.7828  
G01 X-2.3125 Y1.7829  
G01 X-2.3123 Y1.7830  
G01 X-2.3110 Y1.7836  
G01 X-2.3098 Y1.7842  
G01 X-2.3089 Y1.7845  
G01 X-2.3080 Y1.7849  
G01 X-2.3078 Y1.7849  
G01 X-2.3076 Y1.7850  
G01 X-2.3062 Y1.7853  
G01 X-2.3049 Y1.7857  
G01 X-2.3039 Y1.7858  
G01 X-2.3030 Y1.7860  
G01 X-2.3028 Y1.7860  
G01 X-2.3026 Y1.7860  
G01 X-2.3012 Y1.7860  
G01 X-2.2998 Y1.7861  
G01 X-2.2988 Y1.7860  
G01 X-2.2979 Y1.7860  
G01 X-2.2977 Y1.7860  
G01 X-2.2974 Y1.7860  
G01 X-2.2961 Y1.7857  
G01 X-2.2947 Y1.7856  
G01 X-2.2938 Y1.7853  
G01 X-2.2063 Y1.7694  
G01 X-2.4878 Y2.0760  
G01 X-2.4883 Y2.0764  
G01 X-2.4896 Y2.0779  
G01 X-2.4909 Y2.0793  
G01 X-2.4912 Y2.0798  
G01 X-2.4916 Y2.0803  
G01 X-2.4925 Y2.0820  
G01 X-2.4935 Y2.0837  
G01 X-2.4938 Y2.0843  
G01 X-2.4941 Y2.0848  
G01 X-2.4946 Y2.0867  
G01 X-2.4953 Y2.0885  
G01 X-2.4954 Y2.0891  
G01 X-2.4956 Y2.0897  
G01 X-2.4958 Y2.0916  
G01 X-2.4961 Y2.0935  
G01 X-2.4961 Y2.0942  
G01 X-2.5245 Y2.3592  
G01 X-2.5420 Y2.3767  
G01 X-2.5420 Y2.3802  
G01 X-2.5452 Y2.3834  
G01 X-2.5480 Y2.3877  
G01 X-2.5500 Y2.3924  
G01 X-2.5510 Y2.3974  
G01 X-2.5510 Y2.4740  
G01 X-2.7142 Y2.4740  
G01 X-3.0048 Y2.1834  
G01 X-3.0066 Y2.1816  
G01 X-3.0084 Y2.1798  
G01 X-3.0100 Y2.1787  
G01 X-3.0116 Y2.1748  
G01 X-3.0151 Y2.1696  
G01 X-3.0196 Y2.1651  
G01 X-3.0248 Y2.1616  
G01 X-3.0287 Y2.1600  
G01 X-3.0298 Y2.1584  
G01 X-3.0316 Y2.1566  
G01 X-3.0334 Y2.1548  
G01 X-3.1548 Y2.0334  
G01 X-3.1584 Y2.0298  
G01 X-3.1627 Y2.0270  
G01 X-3.1674 Y2.0250  
G01 X-3.1724 Y2.0240  
G01 X-3.2220 Y2.0240  
G01 X-3.2261 Y2.0147  
G01 X-3.2270 Y2.0127  
G01 X-3.2271 Y2.0124  
G01 X-3.2273 Y2.0121  
G01 X-3.2286 Y2.0103  
G01 X-3.2298 Y2.0084  
G01 X-3.2300 Y2.0082  
G01 X-3.2302 Y2.0079  
G01 X-3.2319 Y2.0064  
G01 X-3.3048 Y1.9334  
G01 X-3.3084 Y1.9298  
G01 X-3.3127 Y1.9270  
G01 X-3.3174 Y1.9250  
G01 X-3.3224 Y1.9240  
G01 X-3.3407 Y1.9240  
G01 X-3.3467 Y1.9180  
G01 X-3.3733 Y1.9180  
G01 X-3.3920 Y1.9367  
G01 X-3.3920 Y1.9452  
G01 X-3.3980 Y1.9512  
G01 X-3.6236 Y2.1580  
G01 X-3.6333 Y2.1580  
G01 X-3.6520 Y2.1767  
G01 X-3.6520 Y2.2033  
G01 X-3.6333 Y2.2220  
G01 X-3.6067 Y2.2220  
G01 X-3.5880 Y2.2033  
G01 X-3.5880 Y2.1959  
G01 X-3.3639 Y1.9905  
G01 X-3.3634 Y1.9902  
G01 X-3.3620 Y1.9888  
G01 X-3.3605 Y1.9874  
G01 X-3.3602 Y1.9870  
G01 X-3.3552 Y1.9820  
G01 X-3.3467 Y1.9820  
G01 X-3.3407 Y1.9760  
G01 X-3.3358 Y1.9760  
G01 X-3.2733 Y2.0384  
G01 X-3.2750 Y2.0424  
G01 X-3.2760 Y2.0474  
G01 X-3.2760 Y2.0526  
G01 X-3.2750 Y2.0576  
G01 X-3.2730 Y2.0623  
G01 X-3.2702 Y2.0666  
G01 X-3.2620 Y2.0748  
G01 X-3.2620 Y2.0833  
G01 X-3.2433 Y2.1020  
G01 X-3.2167 Y2.1020  
G01 X-3.1980 Y2.0833  
G01 X-3.1980 Y2.0760  
G01 X-3.1858 Y2.0760  
G01 X-3.0720 Y2.1898  
G01 X-3.0720 Y2.1932  
G01 X-3.0708 Y2.1993  
G01 X-3.0684 Y2.2052  
G01 X-3.0649 Y2.2104  
G01 X-3.0604 Y2.2149  
G01 X-3.0552 Y2.2184  
G01 X-3.0493 Y2.2208  
G01 X-3.0432 Y2.2220  
G01 X-3.0398 Y2.2220  
G01 X-2.7452 Y2.5166  
G01 X-2.7416 Y2.5202  
G01 X-2.7373 Y2.5230  
G01 X-2.7326 Y2.5250  
G01 X-2.7276 Y2.5260  
G01 X-2.5695 Y2.5260  
G01 X-2.6353 Y2.6430  
G01 X-2.7343 Y2.7240  
G01 X-2.8250 Y2.7240  
G01 X-2.8275 Y2.7240  
G01 X-2.8301 Y2.7245  
G01 X-2.8326 Y2.7250  
G01 X-2.8350 Y2.7260  
G01 X-2.8373 Y2.7269  
G01 X-2.8389 Y2.7280  
G01 X-2.8533 Y2.7280  
G01 X-2.8720 Y2.7467  
G01 X-2.8720 Y2.7733  
G01 X-2.8533 Y2.7920  
G01 X-2.8267 Y2.7920  
G01 X-2.8107 Y2.7760  
G01 X-2.7263 Y2.7760  
G01 X-2.7250 Y2.7761  
G01 X-2.7237 Y2.7760  
G01 X-2.7224 Y2.7760  
G01 X-2.7212 Y2.7758  
G01 X-2.7199 Y2.7756  
G01 X-2.7187 Y2.7753  
G01 X-2.7174 Y2.7750  
G01 X-2.7162 Y2.7745  
G01 X-2.7150 Y2.7742  
G01 X-2.7139 Y2.7735  
G01 X-2.7127 Y2.7730  
G01 X-2.7116 Y2.7723  
G01 X-2.7105 Y2.7717  
G01 X-2.7095 Y2.7709  
G01 X-2.7084 Y2.7702  
G01 X-2.7075 Y2.7693  
G01 X-2.5987 Y2.6803  
G01 X-2.5969 Y2.6789  
G01 X-2.5968 Y2.6787  
G01 X-2.5966 Y2.6785  
G01 X-2.5951 Y2.6767  
G01 X-2.5936 Y2.6750  
G01 X-2.5935 Y2.6748  
G01 X-2.5933 Y2.6745  
G01 X-2.5922 Y2.6725  
G01 X-2.5028 Y2.5136  
G01 X-2.5020 Y2.5123  
G01 X-2.5016 Y2.5114  
G01 X-2.5011 Y2.5105  
G01 X-2.5006 Y2.5090  
G01 X-2.5000 Y2.5076  
G01 X-2.4998 Y2.5066  
G01 X-2.4995 Y2.5056  
G01 X-2.4993 Y2.5041  
G01 X-2.4990 Y2.5026  
G01 X-2.4990 Y2.5016  
G01 X-2.4989 Y2.5006  
G01 X-2.4990 Y2.4990  
G01 X-2.4990 Y2.4220  
G01 X-2.4967 Y2.4220  
G01 X-2.4780 Y2.4033  
G01 X-2.4780 Y2.3890  
G01 X-2.4759 Y2.3852  
G01 X-2.4744 Y2.3803  
G01 X-2.4451 Y2.1063  
G01 X-2.1353 Y1.7689  
G01 X-1.9916 Y2.0371  
G01 X-1.9915 Y2.0375  
G01 X-1.9902 Y2.0397  
G01 X-1.9890 Y2.0419  
G01 X-1.9888 Y2.0422  
G01 X-1.9886 Y2.0425  
G01 X-1.9868 Y2.0443  
G01 X-1.9851 Y2.0462  
G01 X-1.9848 Y2.0464  
G01 X-1.9845 Y2.0466  
G01 X-1.9823 Y2.0479  
G01 X-1.9801 Y2.0492  
G01 X-1.9798 Y2.0493  
G01 X-1.9795 Y2.0495  
G01 X-1.9770 Y2.0502  
G01 X-1.9746 Y2.0509  
G01 X-1.9742 Y2.0509  
G01 X-1.9739 Y2.0510  
G01 X-1.9714 Y2.0510  
G01 X-1.9688 Y2.0511  
G01 X-1.9685 Y2.0510  
G01 X-1.8511 Y2.0510  
G01 X-1.8511 Y2.0516  
G01 X-1.8510 Y2.0521  
G01 X-1.8510 Y2.0526  
G01 X-1.8506 Y2.0546  
G01 X-1.8503 Y2.0566  
G01 X-1.8501 Y2.0571  
G01 X-1.8500 Y2.0576  
G01 X-1.8492 Y2.0595  
G01 X-1.8485 Y2.0614  
G01 X-1.8482 Y2.0619  
G01 X-1.8480 Y2.0623  
G01 X-1.8469 Y2.0640  
G01 X-1.8458 Y2.0658  
G01 X-1.8455 Y2.0662  
G01 X-1.8452 Y2.0666  
G01 X-1.8437 Y2.0680  
G01 X-1.8423 Y2.0696  
G01 X-1.8419 Y2.0698  
G01 X-1.6510 Y2.2608  
G01 X-1.6510 Y2.4490  
G01 X-1.6981 Y2.4490  
G01 X-1.6987 Y2.4489  
G01 X-1.7006 Y2.4490  
G01 X-1.7026 Y2.4490  
G01 X-1.7032 Y2.4491  
G01 X-1.7038 Y2.4492  
G01 X-1.7052 Y2.4495  
G01 X-1.7067 Y2.4480  
G01 X-1.7333 Y2.4480  
G01 X-1.7520 Y2.4667  
G01 X-1.7520 Y2.4933  
G01 X-1.7333 Y2.5120  
G01 X-1.7067 Y2.5120  
G01 X-1.6957 Y2.5010  
G01 X-1.6358 Y2.5010  
G01 X-1.4227 Y2.7140  
G01 X-1.4226 Y2.7144  
G01 X-1.4224 Y2.7155  
G01 X-1.4221 Y2.7162  
G01 X-1.4218 Y2.7170  
G01 X-1.4216 Y2.7175  
G01 X-1.4214 Y2.7182  
G01 X-1.4208 Y2.7191  
G01 X-1.4204 Y2.7202  
G01 X-1.4199 Y2.7208  
G01 X-1.4195 Y2.7215  
G01 X-1.4191 Y2.7220  
G01 X-1.4188 Y2.7226  
G01 X-1.4181 Y2.7234  
G01 X-1.4174 Y2.7244  
G01 X-1.4169 Y2.7249  
G01 X-1.4164 Y2.7256  
G01 X-1.4159 Y2.7260  
G01 X-1.4155 Y2.7265  
G01 X-1.4146 Y2.7272  
G01 X-1.4138 Y2.7279  
G01 X-1.4131 Y2.7284  
G01 X-1.4125 Y2.7289  
G01 X-1.4119 Y2.7292  
G01 X-1.4114 Y2.7296  
G01 X-1.4104 Y2.7301  
G01 X-1.3812 Y2.7490  
G01 X-1.6239 Y2.7490  
G01 X-1.6253 Y2.7489  
G01 X-1.6264 Y2.7490  
G01 X-1.6276 Y2.7490  
G01 X-1.6290 Y2.7493  
G01 X-1.7612 Y2.7640  
G01 X-1.7621 Y2.7640  
G01 X-1.7638 Y2.7643  
G01 X-1.7654 Y2.7644  
G01 X-1.7663 Y2.7647  
G01 X-1.8052 Y2.7718  
G01 X-1.8145 Y2.7625  
G01 X-1.8455 Y2.7625  
G01 X-1.8675 Y2.7845  
G01 X-1.8675 Y2.8155  
G01 X-1.8455 Y2.8375  
G01 X-1.8145 Y2.8375  
G01 X-1.8008 Y2.8238  
G01 X-1.7562 Y2.8157  
G01 X-1.6236 Y2.8010  
G01 X-1.3224 Y2.8010  
G01 X-1.3174 Y2.8000  
G01 X-1.3134 Y2.7983  
G01 X-1.2202 Y2.8916  
G01 X-1.2166 Y2.8952  
G01 X-1.2123 Y2.8980  
G01 X-1.2076 Y2.9000  
G01 X-1.2026 Y2.9010  
G01 X-1.1974 Y2.9010  
G01 X-1.1924 Y2.9000  
G01 X-1.1877 Y2.8980  
G01 X-1.1834 Y2.8952  
G01 X-1.1798 Y2.8916  
G01 X-1.1770 Y2.8873  
G01 X-1.1750 Y2.8826  
G01 X-1.1744 Y2.8797  
G01 X-1.1707 Y2.8760  
G01 X-1.1224 Y2.8760  
G01 X-1.1174 Y2.8750  
G01 X-1.1127 Y2.8730  
G01 X-1.1084 Y2.8702  
G01 X-0.9334 Y2.6952  
G01 X-0.9316 Y2.6934  
G01 X-0.9302 Y2.6920  
G01 X-0.9267 Y2.6920  
G01 X-0.9080 Y2.6733  
G01 X-0.9080 Y2.6698  
G01 X-0.9066 Y2.6684  
G01 X-0.9048 Y2.6666  
G01 X-0.8616 Y2.6233  
G01 X-0.8605 Y2.6238  
G01 X-0.8588 Y2.6246  
G01 X-0.8582 Y2.6248  
G01 X-0.8576 Y2.6250  
G01 X-0.8557 Y2.6254  
G01 X-0.8539 Y2.6258  
G01 X-0.8532 Y2.6259  
G01 X-0.8526 Y2.6260  
G01 X-0.8506 Y2.6260  
G01 X-0.6526 Y2.6359  
G01 X-0.6513 Y2.6361  
G01 X-0.6500 Y2.6360  
G01 X-0.6487 Y2.6361  
G01 X-0.6475 Y2.6359  
G01 X-0.6462 Y2.6358  
G01 X-0.6450 Y2.6355  
G01 X-0.6437 Y2.6353  
G01 X-0.6425 Y2.6349  
G01 X-0.6412 Y2.6346  
G01 X-0.6401 Y2.6341  
G01 X-0.6389 Y2.6336  
G01 X-0.6378 Y2.6330  
G01 X-0.6366 Y2.6324  
G01 X-0.6356 Y2.6317  
G01 X-0.6345 Y2.6310  
G01 X-0.6335 Y2.6301  
G01 X-0.6325 Y2.6294  
G01 X-0.6316 Y2.6284  
G01 X-0.6307 Y2.6276  
G01 X-0.6299 Y2.6265  
G01 X-0.5312 Y2.5179  
G01 X-0.5298 Y2.5166  
G01 X-0.5295 Y2.5161  
G01 X-0.5290 Y2.5156  
G01 X-0.5280 Y2.5139  
G01 X-0.5270 Y2.5123  
G01 X-0.5267 Y2.5117  
G01 X-0.5264 Y2.5112  
G01 X-0.5257 Y2.5094  
G01 X-0.5250 Y2.5076  
G01 X-0.5249 Y2.5070  
G01 X-0.5247 Y2.5064  
G01 X-0.5244 Y2.5045  
G01 X-0.5240 Y2.5026  
G01 X-0.5240 Y2.5019  
G01 X-0.5239 Y2.5013  
G01 X-0.5240 Y2.4994  
G01 X-0.5240 Y2.3724  
G01 X-0.5245 Y2.3698  
G01 X-0.5180 Y2.3633  
G01 X-0.5180 Y2.3548  
G01 X-0.4625 Y2.2993  
G01 X-0.4452 Y2.3166  
G01 X-0.4416 Y2.3202  
G01 X-0.4373 Y2.3230  
G01 X-0.4326 Y2.3250  
G01 X-0.4297 Y2.3256  
G01 X-0.4233 Y2.3320  
G01 X-0.3967 Y2.3320  
G01 X-0.3780 Y2.3133  
G01 X-0.3780 Y2.2867  
G01 X-0.3967 Y2.2680  
G01 X-0.4202 Y2.2680  
G01 X-0.4257 Y2.2625  
G01 X-0.2352 Y2.0720  
G01 X-0.2267 Y2.0720  
G01 X-0.2080 Y2.0533  
G01 X-0.2080 Y2.0267  
G01 X-0.2267 Y2.0080  
G01 X-0.2533 Y2.0080  
G01 X-0.2720 Y2.0267  
G01 X-0.2720 Y2.0352  
G01 X-0.4791 Y2.2423  
G01 X-0.4827 Y2.2459  
G01 X-0.5548 Y2.3180  
G01 X-0.5633 Y2.3180  
G01 X-0.5820 Y2.3367  
G01 X-0.5820 Y2.3633  
G01 X-0.5755 Y2.3698  
G01 X-0.5760 Y2.3724  
G01 X-0.5760 Y2.4899  
G01 X-0.6610 Y2.5834  
G01 X-0.8240 Y2.5753  
G01 X-0.8240 Y1.9015  
G01 X-0.7214 Y1.8080  
G01 X-0.7209 Y1.8077  
G01 X-0.7195 Y1.8063  
G01 X-0.7181 Y1.8050  
G01 X-0.7177 Y1.8045  
G01 X-0.7173 Y1.8041  
G01 X-0.7114 Y1.7981  
G01 X-0.6536 Y1.7816  
G01 X-0.6533 Y1.7820  
G01 X-0.6267 Y1.7820  
G01 X-0.6080 Y1.7633  
G01 X-0.6080 Y1.7367  
G01 X-0.6267 Y1.7180  
G01 X-0.6533 Y1.7180  
G01 X-0.6665 Y1.7312  
G01 X-0.7240 Y1.7477  
G01 X-0.7240 Y1.5822  
G01 X-0.6727 Y1.4968  
G01 X-0.3094 Y1.3805  
G01 X-0.3092 Y1.3805  
G01 X-0.3069 Y1.3797  
G01 X-0.3046 Y1.3790  
G01 X-0.3045 Y1.3789  
G01 X-0.3043 Y1.3788  
G01 X-0.3022 Y1.3777  
G01 X-0.3002 Y1.3765  
G01 X-0.3000 Y1.3764  
G01 X-0.2999 Y1.3763  
G01 X-0.2981 Y1.3747  
G01 X-0.2962 Y1.3732  
G01 X-0.2961 Y1.3731  
G01 X-0.2960 Y1.3729  
G01 X-0.2945 Y1.3711  
G01 X-0.2931 Y1.3692  
G01 X-0.2930 Y1.3690  
G01 X-0.2929 Y1.3689  
G01 X-0.2918 Y1.3668  
G01 X-0.2907 Y1.3646  
G01 X-0.2907 Y1.3645  
G01 X-0.2906 Y1.3643  
G01 X-0.2900 Y1.3620  
G01 X-0.2893 Y1.3597  
G01 X-0.2893 Y1.3595  
G01 X-0.2753 Y1.3084  
G01 X-0.2750 Y1.3076  
G01 X-0.2747 Y1.3060  
G01 X-0.2742 Y1.3044  
G01 X-0.2742 Y1.3035  
G01 X-0.2740 Y1.3026  
G01 X-0.2740 Y1.3009  
G01 X-0.2739 Y1.2993  
G01 X-0.2740 Y1.2986  
G01 X-0.2716 Y1.2952  
G01 X-0.2692 Y1.2893  
G01 X-0.2680 Y1.2832  
G01 X-0.2680 Y1.2768  
G01 X-0.2692 Y1.2707  
G01 X-0.2716 Y1.2648  
G01 X-0.2740 Y1.2613  
G01 X-0.2740 Y1.0519  
G01 X-0.2739 Y1.0513  
G01 X-0.2740 Y1.0494  
G01 X-0.2740 Y1.0474  
G01 X-0.2741 Y1.0468  
G01 X-0.2742 Y1.0462  
G01 X-0.2746 Y1.0443  
G01 X-0.2750 Y1.0424  
G01 X-0.2752 Y1.0418  
G01 X-0.2795 Y1.0248  
G01 X-0.2780 Y1.0233  
G01 X-0.2780 Y0.9967  
G01 X-0.2967 Y0.9780  
G01 X-0.3233 Y0.9780  
G00 Z0.0500  
G00 X-0.7212 Y0.9829  
G01 Z-0.0040 F10    
G01 X-0.7229 Y0.9812  F20    
G01 X-0.7251 Y0.9803  
G01 X-0.7749 Y0.9803  
G01 X-0.7771 Y0.9812  
G01 X-0.7788 Y0.9829  
G01 X-0.7797 Y0.9851  
G01 X-0.7797 Y0.9920  
G01 X-0.7805 Y0.9920  
G01 X-0.7824 Y0.9920  
G01 X-0.7829 Y0.9921  
G01 X-0.7834 Y0.9922  
G01 X-0.7852 Y0.9927  
G01 X-0.7869 Y0.9932  
G01 X-0.7874 Y0.9935  
G01 X-0.7879 Y0.9937  
G01 X-0.7895 Y0.9947  
G01 X-0.7911 Y0.9956  
G01 X-0.7914 Y0.9960  
G01 X-0.7919 Y0.9963  
G01 X-0.7931 Y0.9976  
G01 X-0.7944 Y0.9989  
G01 X-0.7947 Y0.9994  
G01 X-0.8556 Y1.0680  
G01 X-0.8733 Y1.0680  
G01 X-0.8920 Y1.0867  
G01 X-0.8920 Y1.1133  
G01 X-0.8748 Y1.1305  
G01 X-0.9078 Y1.2998  
G01 X-0.9081 Y1.3005  
G01 X-0.9083 Y1.3022  
G01 X-0.9086 Y1.3038  
G01 X-0.9086 Y1.3046  
G01 X-0.9087 Y1.3054  
G01 X-0.9084 Y1.3070  
G01 X-0.9083 Y1.3087  
G01 X-0.9080 Y1.3094  
G01 X-0.9079 Y1.3102  
G01 X-0.9072 Y1.3117  
G01 X-0.9067 Y1.3133  
G01 X-0.9063 Y1.3140  
G01 X-0.9060 Y1.3147  
G01 X-0.9049 Y1.3160  
G01 X-0.9040 Y1.3174  
G01 X-0.9034 Y1.3179  
G01 X-0.9020 Y1.3196  
G01 X-0.9020 Y1.3433  
G01 X-0.8833 Y1.3620  
G01 X-0.8567 Y1.3620  
G01 X-0.8380 Y1.3433  
G01 X-0.8380 Y1.3167  
G01 X-0.8567 Y1.2980  
G01 X-0.8698 Y1.2980  
G01 X-0.8351 Y1.1204  
G01 X-0.8280 Y1.1133  
G01 X-0.8280 Y1.0911  
G01 X-0.7792 Y1.0362  
G01 X-0.7788 Y1.0371  
G01 X-0.7771 Y1.0388  
G01 X-0.7749 Y1.0397  
G01 X-0.7251 Y1.0397  
G01 X-0.7229 Y1.0388  
G01 X-0.7212 Y1.0371  
G01 X-0.7203 Y1.0349  
G01 X-0.7203 Y0.9851  
G01 X-0.7212 Y0.9829  
G00 Z0.0500  
G00 X-0.7175 Y0.9214  
G01 Z-0.0040 F10    
G01 X-0.6832 Y1.0736  F20    
G01 X-0.6825 Y1.0773  
G01 X-0.6920 Y1.0867  
G01 X-0.6920 Y1.1133  
G01 X-0.6733 Y1.1320  
G01 X-0.6467 Y1.1320  
G01 X-0.6280 Y1.1133  
G01 X-0.6280 Y1.0867  
G01 X-0.6464 Y1.0683  
G01 X-0.6468 Y1.0664  
G01 X-0.6472 Y1.0646  
G01 X-0.6474 Y1.0641  
G01 X-0.6808 Y0.9159  
G01 X-0.6493 Y0.8180  
G01 X-0.6468 Y0.8180  
G01 X-0.6407 Y0.8168  
G01 X-0.6348 Y0.8144  
G01 X-0.6296 Y0.8109  
G01 X-0.6251 Y0.8064  
G01 X-0.6216 Y0.8012  
G01 X-0.6192 Y0.7953  
G01 X-0.6180 Y0.7892  
G01 X-0.6180 Y0.7308  
G01 X-0.6192 Y0.7247  
G01 X-0.6216 Y0.7188  
G01 X-0.6251 Y0.7136  
G01 X-0.6296 Y0.7091  
G01 X-0.6315 Y0.7079  
G01 X-0.6315 Y0.7006  
G01 X-0.6314 Y0.6987  
G01 X-0.6315 Y0.6981  
G01 X-0.6315 Y0.6976  
G01 X-0.6320 Y0.6958  
G01 X-0.6323 Y0.6939  
G01 X-0.6326 Y0.6934  
G01 X-0.6328 Y0.6929  
G01 X-0.6337 Y0.6912  
G01 X-0.6345 Y0.6896  
G01 X-0.6349 Y0.6891  
G01 X-0.6352 Y0.6886  
G01 X-0.6365 Y0.6873  
G01 X-0.7099 Y0.6041  
G01 X-0.7102 Y0.6036  
G01 X-0.7115 Y0.6023  
G01 X-0.7127 Y0.6009  
G01 X-0.7132 Y0.6006  
G01 X-0.7136 Y0.6002  
G01 X-0.7153 Y0.5993  
G01 X-0.7168 Y0.5982  
G01 X-0.7174 Y0.5981  
G01 X-0.7179 Y0.5978  
G01 X-0.7197 Y0.5973  
G01 X-0.7214 Y0.5967  
G01 X-0.7220 Y0.5967  
G01 X-0.7226 Y0.5965  
G01 X-0.7244 Y0.5965  
G01 X-0.7263 Y0.5964  
G01 X-0.7269 Y0.5965  
G01 X-1.2847 Y0.5965  
G01 X-1.2867 Y0.5964  
G01 X-1.2871 Y0.5965  
G01 X-1.2874 Y0.5965  
G01 X-1.2895 Y0.5970  
G01 X-1.2915 Y0.5975  
G01 X-1.2918 Y0.5977  
G01 X-1.2921 Y0.5978  
G01 X-1.2940 Y0.5988  
G01 X-1.2958 Y0.5998  
G01 X-1.2961 Y0.6000  
G01 X-1.2964 Y0.6002  
G01 X-1.2978 Y0.6017  
G01 X-1.4323 Y0.7265  
G01 X-1.4482 Y0.7265  
G01 X-1.4667 Y0.7080  
G01 X-1.4933 Y0.7080  
G01 X-1.5120 Y0.7267  
G01 X-1.5120 Y0.7533  
G01 X-1.4959 Y0.7693  
G01 X-1.4885 Y0.8508  
G01 X-1.4885 Y0.9632  
G01 X-1.5020 Y0.9767  
G01 X-1.5020 Y1.0033  
G01 X-1.4833 Y1.0220  
G01 X-1.4567 Y1.0220  
G01 X-1.4380 Y1.0033  
G01 X-1.4380 Y0.9767  
G01 X-1.4515 Y0.9632  
G01 X-1.4515 Y0.8516  
G01 X-1.4514 Y0.8508  
G01 X-1.4515 Y0.8492  
G01 X-1.4515 Y0.8476  
G01 X-1.4517 Y0.8467  
G01 X-1.4592 Y0.7645  
G01 X-1.4582 Y0.7635  
G01 X-1.4253 Y0.7635  
G01 X-1.4233 Y0.7636  
G01 X-1.4229 Y0.7635  
G01 X-1.4226 Y0.7635  
G01 X-1.4205 Y0.7630  
G01 X-1.4185 Y0.7625  
G01 X-1.4182 Y0.7623  
G01 X-1.4179 Y0.7622  
G01 X-1.4160 Y0.7612  
G01 X-1.4142 Y0.7602  
G01 X-1.4139 Y0.7600  
G01 X-1.4136 Y0.7598  
G01 X-1.4122 Y0.7583  
G01 X-1.2777 Y0.6335  
G01 X-0.7333 Y0.6335  
G01 X-0.6685 Y0.7070  
G01 X-0.6685 Y0.7079  
G01 X-0.6704 Y0.7091  
G01 X-0.6749 Y0.7136  
G01 X-0.6784 Y0.7188  
G01 X-0.6808 Y0.7247  
G01 X-0.6820 Y0.7308  
G01 X-0.6820 Y0.7892  
G01 X-0.6808 Y0.7952  
G01 X-0.7169 Y0.9071  
G01 X-0.7176 Y0.9094  
G01 X-0.7184 Y0.9116  
G01 X-0.7184 Y0.9118  
G01 X-0.7185 Y0.9142  
G01 X-0.7186 Y0.9165  
G01 X-0.7186 Y0.9167  
G01 X-0.7181 Y0.9190  
G01 X-0.7176 Y0.9213  
G00 Z0.0500  
G00 X-0.7352 Y0.9114  
G01 Z-0.0040 F10    
G01 X-0.7328 Y0.9071  F20    
G01 X-0.7315 Y0.9024  
G01 X-0.7315 Y0.8121  
G01 X-0.7296 Y0.8109  
G01 X-0.7251 Y0.8064  
G01 X-0.7216 Y0.8012  
G01 X-0.7192 Y0.7953  
G01 X-0.7180 Y0.7892  
G01 X-0.7180 Y0.7308  
G01 X-0.7192 Y0.7247  
G01 X-0.7216 Y0.7188  
G01 X-0.7251 Y0.7136  
G01 X-0.7296 Y0.7091  
G01 X-0.7348 Y0.7056  
G01 X-0.7407 Y0.7032  
G01 X-0.7468 Y0.7020  
G01 X-0.7532 Y0.7020  
G01 X-0.7593 Y0.7032  
G01 X-0.7652 Y0.7056  
G01 X-0.7704 Y0.7091  
G01 X-0.7749 Y0.7136  
G01 X-0.7784 Y0.7188  
G01 X-0.7808 Y0.7247  
G01 X-0.7820 Y0.7308  
G01 X-0.7820 Y0.7892  
G01 X-0.7808 Y0.7953  
G01 X-0.7784 Y0.8012  
G01 X-0.7749 Y0.8064  
G01 X-0.7704 Y0.8109  
G01 X-0.7685 Y0.8121  
G01 X-0.7685 Y0.8923  
G01 X-0.9618 Y1.0856  
G01 X-0.9622 Y1.0859  
G01 X-0.9635 Y1.0873  
G01 X-0.9642 Y1.0880  
G01 X-0.9733 Y1.0880  
G01 X-0.9920 Y1.1067  
G01 X-0.9920 Y1.1175  
G01 X-0.9921 Y1.1179  
G01 X-0.9926 Y1.1189  
G01 X-0.9929 Y1.1202  
G01 X-1.0171 Y1.1929  
G01 X-1.0447 Y1.2480  
G01 X-1.0533 Y1.2480  
G01 X-1.0720 Y1.2667  
G01 X-1.0720 Y1.2933  
G01 X-1.0683 Y1.2969  
G01 X-1.0685 Y1.2976  
G01 X-1.0685 Y1.2981  
G01 X-1.0686 Y1.2987  
G01 X-1.0685 Y1.3006  
G01 X-1.0685 Y1.3024  
G01 X-1.0684 Y1.3030  
G01 X-1.0683 Y1.3035  
G01 X-1.0677 Y1.3053  
G01 X-1.0672 Y1.3071  
G01 X-1.0670 Y1.3076  
G01 X-1.0668 Y1.3082  
G01 X-1.0657 Y1.3097  
G01 X-1.0648 Y1.3114  
G01 X-1.0644 Y1.3118  
G01 X-1.0641 Y1.3122  
G01 X-1.0627 Y1.3135  
G01 X-0.9181 Y1.4581  
G01 X-0.9088 Y1.6207  
G01 X-0.9258 Y1.6513  
G01 X-1.5417 Y1.6416  
G01 X-1.6379 Y1.5358  
G01 X-1.6409 Y1.5339  
G01 X-1.6565 Y1.5182  
G01 X-1.6565 Y1.4976  
G01 X-1.6578 Y1.4929  
G01 X-1.6602 Y1.4886  
G01 X-1.8180 Y1.3308  
G01 X-1.8180 Y1.2808  
G01 X-1.8192 Y1.2747  
G01 X-1.8216 Y1.2688  
G01 X-1.8251 Y1.2636  
G01 X-1.8296 Y1.2591  
G01 X-1.8348 Y1.2556  
G01 X-1.8407 Y1.2532  
G01 X-1.8468 Y1.2520  
G01 X-1.8532 Y1.2520  
G01 X-1.8593 Y1.2532  
G01 X-1.8652 Y1.2556  
G01 X-1.8704 Y1.2591  
G01 X-1.8749 Y1.2636  
G01 X-1.8784 Y1.2688  
G01 X-1.8808 Y1.2747  
G01 X-1.8820 Y1.2808  
G01 X-1.8820 Y1.3392  
G01 X-1.8808 Y1.3453  
G01 X-1.8784 Y1.3512  
G01 X-1.8749 Y1.3564  
G01 X-1.8704 Y1.3609  
G01 X-1.8680 Y1.3625  
G01 X-1.8680 Y1.3725  
G01 X-1.8857 Y1.3903  
G01 X-1.9149 Y1.3903  
G01 X-1.9171 Y1.3912  
G01 X-1.9188 Y1.3929  
G01 X-1.9197 Y1.3951  
G01 X-1.9197 Y1.4449  
G01 X-1.9188 Y1.4471  
G01 X-1.9171 Y1.4488  
G01 X-1.9149 Y1.4497  
G01 X-1.8651 Y1.4497  
G01 X-1.8629 Y1.4488  
G01 X-1.8612 Y1.4471  
G01 X-1.8603 Y1.4449  
G01 X-1.8603 Y1.4157  
G01 X-1.8356 Y1.3911  
G01 X-1.8332 Y1.3869  
G01 X-1.8320 Y1.3824  
G01 X-1.8320 Y1.3692  
G01 X-1.6935 Y1.5077  
G01 X-1.6935 Y1.5274  
G01 X-1.6933 Y1.5281  
G01 X-1.7020 Y1.5367  
G01 X-1.7020 Y1.5633  
G01 X-1.6994 Y1.5659  
G01 X-1.7468 Y1.7167  
G01 X-1.8054 Y1.8004  
G01 X-1.8067 Y1.7990  
G01 X-1.8333 Y1.7990  
G01 X-1.8520 Y1.8177  
G01 X-1.8520 Y1.8443  
G01 X-1.8333 Y1.8630  
G01 X-1.8067 Y1.8630  
G01 X-1.7880 Y1.8443  
G01 X-1.7880 Y1.8392  
G01 X-1.7873 Y1.8385  
G01 X-1.7862 Y1.8376  
G01 X-1.7856 Y1.8367  
G01 X-1.7849 Y1.8359  
G01 X-1.7842 Y1.8347  
G01 X-1.7160 Y1.7373  
G01 X-1.7157 Y1.7370  
G01 X-1.7146 Y1.7353  
G01 X-1.7134 Y1.7336  
G01 X-1.7133 Y1.7332  
G01 X-1.7131 Y1.7329  
G01 X-1.7125 Y1.7309  
G01 X-1.7118 Y1.7290  
G01 X-1.7117 Y1.7286  
G01 X-1.6657 Y1.5820  
G01 X-1.6567 Y1.5820  
G01 X-1.6511 Y1.5763  
G01 X-1.5651 Y1.6709  
G01 X-1.5650 Y1.6711  
G01 X-1.5635 Y1.6727  
G01 X-1.5621 Y1.6742  
G01 X-1.5618 Y1.6744  
G01 X-1.5616 Y1.6746  
G01 X-1.5598 Y1.6757  
G01 X-1.5580 Y1.6769  
G01 X-1.5577 Y1.6770  
G01 X-1.5574 Y1.6771  
G01 X-1.5554 Y1.6777  
G01 X-1.5533 Y1.6784  
G01 X-1.5530 Y1.6784  
G01 X-1.5527 Y1.6785  
G01 X-1.5506 Y1.6785  
G01 X-1.5484 Y1.6786  
G01 X-1.5482 Y1.6785  
G01 X-0.9174 Y1.6885  
G01 X-0.9171 Y1.6885  
G01 X-0.9150 Y1.6885  
G01 X-0.9129 Y1.6885  
G01 X-0.9126 Y1.6885  
G01 X-0.9123 Y1.6885  
G01 X-0.9102 Y1.6879  
G01 X-0.9081 Y1.6873  
G01 X-0.9079 Y1.6872  
G01 X-0.9076 Y1.6871  
G01 X-0.9057 Y1.6860  
G01 X-0.9039 Y1.6850  
G01 X-0.9037 Y1.6848  
G01 X-0.9034 Y1.6846  
G01 X-0.9019 Y1.6831  
G01 X-0.9004 Y1.6816  
G01 X-0.9002 Y1.6813  
G01 X-0.9000 Y1.6811  
G01 X-0.8990 Y1.6792  
G01 X-0.8979 Y1.6774  
G01 X-0.8978 Y1.6771  
G01 X-0.8748 Y1.6358  
G01 X-0.8746 Y1.6355  
G01 X-0.8736 Y1.6337  
G01 X-0.8726 Y1.6319  
G01 X-0.8726 Y1.6315  
G01 X-0.8724 Y1.6311  
G01 X-0.8720 Y1.6291  
G01 X-0.8715 Y1.6271  
G01 X-0.8715 Y1.6267  
G01 X-0.8714 Y1.6264  
G01 X-0.8715 Y1.6243  
G01 X-0.8715 Y1.6223  
G01 X-0.8716 Y1.6219  
G01 X-0.8815 Y1.4495  
G01 X-0.8815 Y1.4476  
G01 X-0.8816 Y1.4470  
G01 X-0.8817 Y1.4465  
G01 X-0.8823 Y1.4447  
G01 X-0.8828 Y1.4429  
G01 X-0.8830 Y1.4424  
G01 X-0.8832 Y1.4419  
G01 X-0.8842 Y1.4403  
G01 X-0.8852 Y1.4386  
G01 X-0.8856 Y1.4383  
G01 X-0.8859 Y1.4378  
G01 X-0.8873 Y1.4365  
G01 X-1.0193 Y1.3045  
G01 X-1.0080 Y1.2933  
G01 X-1.0080 Y1.2667  
G01 X-1.0111 Y1.2636  
G01 X-0.9840 Y1.2093  
G01 X-0.9832 Y1.2082  
G01 X-0.9829 Y1.2071  
G01 X-0.9824 Y1.2061  
G01 X-0.9821 Y1.2048  
G01 X-0.9645 Y1.1520  
G01 X-0.9467 Y1.1520  
G01 X-0.9280 Y1.1333  
G01 X-0.9280 Y1.1067  
G01 X-0.9293 Y1.1055  
G01 X-0.7352 Y0.9114  
G00 Z0.0500  
G00 X-0.8519 Y0.9303  
G01 Z-0.0040 F10    
G01 X-0.8384 Y0.8159  F20    
G01 X-0.8348 Y0.8144  
G01 X-0.8296 Y0.8109  
G01 X-0.8251 Y0.8064  
G01 X-0.8216 Y0.8012  
G01 X-0.8192 Y0.7953  
G01 X-0.8180 Y0.7892  
G01 X-0.8180 Y0.7308  
G01 X-0.8192 Y0.7247  
G01 X-0.8216 Y0.7188  
G01 X-0.8251 Y0.7136  
G01 X-0.8296 Y0.7091  
G01 X-0.8348 Y0.7056  
G01 X-0.8407 Y0.7032  
G01 X-0.8468 Y0.7020  
G01 X-0.8532 Y0.7020  
G01 X-0.8593 Y0.7032  
G01 X-0.8652 Y0.7056  
G01 X-0.8704 Y0.7091  
G01 X-0.8749 Y0.7136  
G01 X-0.8784 Y0.7188  
G01 X-0.8808 Y0.7247  
G01 X-0.8820 Y0.7308  
G01 X-0.8820 Y0.7892  
G01 X-0.8808 Y0.7953  
G01 X-0.8784 Y0.8012  
G01 X-0.8749 Y0.8064  
G01 X-0.8737 Y0.8075  
G01 X-0.8869 Y0.9199  
G01 X-0.9732 Y0.9803  
G01 X-0.9849 Y0.9803  
G01 X-0.9871 Y0.9812  
G01 X-0.9888 Y0.9829  
G01 X-0.9897 Y0.9851  
G01 X-0.9897 Y1.0349  
G01 X-0.9888 Y1.0371  
G01 X-0.9871 Y1.0388  
G01 X-0.9849 Y1.0397  
G01 X-0.9351 Y1.0397  
G01 X-0.9329 Y1.0388  
G01 X-0.9312 Y1.0371  
G01 X-0.9303 Y1.0349  
G01 X-0.9303 Y0.9941  
G01 X-0.8612 Y0.9458  
G01 X-0.8607 Y0.9456  
G01 X-0.8593 Y0.9444  
G01 X-0.8577 Y0.9434  
G01 X-0.8574 Y0.9430  
G01 X-0.8570 Y0.9427  
G01 X-0.8559 Y0.9412  
G01 X-0.8547 Y0.9398  
G01 X-0.8545 Y0.9393  
G01 X-0.8542 Y0.9389  
G01 X-0.8535 Y0.9371  
G01 X-0.8527 Y0.9355  
G01 X-0.8526 Y0.9349  
G01 X-0.8524 Y0.9345  
G01 X-0.8522 Y0.9326  
G01 X-0.8519 Y0.9308  
G01 X-0.8519 Y0.9303  
G00 Z0.0500  
G00 X-0.9280 Y0.9233  
G01 Z-0.0040 F10    
G01 X-0.9280 Y0.8967  F20    
G01 X-0.9384 Y0.8863  
G01 X-0.9320 Y0.8542  
G01 X-0.9315 Y0.8524  
G01 X-0.9315 Y0.8518  
G01 X-0.9314 Y0.8512  
G01 X-0.9315 Y0.8494  
G01 X-0.9315 Y0.8121  
G01 X-0.9296 Y0.8109  
G01 X-0.9251 Y0.8064  
G01 X-0.9216 Y0.8012  
G01 X-0.9192 Y0.7953  
G01 X-0.9180 Y0.7892  
G01 X-0.9180 Y0.7308  
G01 X-0.9192 Y0.7247  
G01 X-0.9216 Y0.7188  
G01 X-0.9251 Y0.7136  
G01 X-0.9296 Y0.7091  
G01 X-0.9348 Y0.7056  
G01 X-0.9407 Y0.7032  
G01 X-0.9468 Y0.7020  
G01 X-0.9532 Y0.7020  
G01 X-0.9593 Y0.7032  
G01 X-0.9652 Y0.7056  
G01 X-0.9704 Y0.7091  
G01 X-0.9749 Y0.7136  
G01 X-0.9784 Y0.7188  
G01 X-0.9808 Y0.7247  
G01 X-0.9820 Y0.7308  
G01 X-0.9820 Y0.7892  
G01 X-0.9808 Y0.7953  
G01 X-0.9784 Y0.8012  
G01 X-0.9749 Y0.8064  
G01 X-0.9704 Y0.8109  
G01 X-0.9685 Y0.8121  
G01 X-0.9685 Y0.8482  
G01 X-0.9748 Y0.8795  
G01 X-0.9920 Y0.8967  
G01 X-0.9920 Y0.9134  
G01 X-1.0521 Y0.9660  
G01 X-1.0539 Y0.9675  
G01 X-1.0540 Y0.9677  
G01 X-1.0553 Y0.9696  
G01 X-1.0566 Y0.9715  
G01 X-1.0567 Y0.9716  
G01 X-1.0575 Y0.9739  
G01 X-1.1118 Y1.1270  
G01 X-1.2333 Y1.3280  
G01 X-1.2433 Y1.3280  
G01 X-1.2620 Y1.3467  
G01 X-1.2620 Y1.3733  
G01 X-1.2433 Y1.3920  
G01 X-1.2167 Y1.3920  
G01 X-1.1980 Y1.3733  
G01 X-1.1980 Y1.3467  
G01 X-1.2001 Y1.3446  
G01 X-1.0795 Y1.1450  
G01 X-1.0784 Y1.1435  
G01 X-1.0782 Y1.1430  
G01 X-1.0779 Y1.1425  
G01 X-1.0774 Y1.1407  
G01 X-1.0242 Y0.9907  
G01 X-0.9685 Y0.9420  
G01 X-0.9467 Y0.9420  
G01 X-0.9280 Y0.9233  
G00 Z0.0500  
G00 X-1.0296 Y0.8109  
G01 Z-0.0040 F10    
G01 X-1.0251 Y0.8064  F20    
G01 X-1.0216 Y0.8012  
G01 X-1.0192 Y0.7953  
G01 X-1.0180 Y0.7892  
G01 X-1.0180 Y0.7308  
G01 X-1.0192 Y0.7247  
G01 X-1.0216 Y0.7188  
G01 X-1.0251 Y0.7136  
G01 X-1.0296 Y0.7091  
G01 X-1.0348 Y0.7056  
G01 X-1.0407 Y0.7032  
G01 X-1.0468 Y0.7020  
G01 X-1.0498 Y0.7020  
G01 X-1.0674 Y0.6591  
G01 X-1.0678 Y0.6579  
G01 X-1.0684 Y0.6568  
G01 X-1.0688 Y0.6557  
G01 X-1.0696 Y0.6547  
G01 X-1.0702 Y0.6536  
G01 X-1.0710 Y0.6528  
G01 X-1.0718 Y0.6518  
G01 X-1.0728 Y0.6511  
G01 X-1.0736 Y0.6502  
G01 X-1.0747 Y0.6496  
G01 X-1.0756 Y0.6489  
G01 X-1.0768 Y0.6484  
G01 X-1.0779 Y0.6478  
G01 X-1.0790 Y0.6474  
G01 X-1.0801 Y0.6470  
G01 X-1.0814 Y0.6468  
G01 X-1.0826 Y0.6465  
G01 X-1.0838 Y0.6465  
G01 X-1.0850 Y0.6463  
G01 X-1.0862 Y0.6465  
G01 X-1.2088 Y0.6465  
G01 X-1.2100 Y0.6463  
G01 X-1.2112 Y0.6465  
G01 X-1.2124 Y0.6465  
G01 X-1.2136 Y0.6468  
G01 X-1.2149 Y0.6470  
G01 X-1.2160 Y0.6474  
G01 X-1.2171 Y0.6478  
G01 X-1.2182 Y0.6484  
G01 X-1.2194 Y0.6489  
G01 X-1.2203 Y0.6496  
G01 X-1.2214 Y0.6502  
G01 X-1.2222 Y0.6511  
G01 X-1.2232 Y0.6518  
G01 X-1.2239 Y0.6528  
G01 X-1.2248 Y0.6536  
G01 X-1.2254 Y0.6547  
G01 X-1.2889 Y0.7378  
G01 X-1.2898 Y0.7386  
G01 X-1.3792 Y0.8280  
G01 X-1.3833 Y0.8280  
G01 X-1.4020 Y0.8467  
G01 X-1.4020 Y0.8733  
G01 X-1.3833 Y0.8920  
G01 X-1.3567 Y0.8920  
G01 X-1.3380 Y0.8733  
G01 X-1.3380 Y0.8467  
G01 X-1.3418 Y0.8430  
G01 X-1.2935 Y0.7947  
G01 X-1.2935 Y1.0987  
G01 X-1.2937 Y1.0998  
G01 X-1.2935 Y1.1011  
G01 X-1.2935 Y1.1024  
G01 X-1.2932 Y1.1035  
G01 X-1.2931 Y1.1046  
G01 X-1.2926 Y1.1059  
G01 X-1.2922 Y1.1071  
G01 X-1.2920 Y1.1076  
G01 X-1.2920 Y1.1333  
G01 X-1.2733 Y1.1520  
G01 X-1.2467 Y1.1520  
G01 X-1.2280 Y1.1333  
G01 X-1.2280 Y1.1067  
G01 X-1.2467 Y1.0880  
G01 X-1.2565 Y1.0880  
G01 X-1.2565 Y0.7563  
G01 X-1.2009 Y0.6835  
G01 X-1.0974 Y0.6835  
G01 X-1.0806 Y0.7243  
G01 X-1.0808 Y0.7247  
G01 X-1.0820 Y0.7308  
G01 X-1.0820 Y0.7892  
G01 X-1.0808 Y0.7953  
G01 X-1.0784 Y0.8012  
G01 X-1.0749 Y0.8064  
G01 X-1.0704 Y0.8109  
G01 X-1.0652 Y0.8144  
G01 X-1.0593 Y0.8168  
G01 X-1.0532 Y0.8180  
G01 X-1.0468 Y0.8180  
G01 X-1.0407 Y0.8168  
G01 X-1.0348 Y0.8144  
G01 X-1.0296 Y0.8109  
G00 Z0.0500  
G00 X-1.1296 Y0.8109  
G01 Z-0.0040 F10    
G01 X-1.1251 Y0.8064  F20    
G01 X-1.1216 Y0.8012  
G01 X-1.1192 Y0.7953  
G01 X-1.1180 Y0.7892  
G01 X-1.1180 Y0.7308  
G01 X-1.1192 Y0.7247  
G01 X-1.1216 Y0.7188  
G01 X-1.1251 Y0.7136  
G01 X-1.1296 Y0.7091  
G01 X-1.1348 Y0.7056  
G01 X-1.1407 Y0.7032  
G01 X-1.1468 Y0.7020  
G01 X-1.1532 Y0.7020  
G01 X-1.1593 Y0.7032  
G01 X-1.1652 Y0.7056  
G01 X-1.1704 Y0.7091  
G01 X-1.1749 Y0.7136  
G01 X-1.1784 Y0.7188  
G01 X-1.1808 Y0.7247  
G01 X-1.1820 Y0.7308  
G01 X-1.1820 Y0.7892  
G01 X-1.1808 Y0.7953  
G01 X-1.1784 Y0.8012  
G01 X-1.1749 Y0.8064  
G01 X-1.1704 Y0.8109  
G01 X-1.1680 Y0.8125  
G01 X-1.1680 Y1.0848  
G01 X-1.2141 Y1.1586  
G01 X-1.2142 Y1.1587  
G01 X-1.2154 Y1.1606  
G01 X-1.2165 Y1.1625  
G01 X-1.2166 Y1.1626  
G01 X-1.2443 Y1.2088  
G01 X-1.3111 Y1.2756  
G01 X-1.3144 Y1.2789  
G01 X-1.3168 Y1.2831  
G01 X-1.3180 Y1.2876  
G01 X-1.3180 Y1.3924  
G01 X-1.3168 Y1.3969  
G01 X-1.3144 Y1.4011  
G01 X-1.2544 Y1.4611  
G01 X-1.2511 Y1.4644  
G01 X-1.2469 Y1.4668  
G01 X-1.2424 Y1.4680  
G01 X-1.1775 Y1.4680  
G01 X-1.0720 Y1.5735  
G01 X-1.0720 Y1.5933  
G01 X-1.0533 Y1.6120  
G01 X-1.0267 Y1.6120  
G01 X-1.0191 Y1.6043  
G01 X-0.9920 Y1.6111  
G01 X-0.9920 Y1.6133  
G01 X-0.9733 Y1.6320  
G01 X-0.9467 Y1.6320  
G01 X-0.9280 Y1.6133  
G01 X-0.9280 Y1.5867  
G01 X-0.9467 Y1.5680  
G01 X-0.9733 Y1.5680  
G01 X-0.9809 Y1.5757  
G01 X-1.0080 Y1.5689  
G01 X-1.0080 Y1.5667  
G01 X-1.0267 Y1.5480  
G01 X-1.0465 Y1.5480  
G01 X-1.1589 Y1.4356  
G01 X-1.1631 Y1.4332  
G01 X-1.1676 Y1.4320  
G01 X-1.2325 Y1.4320  
G01 X-1.2820 Y1.3825  
G01 X-1.2820 Y1.2975  
G01 X-1.2174 Y1.2328  
G01 X-1.2158 Y1.2313  
G01 X-1.2157 Y1.2312  
G01 X-1.2156 Y1.2311  
G01 X-1.2145 Y1.2291  
G01 X-1.1846 Y1.1794  
G01 X-1.1358 Y1.1013  
G01 X-1.1356 Y1.1011  
G01 X-1.1346 Y1.0993  
G01 X-1.1335 Y1.0975  
G01 X-1.1334 Y1.0972  
G01 X-1.1332 Y1.0969  
G01 X-1.1327 Y1.0950  
G01 X-1.1321 Y1.0930  
G01 X-1.1321 Y1.0927  
G01 X-1.1320 Y1.0924  
G01 X-1.1320 Y1.0903  
G01 X-1.1319 Y1.0883  
G01 X-1.1320 Y1.0880  
G01 X-1.1320 Y0.8125  
G01 X-1.1296 Y0.8109  
G00 Z0.0500  
G00 X-1.0919 Y0.5735  
G01 Z-0.0040 F10    
G01 X-1.0913 Y0.5736  F20    
G01 X-1.0894 Y0.5735  
G01 X-1.0876 Y0.5735  
G01 X-1.0870 Y0.5734  
G01 X-1.0865 Y0.5733  
G01 X-1.0847 Y0.5727  
G01 X-1.0829 Y0.5722  
G01 X-1.0824 Y0.5720  
G01 X-1.0818 Y0.5718  
G01 X-1.0803 Y0.5707  
G01 X-1.0786 Y0.5698  
G01 X-1.0782 Y0.5694  
G01 X-1.0778 Y0.5691  
G01 X-1.0765 Y0.5677  
G01 X-1.0752 Y0.5664  
G01 X-1.0749 Y0.5659  
G01 X-1.0745 Y0.5655  
G01 X-1.0737 Y0.5638  
G01 X-1.0728 Y0.5621  
G01 X-1.0726 Y0.5616  
G01 X-1.0508 Y0.5180  
G01 X-1.0468 Y0.5180  
G01 X-1.0407 Y0.5168  
G01 X-1.0348 Y0.5144  
G01 X-1.0296 Y0.5109  
G01 X-1.0251 Y0.5064  
G01 X-1.0216 Y0.5012  
G01 X-1.0192 Y0.4953  
G01 X-1.0189 Y0.4935  
G01 X-0.9811 Y0.4935  
G01 X-0.9808 Y0.4953  
G01 X-0.9784 Y0.5012  
G01 X-0.9749 Y0.5064  
G01 X-0.9704 Y0.5109  
G01 X-0.9652 Y0.5144  
G01 X-0.9593 Y0.5168  
G01 X-0.9532 Y0.5180  
G01 X-0.9468 Y0.5180  
G01 X-0.9407 Y0.5168  
G01 X-0.9348 Y0.5144  
G01 X-0.9296 Y0.5109  
G01 X-0.9251 Y0.5064  
G01 X-0.9216 Y0.5012  
G01 X-0.9192 Y0.4953  
G01 X-0.9180 Y0.4892  
G01 X-0.9180 Y0.4308  
G01 X-0.9192 Y0.4247  
G01 X-0.9216 Y0.4188  
G01 X-0.9251 Y0.4136  
G01 X-0.9296 Y0.4091  
G01 X-0.9348 Y0.4056  
G01 X-0.9407 Y0.4032  
G01 X-0.9468 Y0.4020  
G01 X-0.9532 Y0.4020  
G01 X-0.9593 Y0.4032  
G01 X-0.9652 Y0.4056  
G01 X-0.9704 Y0.4091  
G01 X-0.9749 Y0.4136  
G01 X-0.9784 Y0.4188  
G01 X-0.9808 Y0.4247  
G01 X-0.9820 Y0.4308  
G01 X-0.9820 Y0.4565  
G01 X-1.0180 Y0.4565  
G01 X-1.0180 Y0.4308  
G01 X-1.0192 Y0.4247  
G01 X-1.0216 Y0.4188  
G01 X-1.0251 Y0.4136  
G01 X-1.0296 Y0.4091  
G01 X-1.0348 Y0.4056  
G01 X-1.0407 Y0.4032  
G01 X-1.0468 Y0.4020  
G01 X-1.0532 Y0.4020  
G01 X-1.0593 Y0.4032  
G01 X-1.0652 Y0.4056  
G01 X-1.0704 Y0.4091  
G01 X-1.0749 Y0.4136  
G01 X-1.0784 Y0.4188  
G01 X-1.0808 Y0.4247  
G01 X-1.0820 Y0.4308  
G01 X-1.0820 Y0.4892  
G01 X-1.0808 Y0.4952  
G01 X-1.1014 Y0.5365  
G01 X-1.3445 Y0.5365  
G01 X-1.3465 Y0.5364  
G01 X-1.3470 Y0.5365  
G01 X-1.3474 Y0.5365  
G01 X-1.3493 Y0.5370  
G01 X-1.3513 Y0.5374  
G01 X-1.3517 Y0.5376  
G01 X-1.3521 Y0.5378  
G01 X-1.3538 Y0.5387  
G01 X-1.5565 Y0.6425  
G01 X-1.5567 Y0.6426  
G01 X-1.5586 Y0.6436  
G01 X-1.5606 Y0.6446  
G01 X-1.5608 Y0.6448  
G01 X-1.5609 Y0.6449  
G01 X-1.5626 Y0.6464  
G01 X-1.5642 Y0.6479  
G01 X-1.5643 Y0.6481  
G01 X-1.5645 Y0.6482  
G01 X-1.5656 Y0.6501  
G01 X-1.5669 Y0.6520  
G01 X-1.5669 Y0.6522  
G01 X-1.5670 Y0.6524  
G01 X-1.5677 Y0.6545  
G01 X-1.5684 Y0.6566  
G01 X-1.5684 Y0.6568  
G01 X-1.5684 Y0.6571  
G01 X-1.5685 Y0.6593  
G01 X-1.5686 Y0.6615  
G01 X-1.5686 Y0.6617  
G01 X-1.5785 Y1.0183  
G01 X-1.5787 Y1.0195  
G01 X-1.5785 Y1.0207  
G01 X-1.5786 Y1.0219  
G01 X-1.5783 Y1.0231  
G01 X-1.5782 Y1.0243  
G01 X-1.5777 Y1.0255  
G01 X-1.5774 Y1.0267  
G01 X-1.5768 Y1.0277  
G01 X-1.5764 Y1.0289  
G01 X-1.5757 Y1.0299  
G01 X-1.5751 Y1.0309  
G01 X-1.5743 Y1.0318  
G01 X-1.5736 Y1.0328  
G01 X-1.5726 Y1.0336  
G01 X-1.5718 Y1.0345  
G01 X-1.5707 Y1.0351  
G01 X-1.4128 Y1.1634  
G01 X-1.4122 Y1.1641  
G01 X-1.4110 Y1.1649  
G01 X-1.4098 Y1.1659  
G01 X-1.4089 Y1.1663  
G01 X-1.4082 Y1.1668  
G01 X-1.4067 Y1.1673  
G01 X-1.4053 Y1.1679  
G01 X-1.4044 Y1.1680  
G01 X-1.4020 Y1.1688  
G01 X-1.4020 Y1.1733  
G01 X-1.3935 Y1.1818  
G01 X-1.3935 Y1.4274  
G01 X-1.3922 Y1.4321  
G01 X-1.3898 Y1.4364  
G01 X-1.2420 Y1.5842  
G01 X-1.2420 Y1.5933  
G01 X-1.2233 Y1.6120  
G01 X-1.1967 Y1.6120  
G01 X-1.1780 Y1.5933  
G01 X-1.1780 Y1.5667  
G01 X-1.1967 Y1.5480  
G01 X-1.2233 Y1.5480  
G01 X-1.2245 Y1.5493  
G01 X-1.3565 Y1.4173  
G01 X-1.3565 Y1.1918  
G01 X-1.3380 Y1.1733  
G01 X-1.3380 Y1.1467  
G01 X-1.3567 Y1.1280  
G01 X-1.3833 Y1.1280  
G01 X-1.3893 Y1.1341  
G01 X-1.3910 Y1.1335  
G01 X-1.5413 Y1.0114  
G01 X-1.5318 Y0.6715  
G01 X-1.3405 Y0.5735  
G01 X-1.0919 Y0.5735  
G00 Z0.0500  
G00 X-1.1296 Y0.5109  
G01 Z-0.0040 F10    
G01 X-1.1251 Y0.5064  F20    
G01 X-1.1216 Y0.5012  
G01 X-1.1192 Y0.4953  
G01 X-1.1180 Y0.4892  
G01 X-1.1180 Y0.4308  
G01 X-1.1192 Y0.4247  
G01 X-1.1216 Y0.4188  
G01 X-1.1251 Y0.4136  
G01 X-1.1296 Y0.4091  
G01 X-1.1348 Y0.4056  
G01 X-1.1380 Y0.4043  
G01 X-1.1380 Y0.3820  
G01 X-1.1197 Y0.3820  
G01 X-1.1197 Y0.3849  
G01 X-1.1188 Y0.3871  
G01 X-1.1171 Y0.3888  
G01 X-1.1149 Y0.3897  
G01 X-1.0651 Y0.3897  
G01 X-1.0629 Y0.3888  
G01 X-1.0612 Y0.3871  
G01 X-1.0603 Y0.3849  
G01 X-1.0603 Y0.3351  
G01 X-1.0612 Y0.3329  
G01 X-1.0629 Y0.3312  
G01 X-1.0651 Y0.3303  
G01 X-1.1149 Y0.3303  
G01 X-1.1171 Y0.3312  
G01 X-1.1188 Y0.3329  
G01 X-1.1197 Y0.3351  
G01 X-1.1197 Y0.3380  
G01 X-1.1280 Y0.3380  
G01 X-1.1280 Y0.3267  
G01 X-1.1467 Y0.3080  
G01 X-1.1733 Y0.3080  
G01 X-1.1920 Y0.3267  
G01 X-1.1920 Y0.3533  
G01 X-1.1820 Y0.3633  
G01 X-1.1820 Y0.4892  
G01 X-1.1808 Y0.4953  
G01 X-1.1784 Y0.5012  
G01 X-1.1749 Y0.5064  
G01 X-1.1704 Y0.5109  
G01 X-1.1652 Y0.5144  
G01 X-1.1593 Y0.5168  
G01 X-1.1532 Y0.5180  
G01 X-1.1468 Y0.5180  
G01 X-1.1407 Y0.5168  
G01 X-1.1348 Y0.5144  
G01 X-1.1296 Y0.5109  
G00 Z0.0500  
G00 X-1.2563 Y0.4527  
G01 Z-0.0040 F10    
G01 X-1.2558 Y0.4520  F20    
G01 X-1.2552 Y0.4514  
G01 X-1.2544 Y0.4500  
G01 X-1.2535 Y0.4487  
G01 X-1.2532 Y0.4479  
G01 X-1.2528 Y0.4471  
G01 X-1.2524 Y0.4456  
G01 X-1.2518 Y0.4442  
G01 X-1.2517 Y0.4433  
G01 X-1.2515 Y0.4424  
G01 X-1.2515 Y0.4409  
G01 X-1.2514 Y0.4393  
G01 X-1.2515 Y0.4385  
G01 X-1.2515 Y0.2985  
G01 X-1.0653 Y0.2985  
G01 X-1.0520 Y0.3117  
G01 X-1.0257 Y0.3117  
G01 X-1.0071 Y0.2932  
G01 X-1.0071 Y0.2668  
G01 X-1.0257 Y0.2483  
G01 X-1.0520 Y0.2483  
G01 X-1.0653 Y0.2615  
G01 X-1.2724 Y0.2615  
G01 X-1.2771 Y0.2628  
G01 X-1.2814 Y0.2652  
G01 X-1.2848 Y0.2686  
G01 X-1.2872 Y0.2729  
G01 X-1.2885 Y0.2776  
G01 X-1.2885 Y0.4281  
G01 X-1.6260 Y0.5824  
G01 X-1.6266 Y0.5825  
G01 X-1.6282 Y0.5834  
G01 X-1.6299 Y0.5842  
G01 X-1.6304 Y0.5846  
G01 X-1.6309 Y0.5848  
G01 X-1.6322 Y0.5861  
G01 X-1.6337 Y0.5873  
G01 X-1.6340 Y0.5878  
G01 X-1.6344 Y0.5882  
G01 X-1.6354 Y0.5897  
G01 X-1.6365 Y0.5913  
G01 X-1.6367 Y0.5918  
G01 X-1.6370 Y0.5923  
G01 X-1.6375 Y0.5941  
G01 X-1.6382 Y0.5958  
G01 X-1.6382 Y0.5964  
G01 X-1.6384 Y0.5969  
G01 X-1.6385 Y0.5988  
G01 X-1.6386 Y0.6007  
G01 X-1.6386 Y0.6012  
G01 X-1.6479 Y0.8827  
G01 X-1.7806 Y0.8915  
G01 X-1.8530 Y0.8915  
G01 X-1.8534 Y0.8914  
G01 X-1.8554 Y0.8915  
G01 X-1.8574 Y0.8915  
G01 X-1.8578 Y0.8916  
G01 X-1.8582 Y0.8916  
G01 X-1.8602 Y0.8922  
G01 X-1.8621 Y0.8928  
G01 X-1.8625 Y0.8930  
G01 X-1.8629 Y0.8931  
G01 X-1.8646 Y0.8942  
G01 X-1.8664 Y0.8952  
G01 X-1.8666 Y0.8955  
G01 X-1.8670 Y0.8957  
G01 X-1.8684 Y0.8972  
G01 X-1.8698 Y0.8986  
G01 X-1.8700 Y0.8990  
G01 X-1.8703 Y0.8993  
G01 X-1.8712 Y0.9011  
G01 X-1.8722 Y0.9029  
G01 X-1.8723 Y0.9033  
G01 X-1.8725 Y0.9036  
G01 X-1.8730 Y0.9056  
G01 X-1.8735 Y0.9076  
G01 X-1.8735 Y0.9080  
G01 X-1.8736 Y0.9084  
G01 X-1.8735 Y0.9104  
G01 X-1.8735 Y0.9124  
G01 X-1.8734 Y0.9128  
G01 X-1.8715 Y0.9561  
G01 X-1.8862 Y0.9487  
G01 X-1.8878 Y0.9478  
G01 X-1.8884 Y0.9476  
G01 X-1.8889 Y0.9474  
G01 X-1.8907 Y0.9470  
G01 X-1.9180 Y0.9396  
G01 X-1.9180 Y0.9367  
G01 X-1.9367 Y0.9180  
G01 X-1.9633 Y0.9180  
G01 X-1.9820 Y0.9367  
G01 X-1.9820 Y0.9633  
G01 X-1.9633 Y0.9820  
G01 X-1.9367 Y0.9820  
G01 X-1.9295 Y0.9748  
G01 X-1.9016 Y0.9824  
G01 X-1.8860 Y0.9902  
G01 X-1.8820 Y0.9942  
G01 X-1.8820 Y1.0392  
G01 X-1.8808 Y1.0453  
G01 X-1.8784 Y1.0512  
G01 X-1.8749 Y1.0564  
G01 X-1.8704 Y1.0609  
G01 X-1.8652 Y1.0644  
G01 X-1.8593 Y1.0668  
G01 X-1.8532 Y1.0680  
G01 X-1.8468 Y1.0680  
G01 X-1.8407 Y1.0668  
G01 X-1.8348 Y1.0644  
G01 X-1.8296 Y1.0609  
G01 X-1.8251 Y1.0564  
G01 X-1.8216 Y1.0512  
G01 X-1.8192 Y1.0453  
G01 X-1.8180 Y1.0392  
G01 X-1.8180 Y0.9808  
G01 X-1.8192 Y0.9747  
G01 X-1.8216 Y0.9688  
G01 X-1.8251 Y0.9636  
G01 X-1.8296 Y0.9591  
G01 X-1.8345 Y0.9559  
G01 X-1.8357 Y0.9285  
G01 X-1.7818 Y0.9285  
G01 X-1.7812 Y0.9286  
G01 X-1.7794 Y0.9285  
G01 X-1.7776 Y0.9285  
G01 X-1.7770 Y0.9283  
G01 X-1.6297 Y0.9185  
G01 X-1.6282 Y0.9186  
G01 X-1.6273 Y0.9184  
G01 X-1.6263 Y0.9183  
G01 X-1.6249 Y0.9178  
G01 X-1.6234 Y0.9175  
G01 X-1.6226 Y0.9170  
G01 X-1.6217 Y0.9167  
G01 X-1.6205 Y0.9159  
G01 X-1.6191 Y0.9152  
G01 X-1.6185 Y0.9145  
G01 X-1.6177 Y0.9140  
G01 X-1.6167 Y0.9129  
G01 X-1.6156 Y0.9118  
G01 X-1.6151 Y0.9111  
G01 X-1.6145 Y0.9103  
G01 X-1.6138 Y0.9090  
G01 X-1.6130 Y0.9077  
G01 X-1.6127 Y0.9068  
G01 X-1.6123 Y0.9060  
G01 X-1.6120 Y0.9045  
G01 X-1.6116 Y0.9031  
G01 X-1.6116 Y0.9021  
G01 X-1.6114 Y0.9012  
G01 X-1.6115 Y0.8997  
G01 X-1.6019 Y0.6121  
G01 X-1.2637 Y0.4575  
G01 X-1.2629 Y0.4572  
G01 X-1.2615 Y0.4565  
G01 X-1.2601 Y0.4558  
G01 X-1.2594 Y0.4552  
G01 X-1.2586 Y0.4548  
G01 X-1.2575 Y0.4537  
G01 X-1.2563 Y0.4527  
G00 Z0.0500  
G00 X-1.6522 Y0.3930  
G01 Z-0.0040 F10    
G01 X-1.6270 Y0.3678  F20    
G01 X-1.6270 Y0.3322  
G01 X-1.6522 Y0.3070  
G01 X-1.6878 Y0.3070  
G01 X-1.7130 Y0.3322  
G01 X-1.7130 Y0.3678  
G01 X-1.6878 Y0.3930  
G01 X-1.6522 Y0.3930  
G00 Z0.0500  
G00 X-1.7522 Y0.3930  
G01 Z-0.0040 F10    
G01 X-1.7270 Y0.3678  F20    
G01 X-1.7270 Y0.3322  
G01 X-1.7522 Y0.3070  
G01 X-1.7878 Y0.3070  
G01 X-1.8130 Y0.3322  
G01 X-1.8130 Y0.3678  
G01 X-1.7878 Y0.3930  
G01 X-1.7522 Y0.3930  
G00 Z0.0500  
G00 X-1.8522 Y0.3930  
G01 Z-0.0040 F10    
G01 X-1.8270 Y0.3678  F20    
G01 X-1.8270 Y0.3322  
G01 X-1.8522 Y0.3070  
G01 X-1.8565 Y0.3070  
G01 X-1.8565 Y0.2930  
G01 X-1.8522 Y0.2930  
G01 X-1.8270 Y0.2678  
G01 X-1.8270 Y0.2322  
G01 X-1.8522 Y0.2070  
G01 X-1.8878 Y0.2070  
G01 X-1.9130 Y0.2322  
G01 X-1.9130 Y0.2678  
G01 X-1.8935 Y0.2873  
G01 X-1.8935 Y0.3127  
G01 X-1.9130 Y0.3322  
G01 X-1.9130 Y0.3678  
G01 X-1.8878 Y0.3930  
G01 X-1.8522 Y0.3930  
G00 Z0.0500  
G00 X-1.9522 Y0.3930  
G01 Z-0.0040 F10    
G01 X-1.9270 Y0.3678  F20    
G01 X-1.9270 Y0.3322  
G01 X-1.9522 Y0.3070  
G01 X-1.9565 Y0.3070  
G01 X-1.9565 Y0.2930  
G01 X-1.9522 Y0.2930  
G01 X-1.9270 Y0.2678  
G01 X-1.9270 Y0.2322  
G01 X-1.9522 Y0.2070  
G01 X-1.9651 Y0.2070  
G01 X-2.0094 Y0.1450  
G01 X-2.0102 Y0.1436  
G01 X-2.0108 Y0.1430  
G01 X-2.0114 Y0.1423  
G01 X-2.0126 Y0.1413  
G01 X-2.0136 Y0.1402  
G01 X-2.0144 Y0.1397  
G01 X-2.0151 Y0.1392  
G01 X-2.0165 Y0.1385  
G01 X-2.0179 Y0.1378  
G01 X-2.0187 Y0.1375  
G01 X-2.0196 Y0.1372  
G01 X-2.0211 Y0.1369  
G01 X-2.0226 Y0.1365  
G01 X-2.0235 Y0.1365  
G01 X-2.0244 Y0.1364  
G01 X-2.0259 Y0.1365  
G01 X-2.4274 Y0.1365  
G01 X-2.4321 Y0.1378  
G01 X-2.4364 Y0.1402  
G01 X-2.9330 Y0.6369  
G01 X-2.9347 Y0.6385  
G01 X-2.9348 Y0.6386  
G01 X-2.9360 Y0.6407  
G01 X-2.9372 Y0.6427  
G01 X-2.9372 Y0.6428  
G01 X-2.9378 Y0.6451  
G01 X-3.0072 Y0.8929  
G01 X-3.0301 Y0.9340  
G01 X-3.0307 Y0.9337  
G01 X-3.0369 Y0.9325  
G01 X-3.0431 Y0.9325  
G01 X-3.0493 Y0.9337  
G01 X-3.0550 Y0.9361  
G01 X-3.0602 Y0.9396  
G01 X-3.0647 Y0.9440  
G01 X-3.0681 Y0.9492  
G01 X-3.0705 Y0.9550  
G01 X-3.0717 Y0.9611  
G01 X-3.0717 Y1.0189  
G01 X-3.0705 Y1.0250  
G01 X-3.0681 Y1.0308  
G01 X-3.0647 Y1.0360  
G01 X-3.0620 Y1.0386  
G01 X-3.0620 Y1.1380  
G01 X-3.0980 Y1.1380  
G01 X-3.0980 Y1.1197  
G01 X-3.0951 Y1.1197  
G01 X-3.0929 Y1.1188  
G01 X-3.0912 Y1.1171  
G01 X-3.0903 Y1.1149  
G01 X-3.0903 Y1.0651  
G01 X-3.0912 Y1.0629  
G01 X-3.0929 Y1.0612  
G01 X-3.0951 Y1.0603  
G01 X-3.1449 Y1.0603  
G01 X-3.1471 Y1.0612  
G01 X-3.1488 Y1.0629  
G01 X-3.1497 Y1.0651  
G01 X-3.1497 Y1.1149  
G01 X-3.1488 Y1.1171  
G01 X-3.1471 Y1.1188  
G01 X-3.1449 Y1.1197  
G01 X-3.1420 Y1.1197  
G01 X-3.1420 Y1.1380  
G01 X-3.2329 Y1.1380  
G01 X-3.2385 Y1.1395  
G01 X-3.2435 Y1.1424  
G01 X-3.2476 Y1.1465  
G01 X-3.2791 Y1.1780  
G01 X-3.2829 Y1.1780  
G01 X-3.2885 Y1.1795  
G01 X-3.2935 Y1.1824  
G01 X-3.2976 Y1.1865  
G01 X-3.3876 Y1.2765  
G01 X-3.3905 Y1.2815  
G01 X-3.3920 Y1.2871  
G01 X-3.3920 Y1.3767  
G01 X-3.3949 Y1.3796  
G01 X-3.3984 Y1.3848  
G01 X-3.4008 Y1.3907  
G01 X-3.4020 Y1.3968  
G01 X-3.4020 Y1.4032  
G01 X-3.4008 Y1.4093  
G01 X-3.3984 Y1.4152  
G01 X-3.3949 Y1.4204  
G01 X-3.3904 Y1.4249  
G01 X-3.3852 Y1.4284  
G01 X-3.3793 Y1.4308  
G01 X-3.3732 Y1.4320  
G01 X-3.3668 Y1.4320  
G01 X-3.3607 Y1.4308  
G01 X-3.3548 Y1.4284  
G01 X-3.3496 Y1.4249  
G01 X-3.3451 Y1.4204  
G01 X-3.3416 Y1.4152  
G01 X-3.3392 Y1.4093  
G01 X-3.3380 Y1.4032  
G01 X-3.3380 Y1.3968  
G01 X-3.3392 Y1.3907  
G01 X-3.3416 Y1.3848  
G01 X-3.3451 Y1.3796  
G01 X-3.3480 Y1.3767  
G01 X-3.3480 Y1.2991  
G01 X-3.2709 Y1.2220  
G01 X-3.2671 Y1.2220  
G01 X-3.2615 Y1.2205  
G01 X-3.2565 Y1.2176  
G01 X-3.2209 Y1.1820  
G01 X-3.0620 Y1.1820  
G01 X-3.0620 Y1.2229  
G01 X-3.0605 Y1.2285  
G01 X-3.0576 Y1.2335  
G01 X-2.9120 Y1.3791  
G01 X-2.9120 Y1.3933  
G01 X-2.8933 Y1.4120  
G01 X-2.8667 Y1.4120  
G01 X-2.8480 Y1.3933  
G01 X-2.8480 Y1.3667  
G01 X-2.8667 Y1.3480  
G01 X-2.8809 Y1.3480  
G01 X-3.0180 Y1.2109  
G01 X-3.0180 Y1.0386  
G01 X-3.0153 Y1.0360  
G01 X-3.0119 Y1.0308  
G01 X-3.0095 Y1.0250  
G01 X-3.0083 Y1.0189  
G01 X-3.0083 Y0.9709  
G01 X-2.9740 Y0.9092  
G01 X-2.9728 Y0.9073  
G01 X-2.9728 Y0.9071  
G01 X-2.9726 Y0.9069  
G01 X-2.9721 Y0.9047  
G01 X-2.9035 Y0.6597  
G01 X-2.4173 Y0.1735  
G01 X-2.0345 Y0.1735  
G01 X-2.0011 Y0.2203  
G01 X-2.0130 Y0.2322  
G01 X-2.0130 Y0.2678  
G01 X-1.9935 Y0.2873  
G01 X-1.9935 Y0.3127  
G01 X-2.0130 Y0.3322  
G01 X-2.0130 Y0.3678  
G01 X-1.9878 Y0.3930  
G01 X-1.9522 Y0.3930  
G00 Z0.0500  
G00 X-1.9633 Y0.6180  
G01 Z-0.0040 F10    
G01 X-1.9765 Y0.6313  F20    
G01 X-2.5184 Y0.6265  
G01 X-2.5194 Y0.6264  
G01 X-2.5208 Y0.6265  
G01 X-2.5223 Y0.6265  
G01 X-2.5232 Y0.6267  
G01 X-2.5242 Y0.6268  
G01 X-2.5256 Y0.6273  
G01 X-2.5270 Y0.6277  
G01 X-2.5278 Y0.6282  
G01 X-2.5924 Y0.6524  
G01 X-2.5967 Y0.6480  
G01 X-2.6233 Y0.6480  
G01 X-2.6420 Y0.6667  
G01 X-2.6420 Y0.6933  
G01 X-2.6233 Y0.7120  
G01 X-2.5967 Y0.7120  
G01 X-2.5780 Y0.6933  
G01 X-2.5780 Y0.6865  
G01 X-2.5167 Y0.6635  
G01 X-1.9770 Y0.6683  
G01 X-1.9633 Y0.6820  
G01 X-1.9435 Y0.6820  
G01 X-1.9027 Y0.7227  
G01 X-1.9011 Y0.7244  
G01 X-1.8990 Y0.7256  
G01 X-1.8970 Y0.7267  
G01 X-1.8947 Y0.7274  
G01 X-1.8120 Y0.7499  
G01 X-1.8120 Y0.7533  
G01 X-1.7933 Y0.7720  
G01 X-1.7667 Y0.7720  
G01 X-1.7480 Y0.7533  
G01 X-1.7480 Y0.7267  
G01 X-1.7667 Y0.7080  
G01 X-1.7933 Y0.7080  
G01 X-1.8009 Y0.7156  
G01 X-1.8807 Y0.6939  
G01 X-1.9180 Y0.6565  
G01 X-1.9180 Y0.6367  
G01 X-1.9367 Y0.6180  
G01 X-1.9633 Y0.6180  
G00 Z0.0500  
G00 X-2.1912 Y0.7829  
G01 Z-0.0040 F10    
G01 X-2.1929 Y0.7812  F20    
G01 X-2.1951 Y0.7803  
G01 X-2.2449 Y0.7803  
G01 X-2.2471 Y0.7812  
G01 X-2.2488 Y0.7829  
G01 X-2.2497 Y0.7851  
G01 X-2.2497 Y0.7920  
G01 X-2.3127 Y0.7920  
G01 X-2.3267 Y0.7780  
G01 X-2.3533 Y0.7780  
G01 X-2.3720 Y0.7967  
G01 X-2.3720 Y0.8233  
G01 X-2.3533 Y0.8420  
G01 X-2.3267 Y0.8420  
G01 X-2.3127 Y0.8280  
G01 X-2.2497 Y0.8280  
G01 X-2.2497 Y0.8349  
G01 X-2.2488 Y0.8371  
G01 X-2.2471 Y0.8388  
G01 X-2.2449 Y0.8397  
G01 X-2.1951 Y0.8397  
G01 X-2.1929 Y0.8388  
G01 X-2.1912 Y0.8371  
G01 X-2.1903 Y0.8349  
G01 X-2.1903 Y0.7851  
G01 X-2.1912 Y0.7829  
G00 Z0.0500  
G00 X-2.2153 Y0.9440  
G01 Z-0.0040 F10    
G01 X-2.2198 Y0.9396  F20    
G01 X-2.2250 Y0.9361  
G01 X-2.2307 Y0.9337  
G01 X-2.2369 Y0.9325  
G01 X-2.2431 Y0.9325  
G01 X-2.2493 Y0.9337  
G01 X-2.2550 Y0.9361  
G01 X-2.2602 Y0.9396  
G01 X-2.2647 Y0.9440  
G01 X-2.2681 Y0.9492  
G01 X-2.2705 Y0.9550  
G01 X-2.2717 Y0.9611  
G01 X-2.2717 Y1.0189  
G01 X-2.2705 Y1.0250  
G01 X-2.2681 Y1.0308  
G01 X-2.2647 Y1.0360  
G01 X-2.2602 Y1.0404  
G01 X-2.2550 Y1.0439  
G01 X-2.2493 Y1.0463  
G01 X-2.2431 Y1.0475  
G01 X-2.2369 Y1.0475  
G01 X-2.2307 Y1.0463  
G01 X-2.2250 Y1.0439  
G01 X-2.2198 Y1.0404  
G01 X-2.2153 Y1.0360  
G01 X-2.2119 Y1.0308  
G01 X-2.2095 Y1.0250  
G01 X-2.2083 Y1.0189  
G01 X-2.2083 Y1.0185  
G01 X-2.1827 Y1.0185  
G01 X-2.0232 Y1.1780  
G01 X-2.0320 Y1.1867  
G01 X-2.0320 Y1.2133  
G01 X-2.0133 Y1.2320  
G01 X-1.9867 Y1.2320  
G01 X-1.9732 Y1.2185  
G01 X-1.9726 Y1.2185  
G01 X-1.9679 Y1.2172  
G01 X-1.9636 Y1.2148  
G01 X-1.9602 Y1.2114  
G01 X-1.9578 Y1.2071  
G01 X-1.9565 Y1.2024  
G01 X-1.9565 Y1.1976  
G01 X-1.9578 Y1.1929  
G01 X-1.9602 Y1.1886  
G01 X-1.9636 Y1.1852  
G01 X-2.1636 Y0.9852  
G01 X-2.1679 Y0.9828  
G01 X-2.1726 Y0.9815  
G01 X-2.2083 Y0.9815  
G01 X-2.2083 Y0.9611  
G01 X-2.2095 Y0.9550  
G01 X-2.2119 Y0.9492  
G01 X-2.2153 Y0.9440  
G00 Z0.0500  
G00 X-2.3153 Y0.9440  
G01 Z-0.0040 F10    
G01 X-2.3198 Y0.9396  F20    
G01 X-2.3250 Y0.9361  
G01 X-2.3307 Y0.9337  
G01 X-2.3369 Y0.9325  
G01 X-2.3431 Y0.9325  
G01 X-2.3493 Y0.9337  
G01 X-2.3550 Y0.9361  
G01 X-2.3602 Y0.9396  
G01 X-2.3647 Y0.9440  
G01 X-2.3681 Y0.9492  
G01 X-2.3705 Y0.9550  
G01 X-2.3717 Y0.9611  
G01 X-2.3717 Y1.0189  
G01 X-2.3705 Y1.0250  
G01 X-2.3681 Y1.0308  
G01 X-2.3647 Y1.0360  
G01 X-2.3602 Y1.0404  
G01 X-2.3550 Y1.0439  
G01 X-2.3502 Y1.0459  
G01 X-2.3532 Y1.0665  
G01 X-2.3535 Y1.0680  
G01 X-2.3535 Y1.0689  
G01 X-2.3537 Y1.0698  
G01 X-2.3535 Y1.0713  
G01 X-2.3534 Y1.0728  
G01 X-2.3532 Y1.0737  
G01 X-2.3531 Y1.0746  
G01 X-2.3525 Y1.0760  
G01 X-2.3521 Y1.0775  
G01 X-2.3516 Y1.0783  
G01 X-2.3513 Y1.0792  
G01 X-2.3503 Y1.0804  
G01 X-2.3496 Y1.0817  
G01 X-2.3489 Y1.0823  
G01 X-2.3483 Y1.0830  
G01 X-2.3471 Y1.0840  
G01 X-2.3460 Y1.0850  
G01 X-2.3452 Y1.0855  
G01 X-2.3445 Y1.0861  
G01 X-2.3431 Y1.0867  
G01 X-2.1933 Y1.1688  
G01 X-2.0779 Y1.3626  
G01 X-2.0920 Y1.3767  
G01 X-2.0920 Y1.4033  
G01 X-2.0733 Y1.4220  
G01 X-2.0684 Y1.4220  
G01 X-2.0685 Y1.4223  
G01 X-2.0685 Y1.4224  
G01 X-2.0685 Y1.4226  
G01 X-2.0685 Y1.4248  
G01 X-2.0685 Y1.4271  
G01 X-2.0685 Y1.4273  
G01 X-2.0685 Y1.5732  
G01 X-2.0820 Y1.5867  
G01 X-2.0820 Y1.6133  
G01 X-2.0633 Y1.6320  
G01 X-2.0367 Y1.6320  
G01 X-2.0180 Y1.6133  
G01 X-2.0180 Y1.5867  
G01 X-2.0315 Y1.5732  
G01 X-2.0315 Y1.4301  
G01 X-2.0196 Y1.4103  
G01 X-2.0187 Y1.4091  
G01 X-2.0184 Y1.4082  
G01 X-2.0179 Y1.4074  
G01 X-2.0175 Y1.4060  
G01 X-2.0169 Y1.4046  
G01 X-2.0168 Y1.4037  
G01 X-2.0165 Y1.4027  
G01 X-2.0165 Y1.4013  
G01 X-2.0163 Y1.3998  
G01 X-2.0165 Y1.3988  
G01 X-2.0165 Y1.3979  
G01 X-2.0168 Y1.3964  
G01 X-2.0170 Y1.3950  
G01 X-2.0174 Y1.3941  
G01 X-2.0176 Y1.3932  
G01 X-2.0184 Y1.3918  
G01 X-2.0190 Y1.3905  
G01 X-2.0195 Y1.3897  
G01 X-2.0200 Y1.3889  
G01 X-2.0210 Y1.3878  
G01 X-2.0216 Y1.3871  
G01 X-2.0222 Y1.3851  
G01 X-2.0228 Y1.3829  
G01 X-2.0228 Y1.3827  
G01 X-2.0229 Y1.3826  
G01 X-2.0240 Y1.3806  
G01 X-2.0252 Y1.3786  
G01 X-2.1629 Y1.1476  
G01 X-2.1641 Y1.1455  
G01 X-2.1654 Y1.1434  
G01 X-2.1654 Y1.1433  
G01 X-2.1672 Y1.1417  
G01 X-2.1688 Y1.1400  
G01 X-2.1690 Y1.1400  
G01 X-2.1710 Y1.1388  
G01 X-2.1731 Y1.1377  
G01 X-2.3149 Y1.0599  
G01 X-2.3101 Y1.0265  
G01 X-2.3095 Y1.0250  
G01 X-2.3083 Y1.0189  
G01 X-2.3083 Y1.0136  
G01 X-2.3069 Y1.0043  
G01 X-2.3067 Y1.0036  
G01 X-2.3066 Y1.0019  
G01 X-2.3063 Y1.0002  
G01 X-2.3064 Y0.9995  
G01 X-2.3064 Y0.9988  
G01 X-2.3067 Y0.9971  
G01 X-2.3069 Y0.9954  
G01 X-2.3072 Y0.9947  
G01 X-2.3073 Y0.9940  
G01 X-2.3081 Y0.9924  
G01 X-2.3083 Y0.9921  
G01 X-2.3083 Y0.9611  
G01 X-2.3095 Y0.9550  
G01 X-2.3119 Y0.9492  
G01 X-2.3153 Y0.9440  
G00 Z0.0500  
G00 X-2.5153 Y0.9440  
G01 Z-0.0040 F10    
G01 X-2.5198 Y0.9396  F20    
G01 X-2.5250 Y0.9361  
G01 X-2.5307 Y0.9337  
G01 X-2.5369 Y0.9325  
G01 X-2.5431 Y0.9325  
G01 X-2.5493 Y0.9337  
G01 X-2.5550 Y0.9361  
G01 X-2.5602 Y0.9396  
G01 X-2.5647 Y0.9440  
G01 X-2.5681 Y0.9492  
G01 X-2.5705 Y0.9550  
G01 X-2.5717 Y0.9611  
G01 X-2.5717 Y1.0189  
G01 X-2.5705 Y1.0250  
G01 X-2.5685 Y1.0299  
G01 X-2.5685 Y1.0944  
G01 X-2.5709 Y1.0980  
G01 X-2.5833 Y1.0980  
G01 X-2.6020 Y1.1167  
G01 X-2.6020 Y1.1433  
G01 X-2.5833 Y1.1620  
G01 X-2.5567 Y1.1620  
G01 X-2.5380 Y1.1433  
G01 X-2.5380 Y1.1167  
G01 X-2.5386 Y1.1162  
G01 X-2.5356 Y1.1118  
G01 X-2.5352 Y1.1114  
G01 X-2.5343 Y1.1098  
G01 X-2.5333 Y1.1082  
G01 X-2.5331 Y1.1077  
G01 X-2.5328 Y1.1071  
G01 X-2.5323 Y1.1054  
G01 X-2.5317 Y1.1036  
G01 X-2.5317 Y1.1030  
G01 X-2.5315 Y1.1024  
G01 X-2.5315 Y1.1006  
G01 X-2.5314 Y1.0988  
G01 X-2.5315 Y1.0982  
G01 X-2.5315 Y1.0464  
G01 X-2.5307 Y1.0463  
G01 X-2.5250 Y1.0439  
G01 X-2.5198 Y1.0404  
G01 X-2.5153 Y1.0360  
G01 X-2.5119 Y1.0308  
G01 X-2.5095 Y1.0250  
G01 X-2.5083 Y1.0189  
G01 X-2.5083 Y0.9611  
G01 X-2.5095 Y0.9550  
G01 X-2.5119 Y0.9492  
G01 X-2.5153 Y0.9440  
G00 Z0.0500  
G00 X-2.6065 Y0.9774  
G01 Z-0.0040 F10    
G01 X-2.6065 Y0.8120  F20    
G01 X-2.5967 Y0.8120  
G01 X-2.5780 Y0.7933  
G01 X-2.5780 Y0.7667  
G01 X-2.5967 Y0.7480  
G01 X-2.6233 Y0.7480  
G01 X-2.6318 Y0.7565  
G01 X-2.6441 Y0.7565  
G01 X-2.7015 Y0.7155  
G01 X-2.7015 Y0.5830  
G01 X-2.3935 Y0.2928  
G01 X-2.3935 Y0.3127  
G01 X-2.4130 Y0.3322  
G01 X-2.4130 Y0.3678  
G01 X-2.3878 Y0.3930  
G01 X-2.3522 Y0.3930  
G01 X-2.3270 Y0.3678  
G01 X-2.3270 Y0.3322  
G01 X-2.3522 Y0.3070  
G01 X-2.3565 Y0.3070  
G01 X-2.3565 Y0.2930  
G01 X-2.3522 Y0.2930  
G01 X-2.3270 Y0.2678  
G01 X-2.3270 Y0.2322  
G01 X-2.3522 Y0.2070  
G01 X-2.3878 Y0.2070  
G01 X-2.4130 Y0.2322  
G01 X-2.4130 Y0.2604  
G01 X-2.7311 Y0.5601  
G01 X-2.7314 Y0.5602  
G01 X-2.7329 Y0.5617  
G01 X-2.7345 Y0.5632  
G01 X-2.7346 Y0.5634  
G01 X-2.7348 Y0.5636  
G01 X-2.7359 Y0.5655  
G01 X-2.7370 Y0.5673  
G01 X-2.7371 Y0.5676  
G01 X-2.7372 Y0.5679  
G01 X-2.7378 Y0.5699  
G01 X-2.7384 Y0.5720  
G01 X-2.7384 Y0.5723  
G01 X-2.7385 Y0.5726  
G01 X-2.7385 Y0.5747  
G01 X-2.7386 Y0.5769  
G01 X-2.7385 Y0.5772  
G01 X-2.7385 Y0.7241  
G01 X-2.7386 Y0.7256  
G01 X-2.7385 Y0.7265  
G01 X-2.7385 Y0.7274  
G01 X-2.7381 Y0.7289  
G01 X-2.7378 Y0.7304  
G01 X-2.7375 Y0.7313  
G01 X-2.7372 Y0.7321  
G01 X-2.7365 Y0.7335  
G01 X-2.7358 Y0.7349  
G01 X-2.7353 Y0.7356  
G01 X-2.7348 Y0.7364  
G01 X-2.7337 Y0.7374  
G01 X-2.7327 Y0.7386  
G01 X-2.7320 Y0.7392  
G01 X-2.7314 Y0.7398  
G01 X-2.7300 Y0.7406  
G01 X-2.6620 Y0.7892  
G01 X-2.6614 Y0.7898  
G01 X-2.6600 Y0.7906  
G01 X-2.6588 Y0.7915  
G01 X-2.6579 Y0.7918  
G01 X-2.6571 Y0.7922  
G01 X-2.6557 Y0.7926  
G01 X-2.6542 Y0.7932  
G01 X-2.6533 Y0.7933  
G01 X-2.6524 Y0.7935  
G01 X-2.6509 Y0.7935  
G01 X-2.6494 Y0.7936  
G01 X-2.6485 Y0.7935  
G01 X-2.6424 Y0.7935  
G01 X-2.6435 Y0.7976  
G01 X-2.6435 Y0.9326  
G01 X-2.6493 Y0.9337  
G01 X-2.6550 Y0.9361  
G01 X-2.6602 Y0.9396  
G01 X-2.6647 Y0.9440  
G01 X-2.6681 Y0.9492  
G01 X-2.6705 Y0.9550  
G01 X-2.6717 Y0.9611  
G01 X-2.6717 Y1.0189  
G01 X-2.6705 Y1.0250  
G01 X-2.6685 Y1.0299  
G01 X-2.6685 Y1.1981  
G01 X-2.6686 Y1.1986  
G01 X-2.6685 Y1.2005  
G01 X-2.6685 Y1.2024  
G01 X-2.6684 Y1.2029  
G01 X-2.6586 Y1.3795  
G01 X-2.6587 Y1.3805  
G01 X-2.6584 Y1.3820  
G01 X-2.6583 Y1.3835  
G01 X-2.6580 Y1.3844  
G01 X-2.6435 Y1.4765  
G01 X-2.6435 Y1.4935  
G01 X-2.6739 Y1.5315  
G01 X-2.6989 Y1.5315  
G01 X-2.7002 Y1.5313  
G01 X-2.7013 Y1.5315  
G01 X-2.7024 Y1.5315  
G01 X-2.7037 Y1.5318  
G01 X-2.7050 Y1.5320  
G01 X-2.7061 Y1.5325  
G01 X-2.7071 Y1.5328  
G01 X-2.7083 Y1.5334  
G01 X-2.8111 Y1.5775  
G01 X-2.8121 Y1.5778  
G01 X-2.8133 Y1.5784  
G01 X-2.8145 Y1.5790  
G01 X-2.8154 Y1.5796  
G01 X-2.8164 Y1.5802  
G01 X-2.8173 Y1.5811  
G01 X-2.8184 Y1.5820  
G01 X-2.8190 Y1.5829  
G01 X-2.8198 Y1.5836  
G01 X-2.8205 Y1.5848  
G01 X-2.8213 Y1.5859  
G01 X-2.8217 Y1.5869  
G01 X-2.8222 Y1.5879  
G01 X-2.8226 Y1.5892  
G01 X-2.8231 Y1.5904  
G01 X-2.8232 Y1.5915  
G01 X-2.8235 Y1.5926  
G01 X-2.8235 Y1.5939  
G01 X-2.8237 Y1.5952  
G01 X-2.8235 Y1.5963  
G01 X-2.8235 Y1.6923  
G01 X-2.8624 Y1.7312  
G01 X-3.1335 Y1.7217  
G01 X-3.2128 Y1.6611  
G01 X-3.2136 Y1.6602  
G01 X-3.2147 Y1.6596  
G01 X-3.2157 Y1.6588  
G01 X-3.2168 Y1.6584  
G01 X-3.2179 Y1.6578  
G01 X-3.2191 Y1.6574  
G01 X-3.2202 Y1.6570  
G01 X-3.2214 Y1.6568  
G01 X-3.2226 Y1.6565  
G01 X-3.2238 Y1.6565  
G01 X-3.2250 Y1.6563  
G01 X-3.2262 Y1.6565  
G01 X-3.2774 Y1.6565  
G01 X-3.2821 Y1.6578  
G01 X-3.2864 Y1.6602  
G01 X-3.3423 Y1.7161  
G01 X-3.3416 Y1.7152  
G01 X-3.3392 Y1.7093  
G01 X-3.3380 Y1.7032  
G01 X-3.3380 Y1.6968  
G01 X-3.3392 Y1.6907  
G01 X-3.3416 Y1.6848  
G01 X-3.3451 Y1.6796  
G01 X-3.3496 Y1.6751  
G01 X-3.3548 Y1.6716  
G01 X-3.3607 Y1.6692  
G01 X-3.3668 Y1.6680  
G01 X-3.3732 Y1.6680  
G01 X-3.3793 Y1.6692  
G01 X-3.3852 Y1.6716  
G01 X-3.3904 Y1.6751  
G01 X-3.3949 Y1.6796  
G01 X-3.3984 Y1.6848  
G01 X-3.4008 Y1.6907  
G01 X-3.4020 Y1.6968  
G01 X-3.4020 Y1.7032  
G01 X-3.4008 Y1.7093  
G01 X-3.3984 Y1.7152  
G01 X-3.3949 Y1.7204  
G01 X-3.3904 Y1.7249  
G01 X-3.3852 Y1.7284  
G01 X-3.3793 Y1.7308  
G01 X-3.3732 Y1.7320  
G01 X-3.3668 Y1.7320  
G01 X-3.3607 Y1.7308  
G01 X-3.3548 Y1.7284  
G01 X-3.3539 Y1.7277  
G01 X-3.7315 Y2.1053  
G01 X-3.7315 Y1.7827  
G01 X-3.6795 Y1.7307  
G01 X-3.6793 Y1.7308  
G01 X-3.6732 Y1.7320  
G01 X-3.6668 Y1.7320  
G01 X-3.6607 Y1.7308  
G01 X-3.6548 Y1.7284  
G01 X-3.6496 Y1.7249  
G01 X-3.6451 Y1.7204  
G01 X-3.6416 Y1.7152  
G01 X-3.6392 Y1.7093  
G01 X-3.6380 Y1.7032  
G01 X-3.6380 Y1.6968  
G01 X-3.6392 Y1.6907  
G01 X-3.6416 Y1.6848  
G01 X-3.6451 Y1.6796  
G01 X-3.6496 Y1.6751  
G01 X-3.6548 Y1.6716  
G01 X-3.6607 Y1.6692  
G01 X-3.6668 Y1.6680  
G01 X-3.6732 Y1.6680  
G01 X-3.6793 Y1.6692  
G01 X-3.6852 Y1.6716  
G01 X-3.6904 Y1.6751  
G01 X-3.6949 Y1.6796  
G01 X-3.6984 Y1.6848  
G01 X-3.7008 Y1.6907  
G01 X-3.7020 Y1.6968  
G01 X-3.7020 Y1.7008  
G01 X-3.7648 Y1.7636  
G01 X-3.7672 Y1.7679  
G01 X-3.7685 Y1.7726  
G01 X-3.7685 Y2.2541  
G01 X-3.7687 Y2.2556  
G01 X-3.7685 Y2.2565  
G01 X-3.7685 Y2.2574  
G01 X-3.7681 Y2.2589  
G01 X-3.7679 Y2.2604  
G01 X-3.7675 Y2.2612  
G01 X-3.7672 Y2.2621  
G01 X-3.7665 Y2.2635  
G01 X-3.7659 Y2.2648  
G01 X-3.7653 Y2.2656  
G01 X-3.7648 Y2.2664  
G01 X-3.7637 Y2.2674  
G01 X-3.7203 Y2.3206  
G01 X-3.7198 Y2.3214  
G01 X-3.7187 Y2.3224  
G01 X-3.7178 Y2.3236  
G01 X-3.7170 Y2.3241  
G01 X-3.7164 Y2.3248  
G01 X-3.7150 Y2.3256  
G01 X-3.7138 Y2.3264  
G01 X-3.7129 Y2.3268  
G01 X-3.7121 Y2.3272  
G01 X-3.7107 Y2.3276  
G01 X-3.7093 Y2.3282  
G01 X-3.7083 Y2.3283  
G01 X-3.7074 Y2.3285  
G01 X-3.7059 Y2.3285  
G01 X-3.7044 Y2.3287  
G01 X-3.7035 Y2.3285  
G01 X-3.3512 Y2.3285  
G01 X-3.3500 Y2.3287  
G01 X-3.3488 Y2.3285  
G01 X-3.3476 Y2.3285  
G01 X-3.3464 Y2.3282  
G01 X-3.3451 Y2.3280  
G01 X-3.3440 Y2.3276  
G01 X-3.3429 Y2.3272  
G01 X-3.3418 Y2.3266  
G01 X-3.2230 Y2.2771  
G01 X-3.2208 Y2.2763  
G01 X-3.2206 Y2.2761  
G01 X-3.2188 Y2.2747  
G01 X-3.1474 Y2.2212  
G01 X-3.1432 Y2.2220  
G01 X-3.1368 Y2.2220  
G01 X-3.1307 Y2.2208  
G01 X-3.1248 Y2.2184  
G01 X-3.1196 Y2.2149  
G01 X-3.1151 Y2.2104  
G01 X-3.1116 Y2.2052  
G01 X-3.1092 Y2.1993  
G01 X-3.1080 Y2.1932  
G01 X-3.1080 Y2.1868  
G01 X-3.1092 Y2.1807  
G01 X-3.1116 Y2.1748  
G01 X-3.1151 Y2.1696  
G01 X-3.1196 Y2.1651  
G01 X-3.1248 Y2.1616  
G01 X-3.1307 Y2.1592  
G01 X-3.1368 Y2.1580  
G01 X-3.1432 Y2.1580  
G01 X-3.1493 Y2.1592  
G01 X-3.1552 Y2.1616  
G01 X-3.1604 Y2.1651  
G01 X-3.1649 Y2.1696  
G01 X-3.1684 Y2.1748  
G01 X-3.1708 Y2.1807  
G01 X-3.1720 Y2.1868  
G01 X-3.1720 Y2.1932  
G01 X-3.1720 Y2.1933  
G01 X-3.2393 Y2.2438  
G01 X-3.3537 Y2.2915  
G01 X-3.6962 Y2.2915  
G01 X-3.7315 Y2.2484  
G01 X-3.7315 Y2.1577  
G01 X-3.2673 Y1.6935  
G01 X-3.2313 Y1.6935  
G01 X-3.1525 Y1.7538  
G01 X-3.1519 Y1.7544  
G01 X-3.1505 Y1.7552  
G01 X-3.1493 Y1.7562  
G01 X-3.1485 Y1.7565  
G01 X-3.1477 Y1.7570  
G01 X-3.1462 Y1.7574  
G01 X-3.1448 Y1.7580  
G01 X-3.1439 Y1.7581  
G01 X-3.1431 Y1.7584  
G01 X-3.1415 Y1.7585  
G01 X-3.1400 Y1.7587  
G01 X-3.1391 Y1.7585  
G01 X-2.8578 Y1.7684  
G01 X-2.8574 Y1.7685  
G01 X-2.8553 Y1.7685  
G01 X-2.8532 Y1.7686  
G01 X-2.8529 Y1.7685  
G01 X-2.8526 Y1.7685  
G01 X-2.8505 Y1.7680  
G01 X-2.8485 Y1.7675  
G01 X-2.8482 Y1.7673  
G01 X-2.8479 Y1.7672  
G01 X-2.8460 Y1.7662  
G01 X-2.8442 Y1.7652  
G01 X-2.8439 Y1.7650  
G01 X-2.8436 Y1.7648  
G01 X-2.8421 Y1.7633  
G01 X-2.8406 Y1.7619  
G01 X-2.8404 Y1.7616  
G01 X-2.7902 Y1.7114  
G01 X-2.7878 Y1.7071  
G01 X-2.7865 Y1.7024  
G01 X-2.7865 Y1.6072  
G01 X-2.6962 Y1.5685  
G01 X-2.6664 Y1.5685  
G01 X-2.6654 Y1.5687  
G01 X-2.6640 Y1.5685  
G01 X-2.6626 Y1.5685  
G01 X-2.6616 Y1.5682  
G01 X-2.6605 Y1.5681  
G01 X-2.6592 Y1.5676  
G01 X-2.6579 Y1.5672  
G01 X-2.6570 Y1.5667  
G01 X-2.6560 Y1.5663  
G01 X-2.6549 Y1.5655  
G01 X-2.6536 Y1.5648  
G01 X-2.6529 Y1.5641  
G01 X-2.6521 Y1.5635  
G01 X-2.6512 Y1.5624  
G01 X-2.6502 Y1.5614  
G01 X-2.6497 Y1.5605  
G01 X-2.6112 Y1.5124  
G01 X-2.6102 Y1.5114  
G01 X-2.6097 Y1.5105  
G01 X-2.6090 Y1.5097  
G01 X-2.6085 Y1.5084  
G01 X-2.6078 Y1.5071  
G01 X-2.6075 Y1.5061  
G01 X-2.6071 Y1.5052  
G01 X-2.6069 Y1.5038  
G01 X-2.6065 Y1.5024  
G01 X-2.6065 Y1.5014  
G01 X-2.6063 Y1.5004  
G01 X-2.6065 Y1.4990  
G01 X-2.6065 Y1.4760  
G01 X-2.6063 Y1.4745  
G01 X-2.6065 Y1.4735  
G01 X-2.6065 Y1.4726  
G01 X-2.6069 Y1.4712  
G01 X-2.6216 Y1.3780  
G01 X-2.6294 Y1.2380  
G01 X-2.5597 Y1.2380  
G01 X-2.5597 Y1.2449  
G01 X-2.5588 Y1.2471  
G01 X-2.5571 Y1.2488  
G01 X-2.5549 Y1.2497  
G01 X-2.5051 Y1.2497  
G01 X-2.5029 Y1.2488  
G01 X-2.5012 Y1.2471  
G01 X-2.5003 Y1.2449  
G01 X-2.5003 Y1.1951  
G01 X-2.5012 Y1.1929  
G01 X-2.5029 Y1.1912  
G01 X-2.5051 Y1.1903  
G01 X-2.5549 Y1.1903  
G01 X-2.5571 Y1.1912  
G01 X-2.5588 Y1.1929  
G01 X-2.5597 Y1.1951  
G01 X-2.5597 Y1.2020  
G01 X-2.6225 Y1.2020  
G01 X-2.6315 Y1.1930  
G01 X-2.6315 Y1.0464  
G01 X-2.6307 Y1.0463  
G01 X-2.6250 Y1.0439  
G01 X-2.6198 Y1.0404  
G01 X-2.6153 Y1.0360  
G01 X-2.6119 Y1.0308  
G01 X-2.6095 Y1.0250  
G01 X-2.6083 Y1.0189  
G01 X-2.6083 Y0.9830  
G01 X-2.6078 Y0.9821  
G01 X-2.6065 Y0.9774  
G00 Z0.0500  
G00 X-2.7083 Y0.9920  
G01 Z-0.0040 F10    
G01 X-2.7083 Y0.9611  F20    
G01 X-2.7095 Y0.9550  
G01 X-2.7119 Y0.9492  
G01 X-2.7153 Y0.9440  
G01 X-2.7198 Y0.9396  
G01 X-2.7220 Y0.9381  
G01 X-2.7220 Y0.8876  
G01 X-2.7232 Y0.8831  
G01 X-2.7256 Y0.8789  
G01 X-2.7289 Y0.8756  
G01 X-2.8531 Y0.7514  
G01 X-2.8531 Y0.7369  
G01 X-2.8394 Y0.7232  
G01 X-2.8394 Y0.6968  
G01 X-2.8580 Y0.6783  
G01 X-2.8843 Y0.6783  
G01 X-2.9029 Y0.6968  
G01 X-2.9029 Y0.7232  
G01 X-2.8891 Y0.7369  
G01 X-2.8891 Y0.7613  
G01 X-2.8879 Y0.7658  
G01 X-2.8855 Y0.7699  
G01 X-2.7580 Y0.8975  
G01 X-2.7580 Y0.9381  
G01 X-2.7602 Y0.9396  
G01 X-2.7647 Y0.9440  
G01 X-2.7681 Y0.9492  
G01 X-2.7705 Y0.9550  
G01 X-2.7717 Y0.9611  
G01 X-2.7717 Y1.0189  
G01 X-2.7705 Y1.0250  
G01 X-2.7681 Y1.0308  
G01 X-2.7647 Y1.0360  
G01 X-2.7602 Y1.0404  
G01 X-2.7550 Y1.0439  
G01 X-2.7493 Y1.0463  
G01 X-2.7435 Y1.0474  
G01 X-2.7435 Y1.2882  
G01 X-2.7520 Y1.2967  
G01 X-2.7520 Y1.3233  
G01 X-2.7333 Y1.3420  
G01 X-2.7067 Y1.3420  
G01 X-2.6880 Y1.3233  
G01 X-2.6880 Y1.2967  
G01 X-2.7065 Y1.2782  
G01 X-2.7065 Y1.0006  
G01 X-2.7064 Y0.9988  
G01 X-2.7065 Y0.9982  
G01 X-2.7065 Y0.9976  
G01 X-2.7070 Y0.9958  
G01 X-2.7073 Y0.9940  
G01 X-2.7076 Y0.9934  
G01 X-2.7078 Y0.9929  
G01 X-2.7083 Y0.9920  
G00 Z0.0500  
G00 X-2.8083 Y1.0189  
G01 Z-0.0040 F10    
G01 X-2.8083 Y0.9611  F20    
G01 X-2.8095 Y0.9550  
G01 X-2.8119 Y0.9492  
G01 X-2.8153 Y0.9440  
G01 X-2.8198 Y0.9396  
G01 X-2.8250 Y0.9361  
G01 X-2.8307 Y0.9337  
G01 X-2.8369 Y0.9325  
G01 X-2.8431 Y0.9325  
G01 X-2.8493 Y0.9337  
G01 X-2.8550 Y0.9361  
G01 X-2.8602 Y0.9396  
G01 X-2.8647 Y0.9440  
G01 X-2.8681 Y0.9492  
G01 X-2.8705 Y0.9550  
G01 X-2.8717 Y0.9611  
G01 X-2.8717 Y1.0189  
G01 X-2.8705 Y1.0250  
G01 X-2.8681 Y1.0308  
G01 X-2.8647 Y1.0360  
G01 X-2.8602 Y1.0404  
G01 X-2.8550 Y1.0439  
G01 X-2.8493 Y1.0463  
G01 X-2.8431 Y1.0475  
G01 X-2.8369 Y1.0475  
G01 X-2.8307 Y1.0463  
G01 X-2.8250 Y1.0439  
G01 X-2.8198 Y1.0404  
G01 X-2.8153 Y1.0360  
G01 X-2.8119 Y1.0308  
G01 X-2.8095 Y1.0250  
G01 X-2.8083 Y1.0189  
G00 Z0.0500  
G00 X-2.9083 Y1.0189  
G01 Z-0.0040 F10    
G01 X-2.9083 Y0.9611  F20    
G01 X-2.9095 Y0.9550  
G01 X-2.9119 Y0.9492  
G01 X-2.9153 Y0.9440  
G01 X-2.9198 Y0.9396  
G01 X-2.9250 Y0.9361  
G01 X-2.9307 Y0.9337  
G01 X-2.9369 Y0.9325  
G01 X-2.9431 Y0.9325  
G01 X-2.9493 Y0.9337  
G01 X-2.9550 Y0.9361  
G01 X-2.9602 Y0.9396  
G01 X-2.9647 Y0.9440  
G01 X-2.9681 Y0.9492  
G01 X-2.9705 Y0.9550  
G01 X-2.9717 Y0.9611  
G01 X-2.9717 Y1.0189  
G01 X-2.9705 Y1.0250  
G01 X-2.9681 Y1.0308  
G01 X-2.9647 Y1.0360  
G01 X-2.9602 Y1.0404  
G01 X-2.9550 Y1.0439  
G01 X-2.9493 Y1.0463  
G01 X-2.9431 Y1.0475  
G01 X-2.9369 Y1.0475  
G01 X-2.9307 Y1.0463  
G01 X-2.9250 Y1.0439  
G01 X-2.9198 Y1.0404  
G01 X-2.9153 Y1.0360  
G01 X-2.9119 Y1.0308  
G01 X-2.9095 Y1.0250  
G01 X-2.9083 Y1.0189  
G00 Z0.0500  
G00 X-2.9020 Y1.1167  
G01 Z-0.0040 F10    
G01 X-2.9020 Y1.1433  F20    
G01 X-2.8833 Y1.1620  
G01 X-2.8775 Y1.1620  
G01 X-2.8282 Y1.2891  
G01 X-2.8235 Y1.3507  
G01 X-2.8235 Y1.4178  
G01 X-2.8785 Y1.4414  
G01 X-3.1280 Y1.4323  
G01 X-3.1280 Y1.4167  
G01 X-3.1467 Y1.3980  
G01 X-3.1733 Y1.3980  
G01 X-3.1920 Y1.4167  
G01 X-3.1920 Y1.4433  
G01 X-3.1733 Y1.4620  
G01 X-3.1641 Y1.4620  
G01 X-3.1619 Y1.4644  
G01 X-3.1578 Y1.4670  
G01 X-3.1531 Y1.4684  
G01 X-2.8764 Y1.4785  
G01 X-2.8748 Y1.4787  
G01 X-2.8740 Y1.4785  
G01 X-2.8732 Y1.4786  
G01 X-2.8716 Y1.4782  
G01 X-2.8700 Y1.4780  
G01 X-2.8692 Y1.4777  
G01 X-2.8685 Y1.4775  
G01 X-2.8670 Y1.4767  
G01 X-2.7989 Y1.4475  
G01 X-2.7979 Y1.4472  
G01 X-2.7967 Y1.4466  
G01 X-2.7955 Y1.4460  
G01 X-2.7946 Y1.4454  
G01 X-2.7936 Y1.4448  
G01 X-2.7927 Y1.4439  
G01 X-2.7916 Y1.4430  
G01 X-2.7910 Y1.4421  
G01 X-2.7902 Y1.4414  
G01 X-2.7895 Y1.4402  
G01 X-2.7887 Y1.4391  
G01 X-2.7883 Y1.4381  
G01 X-2.7878 Y1.4371  
G01 X-2.7874 Y1.4358  
G01 X-2.7869 Y1.4346  
G01 X-2.7868 Y1.4335  
G01 X-2.7865 Y1.4324  
G01 X-2.7865 Y1.4311  
G01 X-2.7863 Y1.4298  
G01 X-2.7865 Y1.4287  
G01 X-2.7865 Y1.3517  
G01 X-2.7864 Y1.3510  
G01 X-2.7865 Y1.3493  
G01 X-2.7865 Y1.3476  
G01 X-2.7867 Y1.3469  
G01 X-2.7914 Y1.2857  
G01 X-2.7913 Y1.2854  
G01 X-2.7916 Y1.2833  
G01 X-2.7917 Y1.2812  
G01 X-2.7918 Y1.2809  
G01 X-2.7919 Y1.2806  
G01 X-2.7926 Y1.2786  
G01 X-2.7934 Y1.2766  
G01 X-2.7935 Y1.2763  
G01 X-2.8431 Y1.1483  
G01 X-2.8380 Y1.1433  
G01 X-2.8380 Y1.1167  
G01 X-2.8567 Y1.0980  
G01 X-2.8833 Y1.0980  
G01 X-2.9020 Y1.1167  
G00 Z0.0500  
G00 X-3.1880 Y1.2467  
G01 Z-0.0040 F10    
G01 X-3.2067 Y1.2280  F20    
G01 X-3.2333 Y1.2280  
G01 X-3.2520 Y1.2467  
G01 X-3.2520 Y1.2733  
G01 X-3.2420 Y1.2833  
G01 X-3.2420 Y1.3209  
G01 X-3.2835 Y1.3624  
G01 X-3.2876 Y1.3665  
G01 X-3.2905 Y1.3715  
G01 X-3.2920 Y1.3771  
G01 X-3.2920 Y1.4889  
G01 X-3.2922 Y1.4908  
G01 X-3.2920 Y1.4918  
G01 X-3.2920 Y1.4929  
G01 X-3.2915 Y1.4947  
G01 X-3.2912 Y1.4965  
G01 X-3.2908 Y1.4974  
G01 X-3.2905 Y1.4985  
G01 X-3.2896 Y1.5001  
G01 X-3.2888 Y1.5017  
G01 X-3.2881 Y1.5026  
G01 X-3.2876 Y1.5035  
G01 X-3.2863 Y1.5048  
G01 X-3.2851 Y1.5062  
G01 X-3.2843 Y1.5068  
G01 X-3.2835 Y1.5076  
G01 X-3.2819 Y1.5085  
G01 X-3.2804 Y1.5096  
G01 X-3.2794 Y1.5100  
G01 X-3.2785 Y1.5105  
G01 X-3.2767 Y1.5110  
G01 X-3.1994 Y1.5400  
G01 X-3.1985 Y1.5405  
G01 X-3.1967 Y1.5410  
G01 X-3.1950 Y1.5416  
G01 X-3.1939 Y1.5417  
G01 X-3.1929 Y1.5420  
G01 X-3.1920 Y1.5420  
G01 X-3.1920 Y1.5433  
G01 X-3.1733 Y1.5620  
G01 X-3.1467 Y1.5620  
G01 X-3.1286 Y1.5439  
G01 X-2.8467 Y1.5485  
G01 X-2.8457 Y1.5486  
G01 X-2.8443 Y1.5485  
G01 X-2.8429 Y1.5485  
G01 X-2.8419 Y1.5483  
G01 X-2.8409 Y1.5482  
G01 X-2.8395 Y1.5477  
G01 X-2.8381 Y1.5474  
G01 X-2.8372 Y1.5469  
G01 X-2.7140 Y1.5012  
G01 X-2.7033 Y1.5120  
G01 X-2.6767 Y1.5120  
G01 X-2.6580 Y1.4933  
G01 X-2.6580 Y1.4667  
G01 X-2.6767 Y1.4480  
G01 X-2.7033 Y1.4480  
G01 X-2.7188 Y1.4635  
G01 X-2.8482 Y1.5114  
G01 X-3.1381 Y1.5067  
G01 X-3.1467 Y1.4980  
G01 X-3.1860 Y1.4980  
G01 X-3.2480 Y1.4748  
G01 X-3.2480 Y1.3891  
G01 X-3.2024 Y1.3435  
G01 X-3.1995 Y1.3385  
G01 X-3.1980 Y1.3329  
G01 X-3.1980 Y1.2833  
G01 X-3.1880 Y1.2733  
G01 X-3.1880 Y1.2467  
G00 Z0.0500  
G00 X-3.2067 Y0.9920  
G01 Z-0.0040 F10    
G01 X-3.1880 Y0.9733  F20    
G01 X-3.1880 Y0.9535  
G01 X-3.1743 Y0.9397  
G01 X-3.1551 Y0.9397  
G01 X-3.1529 Y0.9388  
G01 X-3.1512 Y0.9371  
G01 X-3.1503 Y0.9349  
G01 X-3.1503 Y0.8851  
G01 X-3.1512 Y0.8829  
G01 X-3.1529 Y0.8812  
G01 X-3.1551 Y0.8803  
G01 X-3.2049 Y0.8803  
G01 X-3.2071 Y0.8812  
G01 X-3.2088 Y0.8829  
G01 X-3.2097 Y0.8851  
G01 X-3.2097 Y0.9243  
G01 X-3.2135 Y0.9280  
G01 X-3.2333 Y0.9280  
G01 X-3.2520 Y0.9467  
G01 X-3.2520 Y0.9733  
G01 X-3.2333 Y0.9920  
G01 X-3.2067 Y0.9920  
G00 Z0.0500  
G00 X-3.4315 Y1.0739  
G01 Z-0.0040 F10    
G01 X-3.4315 Y0.7197  F20    
G01 X-3.3920 Y0.7592  
G01 X-3.3920 Y0.7833  
G01 X-3.3733 Y0.8020  
G01 X-3.3467 Y0.8020  
G01 X-3.3280 Y0.7833  
G01 X-3.3280 Y0.7567  
