(/Applications/pcbgcode.repo/pcb-gcode.ulp)
(Copyright 2005 - 2012 by John Johnson)
(See readme.txt for licensing terms.)
(This file generated from the board:)
(.../808-Handclap/eagle/808_handclap.brd)
(Current profile is .../pcbgcode.repo/profiles/mach.pp  )
(This file generated 4/26/16 10:36 PM)
(Settings from pcb-machine.h)
(spindle on time = 0.0000)
(spindle speed = 15000.0000)
(milling depth = -0.0700)
(tool change at 0.0000  0.0000  1.5000  )
(feed rate xy = F10    )
(feed rate z  = F5     )
(Z Axis Settings)
(  High     Up        Down     Drill)
(0.2500  	0.0500  	-0.0035 	-0.0750 )
(Settings from pcb-defaults.h)
(isolate min = 0.0060)
(isolate max = 0.0200)
(isolate step = 0.0015)
(Generated bottom outlines, bottom drill, )
(Unit of measure: inch)
(Inch Mode)
G20
(Absolute Coordinates)
G90
S15000
G00 Z0.2500  
G00 X0.0000  Y0.0000  
M03
G04 P0.000000
G00 Z0.0500  
G00 X0.0000  Y-0.0300 
G01 Z-0.0700 F5     
G01 X-3.5500 Y-0.0300 F10    
G01 X-3.6200 Y0.0500  
G01 X-3.6200 Y3.1500  
G01 X-3.5700 Y3.1900  
G01 X0.0000  Y3.1900  
G01 X0.0300  Y3.1600  
G01 X0.0300  Y0.0100  
G01 X0.0000  Y-0.0300 
G00 Z0.0500  
G00 X-0.3100 Y0.3200  
G01 Z-0.0700 F5     
G01 X-0.3350 Y0.3200  F10    
G01 X-0.3350 Y0.3450  
G01 X-0.3100 Y0.3450  
G01 X-0.3100 Y0.3200  
G00 Z0.0500  
G00 X-0.1250 Y3.0500  
G01 Z-0.0700 F5     
G01 X-0.1250 Y3.0750  F10    
G01 X-0.1000 Y3.0750  
G01 X-0.1000 Y3.0500  
G01 X-0.1250 Y3.0500  
G00 Z0.0500  
G00 X-3.4600 Y3.0400  
G01 Z-0.0700 F5     
G01 X-3.4850 Y3.0400  F10    
G01 X-3.4850 Y3.0650  
G01 X-3.4600 Y3.0650  
G01 X-3.4600 Y3.0400  
G00 Z0.0500  
G00 X-3.4650 Y0.1350  
G01 Z-0.0700 F5     
G01 X-3.4650 Y0.1100  F10    
G01 X-3.4400 Y0.1100  
G01 X-3.4400 Y0.1350  
G01 X-3.4650 Y0.1350  
G00 Z0.2500  
M05
M02
