(/Applications/pcbgcode.repo/pcb-gcode.ulp)
(Copyright 2005 - 2012 by John Johnson)
(See readme.txt for licensing terms.)
(This file generated from the board:)
(.../808-Handclap/eagle/808_handclap.brd)
(Current profile is .../pcbgcode.repo/profiles/mach.pp  )
(This file generated 4/26/16 10:32 PM)
(Settings from pcb-machine.h)
(spindle on time = 0.0000)
(  Tool Size)
(0.0030  )
(spindle speed = 30000.0000)
(tool change at 0.0000  0.0000  1.5000  )
(feed rate xy = F20    )
(feed rate z  = F10    )
(Z Axis Settings)
(  High     Up        Down     Drill)
(0.2500  	0.0500  	-0.0035 	-0.0750 )
(Settings from pcb-defaults.h)
(isolate min = 0.0060)
(isolate max = 0.0200)
(isolate step = 0.0015)
(Generated bottom outlines, bottom drill, )
(Unit of measure: inch)
(Inch Mode)
G20
(Absolute Coordinates)
G90
S30000
G00 Z0.2500  
G00 X0.0000  Y0.0000  
M03
G04 P0.000000
G00 Z0.0500  
G00 X-0.2318 Y0.0192  
G01 Z-0.0035 F10    
G01 X-0.2302 Y0.0209  F20    
G01 X-0.2286 Y0.0225  
G01 X-0.2284 Y0.0228  
G01 X-0.0787 Y0.1824  
G01 X-0.0771 Y0.1840  
G01 X-0.0768 Y0.1844  
G01 X-0.0765 Y0.1847  
G01 X-0.0753 Y0.1867  
G01 X-0.0741 Y0.1885  
G01 X-0.0739 Y0.1890  
G01 X-0.0737 Y0.1893  
G01 X-0.0729 Y0.1915  
G01 X-0.0720 Y0.1936  
G01 X-0.0719 Y0.1940  
G01 X-0.0717 Y0.1944  
G01 X-0.0714 Y0.1966  
G01 X-0.0709 Y0.1989  
G01 X-0.0709 Y0.1993  
G01 X-0.0709 Y0.1997  
G01 X-0.0709 Y0.2020  
G01 X-0.0709 Y0.2463  
G01 X-0.0683 Y0.2477  
G01 X-0.0610 Y0.2530  
G01 X-0.0546 Y0.2594  
G01 X-0.0492 Y0.2667  
G01 X-0.0451 Y0.2748  
G01 X-0.0423 Y0.2834  
G01 X-0.0409 Y0.2923  
G01 X-0.0409 Y0.4014  
G01 X-0.0423 Y0.4103  
G01 X-0.0451 Y0.4189  
G01 X-0.0492 Y0.4270  
G01 X-0.0546 Y0.4343  
G01 X-0.0610 Y0.4407  
G01 X-0.0683 Y0.4460  
G01 X-0.0764 Y0.4501  
G01 X-0.0850 Y0.4529  
G01 X-0.0939 Y0.4544  
G01 X-0.1030 Y0.4544  
G01 X-0.1119 Y0.4529  
G01 X-0.1205 Y0.4501  
G01 X-0.1286 Y0.4460  
G01 X-0.1359 Y0.4407  
G01 X-0.1423 Y0.4343  
G01 X-0.1476 Y0.4270  
G01 X-0.1517 Y0.4189  
G01 X-0.1545 Y0.4103  
G01 X-0.1559 Y0.4014  
G01 X-0.1559 Y0.2923  
G01 X-0.1545 Y0.2834  
G01 X-0.1517 Y0.2748  
G01 X-0.1476 Y0.2667  
G01 X-0.1423 Y0.2594  
G01 X-0.1359 Y0.2530  
G01 X-0.1286 Y0.2477  
G01 X-0.1259 Y0.2463  
G01 X-0.1259 Y0.2125  
G01 X-0.2619 Y0.0675  
G01 X-0.6585 Y0.0675  
G01 X-1.2003 Y0.6192  
G01 X-1.3285 Y0.7519  
G01 X-1.3286 Y0.7521  
G01 X-1.3304 Y0.7539  
G01 X-1.3321 Y0.7557  
G01 X-1.3323 Y0.7558  
G01 X-1.3618 Y0.7853  
G01 X-1.3578 Y0.7949  
G01 X-1.3415 Y0.8111  
G01 X-1.3415 Y0.8389  
G01 X-1.3611 Y0.8585  
G01 X-1.3889 Y0.8585  
G01 X-1.4085 Y0.8389  
G01 X-1.4085 Y0.8161  
G01 X-1.4109 Y0.8102  
G01 X-1.4758 Y0.8232  
G01 X-1.4861 Y0.8335  
G01 X-1.5139 Y0.8335  
G01 X-1.5335 Y0.8139  
G01 X-1.5335 Y0.7861  
G01 X-1.5322 Y0.7848  
G01 X-1.5340 Y0.7774  
G01 X-1.5984 Y0.7372  
G01 X-1.8309 Y0.7283  
G01 X-1.8361 Y0.7335  
G01 X-1.8515 Y0.7335  
G01 X-2.0250 Y0.8431  
G01 X-2.1139 Y0.9023  
G01 X-2.1153 Y0.9034  
G01 X-2.1162 Y0.9038  
G01 X-2.1170 Y0.9044  
G01 X-2.1186 Y0.9050  
G01 X-2.1937 Y0.9426  
G01 X-2.2336 Y0.9825  
G01 X-2.2415 Y0.9943  
G01 X-2.2415 Y1.0089  
G01 X-2.2611 Y1.0285  
G01 X-2.2889 Y1.0285  
G01 X-2.3085 Y1.0089  
G01 X-2.3085 Y0.9811  
G01 X-2.2889 Y0.9615  
G01 X-2.2857 Y0.9615  
G01 X-2.2794 Y0.9520  
G01 X-2.2778 Y0.9497  
G01 X-2.2764 Y0.9475  
G01 X-2.2744 Y0.9455  
G01 X-2.2726 Y0.9437  
G01 X-2.2301 Y0.9012  
G01 X-2.2290 Y0.8999  
G01 X-2.2282 Y0.8993  
G01 X-2.2275 Y0.8986  
G01 X-2.2261 Y0.8977  
G01 X-2.2247 Y0.8966  
G01 X-2.2238 Y0.8962  
G01 X-2.2230 Y0.8956  
G01 X-2.2214 Y0.8950  
G01 X-2.1438 Y0.8562  
G01 X-2.0572 Y0.7984  
G01 X-2.0570 Y0.7982  
G01 X-2.0550 Y0.7969  
G01 X-2.0530 Y0.7956  
G01 X-2.0527 Y0.7955  
G01 X-1.8835 Y0.6886  
G01 X-1.8835 Y0.6861  
G01 X-1.8775 Y0.6801  
G01 X-1.8775 Y0.5664  
G01 X-1.9200 Y0.5239  
G01 X-1.9625 Y0.5664  
G01 X-1.9670 Y0.5694  
G01 X-1.9720 Y0.5714  
G01 X-1.9773 Y0.5725  
G01 X-2.1644 Y0.5725  
G01 X-2.2592 Y0.5766  
G01 X-2.2661 Y0.5835  
G01 X-2.2939 Y0.5835  
G01 X-2.3135 Y0.5639  
G01 X-2.3135 Y0.5361  
G01 X-2.3075 Y0.5301  
G01 X-2.3075 Y0.4860  
G01 X-2.3256 Y0.2325  
G01 X-2.6961 Y0.2325  
G01 X-2.6975 Y0.2420  
G01 X-2.6975 Y0.4551  
G01 X-2.6915 Y0.4611  
G01 X-2.6915 Y0.4696  
G01 X-2.6786 Y0.4825  
G01 X-2.6756 Y0.4870  
G01 X-2.6736 Y0.4920  
G01 X-2.6725 Y0.4973  
G01 X-2.6725 Y0.5549  
G01 X-2.6703 Y0.5581  
G01 X-2.6678 Y0.5642  
G01 X-2.6665 Y0.5707  
G01 X-2.6665 Y0.6293  
G01 X-2.6678 Y0.6358  
G01 X-2.6703 Y0.6419  
G01 X-2.6740 Y0.6474  
G01 X-2.6786 Y0.6520  
G01 X-2.6841 Y0.6557  
G01 X-2.6902 Y0.6582  
G01 X-2.6967 Y0.6595  
G01 X-2.7033 Y0.6595  
G01 X-2.7098 Y0.6582  
G01 X-2.7159 Y0.6557  
G01 X-2.7214 Y0.6520  
G01 X-2.7260 Y0.6474  
G01 X-2.7297 Y0.6419  
G01 X-2.7322 Y0.6358  
G01 X-2.7335 Y0.6293  
G01 X-2.7335 Y0.5707  
G01 X-2.7322 Y0.5642  
G01 X-2.7297 Y0.5581  
G01 X-2.7275 Y0.5549  
G01 X-2.7275 Y0.5114  
G01 X-2.7304 Y0.5085  
G01 X-2.7389 Y0.5085  
G01 X-2.7585 Y0.4889  
G01 X-2.7585 Y0.4611  
G01 X-2.7525 Y0.4551  
G01 X-2.7525 Y0.2407  
G01 X-2.7526 Y0.2388  
G01 X-2.7525 Y0.2380  
G01 X-2.7525 Y0.2373  
G01 X-2.7521 Y0.2354  
G01 X-2.7517 Y0.2325  
G01 X-2.9601 Y0.2325  
G01 X-2.9611 Y0.2335  
G01 X-2.9889 Y0.2335  
G01 X-2.9954 Y0.2270  
G01 X-2.9980 Y0.2264  
G01 X-3.0030 Y0.2244  
G01 X-3.0058 Y0.2225  
G01 X-3.3069 Y0.2225  
G01 X-3.5128 Y0.4751  
G01 X-3.5225 Y0.8252  
G01 X-3.5177 Y1.2657  
G01 X-3.4139 Y1.3391  
G01 X-3.3659 Y1.3485  
G01 X-3.3639 Y1.3465  
G01 X-3.3361 Y1.3465  
G01 X-3.3165 Y1.3661  
G01 X-3.3165 Y1.3897  
G01 X-3.2605 Y1.5477  
G01 X-2.8615 Y1.5525  
G01 X-2.8606 Y1.5524  
G01 X-2.8588 Y1.5525  
G01 X-2.8570 Y1.5525  
G01 X-2.8561 Y1.5527  
G01 X-2.8552 Y1.5528  
G01 X-2.8534 Y1.5533  
G01 X-2.8517 Y1.5537  
G01 X-2.8508 Y1.5540  
G01 X-2.8500 Y1.5542  
G01 X-2.8484 Y1.5551  
G01 X-2.8467 Y1.5558  
G01 X-2.8459 Y1.5563  
G01 X-2.8451 Y1.5567  
G01 X-2.8437 Y1.5578  
G01 X-2.8422 Y1.5588  
G01 X-2.8416 Y1.5595  
G01 X-2.8409 Y1.5600  
G01 X-2.8397 Y1.5614  
G01 X-2.8384 Y1.5627  
G01 X-2.8379 Y1.5635  
G01 X-2.7801 Y1.6310  
G01 X-2.7792 Y1.6318  
G01 X-2.7783 Y1.6330  
G01 X-2.7774 Y1.6342  
G01 X-2.7768 Y1.6352  
G01 X-2.7761 Y1.6362  
G01 X-2.7754 Y1.6376  
G01 X-2.7747 Y1.6389  
G01 X-2.7743 Y1.6400  
G01 X-2.7738 Y1.6411  
G01 X-2.7735 Y1.6426  
G01 X-2.7730 Y1.6440  
G01 X-2.7729 Y1.6452  
G01 X-2.7726 Y1.6464  
G01 X-2.7726 Y1.6479  
G01 X-2.7724 Y1.6494  
G01 X-2.7725 Y1.6506  
G01 X-2.7430 Y2.5541  
G01 X-2.3725 Y2.7764  
G01 X-2.3725 Y2.4473  
G01 X-2.3726 Y2.4468  
G01 X-2.3725 Y2.4446  
G01 X-2.3725 Y2.4423  
G01 X-2.3724 Y2.4419  
G01 X-2.3724 Y2.4414  
G01 X-2.3719 Y2.4392  
G01 X-2.3714 Y2.4370  
G01 X-2.3713 Y2.4366  
G01 X-2.3712 Y2.4361  
G01 X-2.3702 Y2.4341  
G01 X-2.3694 Y2.4320  
G01 X-2.3691 Y2.4316  
G01 X-2.3689 Y2.4312  
G01 X-2.3676 Y2.4294  
G01 X-2.3664 Y2.4275  
G01 X-2.3660 Y2.4272  
G01 X-2.3658 Y2.4268  
G01 X-2.3641 Y2.4252  
G01 X-2.3625 Y2.4236  
G01 X-2.3622 Y2.4234  
G01 X-2.3010 Y2.3660  
G01 X-2.3504 Y2.2935  
G01 X-2.3539 Y2.2935  
G01 X-2.3735 Y2.2739  
G01 X-2.3735 Y2.2461  
G01 X-2.3539 Y2.2265  
G01 X-2.3261 Y2.2265  
G01 X-2.3065 Y2.2461  
G01 X-2.3065 Y2.2603  
G01 X-2.2635 Y2.3233  
G01 X-2.2523 Y2.3089  
G01 X-2.2335 Y2.2807  
G01 X-2.2335 Y2.2661  
G01 X-2.2139 Y2.2465  
G01 X-2.1861 Y2.2465  
G01 X-2.1823 Y2.2504  
G01 X-2.0342 Y2.2339  
G01 X-2.0025 Y2.1952  
G01 X-2.0025 Y1.9357  
G01 X-2.0026 Y1.9338  
G01 X-2.0025 Y1.9330  
G01 X-2.0025 Y1.9323  
G01 X-2.0021 Y1.9304  
G01 X-2.0002 Y1.9171  
G01 X-2.0035 Y1.9139  
G01 X-2.0035 Y1.9039  
G01 X-2.0272 Y1.8775  
G01 X-2.0332 Y1.8775  
G01 X-2.0342 Y1.8776  
G01 X-2.0359 Y1.8775  
G01 X-2.0377 Y1.8775  
G01 X-2.0386 Y1.8773  
G01 X-2.0396 Y1.8773  
G01 X-2.0413 Y1.8768  
G01 X-2.0430 Y1.8764  
G01 X-2.0439 Y1.8761  
G01 X-2.2051 Y1.8325  
G01 X-2.2061 Y1.8335  
G01 X-2.2339 Y1.8335  
G01 X-2.2535 Y1.8139  
G01 X-2.2535 Y1.7861  
G01 X-2.2339 Y1.7665  
G01 X-2.2061 Y1.7665  
G01 X-2.1941 Y1.7785  
G01 X-2.0313 Y1.8225  
G01 X-2.0170 Y1.8225  
G01 X-2.0163 Y1.8224  
G01 X-2.0143 Y1.8225  
G01 X-2.0123 Y1.8225  
G01 X-2.0116 Y1.8226  
G01 X-2.0108 Y1.8227  
G01 X-2.0089 Y1.8232  
G01 X-2.0070 Y1.8236  
G01 X-2.0063 Y1.8238  
G01 X-2.0056 Y1.8240  
G01 X-2.0038 Y1.8249  
G01 X-2.0020 Y1.8256  
G01 X-2.0014 Y1.8260  
G01 X-2.0007 Y1.8263  
G01 X-1.9991 Y1.8275  
G01 X-1.9975 Y1.8286  
G01 X-1.9970 Y1.8292  
G01 X-1.9964 Y1.8296  
G01 X-1.9950 Y1.8311  
G01 X-1.9936 Y1.8325  
G01 X-1.9932 Y1.8331  
G01 X-1.9632 Y1.8665  
G01 X-1.9561 Y1.8665  
G01 X-1.9365 Y1.8861  
G01 X-1.9365 Y1.9139  
G01 X-1.9455 Y1.9229  
G01 X-1.9475 Y1.9370  
G01 X-1.9475 Y2.2036  
G01 X-1.9474 Y2.2050  
G01 X-1.9475 Y2.2063  
G01 X-1.9475 Y2.2077  
G01 X-1.9478 Y2.2090  
G01 X-1.9479 Y2.2104  
G01 X-1.9483 Y2.2117  
G01 X-1.9486 Y2.2130  
G01 X-1.9491 Y2.2143  
G01 X-1.9495 Y2.2155  
G01 X-1.9501 Y2.2168  
G01 X-1.9506 Y2.2180  
G01 X-1.9514 Y2.2191  
G01 X-1.9520 Y2.2203  
G01 X-1.9529 Y2.2214  
G01 X-1.9536 Y2.2225  
G01 X-1.9546 Y2.2235  
G01 X-1.9986 Y2.2773  
G01 X-2.0002 Y2.2793  
G01 X-2.0003 Y2.2794  
G01 X-2.0004 Y2.2795  
G01 X-2.0024 Y2.2811  
G01 X-2.0044 Y2.2828  
G01 X-2.0045 Y2.2829  
G01 X-2.0046 Y2.2830  
G01 X-2.0069 Y2.2842  
G01 X-2.0091 Y2.2854  
G01 X-2.0093 Y2.2854  
G01 X-2.0094 Y2.2855  
G01 X-2.0118 Y2.2863  
G01 X-2.0143 Y2.2870  
G01 X-2.0144 Y2.2870  
G01 X-2.0146 Y2.2871  
G01 X-2.0171 Y2.2873  
G01 X-2.1778 Y2.3052  
G01 X-2.1861 Y2.3135  
G01 X-2.1893 Y2.3135  
G01 X-2.2062 Y2.3388  
G01 X-2.2066 Y2.3397  
G01 X-2.2077 Y2.3411  
G01 X-2.2086 Y2.3425  
G01 X-2.2093 Y2.3432  
G01 X-2.2315 Y2.3717  
G01 X-2.2315 Y2.3839  
G01 X-2.2511 Y2.4035  
G01 X-2.2605 Y2.4035  
G01 X-2.3175 Y2.4569  
G01 X-2.3175 Y2.8228  
G01 X-2.2988 Y2.9394  
G01 X-2.2407 Y3.0225  
G01 X-1.6470 Y3.0225  
G01 X-1.6497 Y2.9875  
G01 X-1.6746 Y2.9875  
G01 X-1.6816 Y2.9945  
G01 X-1.7184 Y2.9945  
G01 X-1.7254 Y2.9875  
G01 X-1.7746 Y2.9875  
G01 X-1.7816 Y2.9945  
G01 X-1.8184 Y2.9945  
G01 X-1.8254 Y2.9875  
G01 X-1.8315 Y2.9875  
G01 X-1.8342 Y2.9864  
G01 X-1.8364 Y2.9842  
G01 X-1.8375 Y2.9815  
G01 X-1.8375 Y2.9754  
G01 X-1.8445 Y2.9684  
G01 X-1.8445 Y2.9316  
G01 X-1.8375 Y2.9246  
G01 X-1.8375 Y2.8754  
G01 X-1.8445 Y2.8684  
G01 X-1.8445 Y2.8316  
G01 X-1.8375 Y2.8246  
G01 X-1.8375 Y2.8185  
G01 X-1.8364 Y2.8158  
G01 X-1.8342 Y2.8136  
G01 X-1.8315 Y2.8125  
G01 X-1.8254 Y2.8125  
G01 X-1.8184 Y2.8055  
G01 X-1.7816 Y2.8055  
G01 X-1.7746 Y2.8125  
G01 X-1.7254 Y2.8125  
G01 X-1.7184 Y2.8055  
G01 X-1.6816 Y2.8055  
G01 X-1.6746 Y2.8125  
G01 X-1.6525 Y2.8125  
G01 X-1.6525 Y2.7823  
G01 X-1.6514 Y2.7770  
G01 X-1.6494 Y2.7720  
G01 X-1.6464 Y2.7675  
G01 X-1.5505 Y2.6716  
G01 X-1.5497 Y2.6706  
G01 X-1.5486 Y2.6697  
G01 X-1.5475 Y2.6686  
G01 X-1.5465 Y2.6679  
G01 X-1.5455 Y2.6671  
G01 X-1.5442 Y2.6664  
G01 X-1.5430 Y2.6656  
G01 X-1.5419 Y2.6651  
G01 X-1.4330 Y2.6059  
G01 X-1.5214 Y2.5175  
G01 X-1.5244 Y2.5130  
G01 X-1.5264 Y2.5080  
G01 X-1.5275 Y2.5027  
G01 X-1.5275 Y2.3699  
G01 X-1.5335 Y2.3639  
G01 X-1.5335 Y2.3361  
G01 X-1.5139 Y2.3165  
G01 X-1.4861 Y2.3165  
G01 X-1.4665 Y2.3361  
G01 X-1.4665 Y2.3639  
G01 X-1.4725 Y2.3699  
G01 X-1.4725 Y2.4886  
G01 X-1.3691 Y2.5920  
G01 X-1.3681 Y2.5928  
G01 X-1.3678 Y2.5932  
G01 X-1.3010 Y2.6513  
G01 X-1.1335 Y2.6327  
G01 X-1.1025 Y2.6283  
G01 X-1.1025 Y2.5161  
G01 X-1.1026 Y2.5146  
G01 X-1.1025 Y2.5134  
G01 X-1.1025 Y2.5123  
G01 X-1.1022 Y2.5107  
G01 X-1.1020 Y2.5092  
G01 X-1.1017 Y2.5081  
G01 X-1.1014 Y2.5070  
G01 X-1.1008 Y2.5055  
G01 X-1.1004 Y2.5040  
G01 X-1.0998 Y2.5030  
G01 X-1.0994 Y2.5020  
G01 X-1.0985 Y2.5007  
G01 X-1.0525 Y2.4179  
G01 X-1.0525 Y2.3454  
G01 X-1.1201 Y2.2688  
G01 X-1.1214 Y2.2675  
G01 X-1.1218 Y2.2668  
G01 X-1.1224 Y2.2662  
G01 X-1.1233 Y2.2646  
G01 X-1.1244 Y2.2630  
G01 X-1.1247 Y2.2622  
G01 X-1.1251 Y2.2615  
G01 X-1.1257 Y2.2597  
G01 X-1.1264 Y2.2580  
G01 X-1.1266 Y2.2572  
G01 X-1.1269 Y2.2564  
G01 X-1.1271 Y2.2545  
G01 X-1.1275 Y2.2527  
G01 X-1.1275 Y2.2518  
G01 X-1.1276 Y2.2510  
G01 X-1.1275 Y2.2491  
G01 X-1.1275 Y2.0875  
G01 X-1.2301 Y2.0875  
G01 X-1.2361 Y2.0935  
G01 X-1.2639 Y2.0935  
G01 X-1.2835 Y2.0739  
G01 X-1.2835 Y2.0654  
G01 X-1.3214 Y2.0275  
G01 X-1.3244 Y2.0230  
G01 X-1.3264 Y2.0180  
G01 X-1.3275 Y2.0127  
G01 X-1.3275 Y1.9303  
G01 X-1.3280 Y1.9301  
G01 X-1.3301 Y1.9280  
G01 X-1.3312 Y1.9252  
G01 X-1.3312 Y1.8748  
G01 X-1.3301 Y1.8720  
G01 X-1.3280 Y1.8699  
G01 X-1.3275 Y1.8697  
G01 X-1.3275 Y1.8199  
G01 X-1.3335 Y1.8139  
G01 X-1.3335 Y1.7861  
G01 X-1.3275 Y1.7801  
G01 X-1.3275 Y1.7191  
G01 X-1.3297 Y1.7159  
G01 X-1.3322 Y1.7098  
G01 X-1.3335 Y1.7033  
G01 X-1.3335 Y1.6967  
G01 X-1.3322 Y1.6902  
G01 X-1.3297 Y1.6841  
G01 X-1.3260 Y1.6786  
G01 X-1.3214 Y1.6740  
G01 X-1.3159 Y1.6703  
G01 X-1.3098 Y1.6678  
G01 X-1.3033 Y1.6665  
G01 X-1.2967 Y1.6665  
G01 X-1.2902 Y1.6678  
G01 X-1.2841 Y1.6703  
G01 X-1.2786 Y1.6740  
G01 X-1.2740 Y1.6786  
G01 X-1.2703 Y1.6841  
G01 X-1.2678 Y1.6902  
G01 X-1.2665 Y1.6967  
G01 X-1.2665 Y1.7033  
G01 X-1.2678 Y1.7098  
G01 X-1.2703 Y1.7159  
G01 X-1.2725 Y1.7191  
G01 X-1.2725 Y1.7801  
G01 X-1.2665 Y1.7861  
G01 X-1.2665 Y1.8139  
G01 X-1.2725 Y1.8199  
G01 X-1.2725 Y1.8697  
G01 X-1.2720 Y1.8699  
G01 X-1.2699 Y1.8720  
G01 X-1.2688 Y1.8748  
G01 X-1.2688 Y1.9252  
G01 X-1.2699 Y1.9280  
G01 X-1.2720 Y1.9301  
G01 X-1.2725 Y1.9303  
G01 X-1.2725 Y1.9986  
G01 X-1.2446 Y2.0265  
G01 X-1.2361 Y2.0265  
G01 X-1.2301 Y2.0325  
G01 X-1.1073 Y2.0325  
G01 X-1.1020 Y2.0336  
G01 X-1.0970 Y2.0356  
G01 X-1.0925 Y2.0386  
G01 X-1.0825 Y2.0486  
G01 X-1.0786 Y2.0525  
G01 X-1.0756 Y2.0570  
G01 X-1.0736 Y2.0620  
G01 X-1.0725 Y2.0673  
G01 X-1.0725 Y2.2396  
G01 X-1.0049 Y2.3162  
G01 X-1.0036 Y2.3175  
G01 X-1.0032 Y2.3182  
G01 X-1.0026 Y2.3188  
G01 X-1.0017 Y2.3204  
G01 X-1.0006 Y2.3220  
G01 X-1.0003 Y2.3228  
G01 X-0.9999 Y2.3235  
G01 X-0.9993 Y2.3253  
G01 X-0.9986 Y2.3270  
G01 X-0.9984 Y2.3278  
G01 X-0.9981 Y2.3286  
G01 X-0.9979 Y2.3305  
G01 X-0.9975 Y2.3323  
G01 X-0.9975 Y2.3332  
G01 X-0.9974 Y2.3340  
G01 X-0.9975 Y2.3359  
G01 X-0.9975 Y2.4239  
G01 X-0.9974 Y2.4254  
G01 X-0.9975 Y2.4266  
G01 X-0.9975 Y2.4277  
G01 X-0.9978 Y2.4293  
G01 X-0.9980 Y2.4308  
G01 X-0.9983 Y2.4319  
G01 X-0.9986 Y2.4330  
G01 X-0.9992 Y2.4345  
G01 X-0.9996 Y2.4360  
G01 X-1.0002 Y2.4370  
G01 X-1.0006 Y2.4380  
G01 X-1.0015 Y2.4393  
G01 X-1.0475 Y2.5221  
G01 X-1.0475 Y2.6165  
G01 X-1.0461 Y2.6165  
G01 X-1.0265 Y2.6361  
G01 X-1.0265 Y2.6639  
G01 X-1.0461 Y2.6835  
G01 X-1.0739 Y2.6835  
G01 X-1.0771 Y2.6802  
G01 X-1.1239 Y2.6869  
G01 X-1.1243 Y2.6870  
G01 X-1.1265 Y2.6873  
G01 X-1.1288 Y2.6876  
G01 X-1.1292 Y2.6876  
G01 X-1.2688 Y2.7031  
G01 X-1.2668 Y2.7051  
G01 X-1.2668 Y2.7327  
G01 X-1.2862 Y2.7521  
G01 X-1.3138 Y2.7521  
G01 X-1.3332 Y2.7327  
G01 X-1.3332 Y2.7051  
G01 X-1.3322 Y2.7041  
G01 X-1.3345 Y2.6951  
G01 X-1.3911 Y2.6458  
G01 X-1.5134 Y2.7123  
G01 X-1.5975 Y2.7964  
G01 X-1.5975 Y2.8055  
G01 X-1.5816 Y2.8055  
G01 X-1.5746 Y2.8125  
G01 X-1.5685 Y2.8125  
G01 X-1.5658 Y2.8136  
G01 X-1.5636 Y2.8158  
G01 X-1.5625 Y2.8185  
G01 X-1.5625 Y2.8246  
G01 X-1.5555 Y2.8316  
G01 X-1.5555 Y2.8684  
G01 X-1.5625 Y2.8754  
G01 X-1.5625 Y2.9246  
G01 X-1.5555 Y2.9316  
G01 X-1.5555 Y2.9684  
G01 X-1.5625 Y2.9754  
G01 X-1.5625 Y2.9815  
G01 X-1.5636 Y2.9842  
G01 X-1.5658 Y2.9864  
G01 X-1.5685 Y2.9875  
G01 X-1.5746 Y2.9875  
G01 X-1.5816 Y2.9945  
G01 X-1.5940 Y2.9945  
G01 X-1.5920 Y3.0209  
G01 X-1.5495 Y3.0225  
G01 X-0.7164 Y3.0225  
G01 X-0.6535 Y2.9596  
G01 X-0.6535 Y2.9361  
G01 X-0.6339 Y2.9165  
G01 X-0.6061 Y2.9165  
G01 X-0.5865 Y2.9361  
G01 X-0.5865 Y2.9475  
G01 X-0.4658 Y2.9475  
G01 X-0.4638 Y2.9455  
G01 X-0.4362 Y2.9455  
G01 X-0.4168 Y2.9650  
G01 X-0.4168 Y2.9925  
G01 X-0.4362 Y3.0120  
G01 X-0.4638 Y3.0120  
G01 X-0.4733 Y3.0025  
G01 X-0.6186 Y3.0025  
G01 X-0.6836 Y3.0675  
G01 X-0.6875 Y3.0714  
G01 X-0.6920 Y3.0744  
G01 X-0.6970 Y3.0764  
G01 X-0.7023 Y3.0775  
G01 X-1.5478 Y3.0775  
G01 X-1.5483 Y3.0776  
G01 X-1.5505 Y3.0775  
G01 X-1.6233 Y3.0775  
G01 X-1.6242 Y3.0776  
G01 X-1.6260 Y3.0775  
G01 X-2.2547 Y3.0775  
G01 X-2.2571 Y3.0776  
G01 X-2.2574 Y3.0775  
G01 X-2.2577 Y3.0775  
G01 X-2.2601 Y3.0770  
G01 X-2.2624 Y3.0766  
G01 X-2.2627 Y3.0765  
G01 X-2.2630 Y3.0764  
G01 X-2.2652 Y3.0755  
G01 X-2.2675 Y3.0746  
G01 X-2.2677 Y3.0745  
G01 X-2.2680 Y3.0744  
G01 X-2.2700 Y3.0730  
G01 X-2.2721 Y3.0717  
G01 X-2.2723 Y3.0715  
G01 X-2.2725 Y3.0714  
G01 X-2.2742 Y3.0697  
G01 X-2.2760 Y3.0680  
G01 X-2.2761 Y3.0677  
G01 X-2.2764 Y3.0675  
G01 X-2.2777 Y3.0655  
G01 X-2.3464 Y2.9673  
G01 X-2.3470 Y2.9667  
G01 X-2.3480 Y2.9651  
G01 X-2.3491 Y2.9636  
G01 X-2.3494 Y2.9628  
G01 X-2.3498 Y2.9621  
G01 X-2.3505 Y2.9603  
G01 X-2.3513 Y2.9586  
G01 X-2.3514 Y2.9578  
G01 X-2.3517 Y2.9570  
G01 X-2.3520 Y2.9552  
G01 X-2.3524 Y2.9533  
G01 X-2.3525 Y2.9525  
G01 X-2.3701 Y2.8420  
G01 X-2.7820 Y2.5949  
G01 X-2.7822 Y2.5948  
G01 X-2.7843 Y2.5935  
G01 X-2.7865 Y2.5922  
G01 X-2.7866 Y2.5920  
G01 X-2.7868 Y2.5919  
G01 X-2.7886 Y2.5902  
G01 X-2.7905 Y2.5885  
G01 X-2.7906 Y2.5884  
G01 X-2.7908 Y2.5882  
G01 X-2.7922 Y2.5862  
G01 X-2.7937 Y2.5842  
G01 X-2.7938 Y2.5840  
G01 X-2.7939 Y2.5838  
G01 X-2.7950 Y2.5815  
G01 X-2.7960 Y2.5793  
G01 X-2.7961 Y2.5791  
G01 X-2.7962 Y2.5789  
G01 X-2.7967 Y2.5765  
G01 X-2.7973 Y2.5740  
G01 X-2.7973 Y2.5738  
G01 X-2.7974 Y2.5736  
G01 X-2.7975 Y2.5711  
G01 X-2.7976 Y2.5686  
G01 X-2.7976 Y2.5684  
G01 X-2.8272 Y1.6606  
G01 X-2.8728 Y1.6073  
G01 X-3.2782 Y1.6025  
G01 X-3.2787 Y1.6026  
G01 X-3.2809 Y1.6025  
G01 X-3.2830 Y1.6025  
G01 X-3.2836 Y1.6024  
G01 X-3.2841 Y1.6023  
G01 X-3.2862 Y1.6018  
G01 X-3.2883 Y1.6013  
G01 X-3.2888 Y1.6011  
G01 X-3.2894 Y1.6010  
G01 X-3.2913 Y1.6001  
G01 X-3.2933 Y1.5992  
G01 X-3.2938 Y1.5989  
G01 X-3.2943 Y1.5987  
G01 X-3.2960 Y1.5974  
G01 X-3.2978 Y1.5962  
G01 X-3.2982 Y1.5958  
G01 X-3.2986 Y1.5954  
G01 X-3.3001 Y1.5938  
G01 X-3.3016 Y1.5923  
G01 X-3.3019 Y1.5918  
G01 X-3.3022 Y1.5914  
G01 X-3.3033 Y1.5895  
G01 X-3.3045 Y1.5877  
G01 X-3.3047 Y1.5872  
G01 X-3.3050 Y1.5867  
G01 X-3.3057 Y1.5847  
G01 X-3.3065 Y1.5827  
G01 X-3.3066 Y1.5822  
G01 X-3.3678 Y1.4096  
G01 X-3.3746 Y1.4028  
G01 X-3.4280 Y1.3924  
G01 X-3.4285 Y1.3924  
G01 X-3.4307 Y1.3919  
G01 X-3.4329 Y1.3915  
G01 X-3.4333 Y1.3913  
G01 X-3.4337 Y1.3912  
G01 X-3.4358 Y1.3903  
G01 X-3.4379 Y1.3894  
G01 X-3.4383 Y1.3892  
G01 X-3.4387 Y1.3890  
G01 X-3.4405 Y1.3877  
G01 X-3.4424 Y1.3864  
G01 X-3.4427 Y1.3861  
G01 X-3.5605 Y1.3027  
G01 X-3.5623 Y1.3016  
G01 X-3.5627 Y1.3012  
G01 X-3.5631 Y1.3009  
G01 X-3.5646 Y1.2993  
G01 X-3.5662 Y1.2978  
G01 X-3.5665 Y1.2973  
G01 X-3.5668 Y1.2969  
G01 X-3.5680 Y1.2951  
G01 X-3.5692 Y1.2933  
G01 X-3.5694 Y1.2928  
G01 X-3.5697 Y1.2924  
G01 X-3.5705 Y1.2903  
G01 X-3.5714 Y1.2883  
G01 X-3.5715 Y1.2878  
G01 X-3.5717 Y1.2873  
G01 X-3.5720 Y1.2851  
G01 X-3.5725 Y1.2830  
G01 X-3.5725 Y1.2825  
G01 X-3.5726 Y1.2820  
G01 X-3.5725 Y1.2798  
G01 X-3.5775 Y0.8275  
G01 X-3.5776 Y0.8269  
G01 X-3.5775 Y0.8248  
G01 X-3.5775 Y0.8226  
G01 X-3.5774 Y0.8221  
G01 X-3.5675 Y0.4660  
G01 X-3.5676 Y0.4651  
G01 X-3.5675 Y0.4633  
G01 X-3.5674 Y0.4615  
G01 X-3.5672 Y0.4606  
G01 X-3.5671 Y0.4597  
G01 X-3.5666 Y0.4580  
G01 X-3.5662 Y0.4562  
G01 X-3.5658 Y0.4554  
G01 X-3.5656 Y0.4545  
G01 X-3.5647 Y0.4529  
G01 X-3.5640 Y0.4513  
G01 X-3.5635 Y0.4505  
G01 X-3.5630 Y0.4497  
G01 X-3.5619 Y0.4483  
G01 X-3.5609 Y0.4469  
G01 X-3.5602 Y0.4462  
G01 X-3.3421 Y0.1786  
G01 X-3.3414 Y0.1775  
G01 X-3.3404 Y0.1765  
G01 X-3.3396 Y0.1755  
G01 X-3.3385 Y0.1746  
G01 X-3.3375 Y0.1736  
G01 X-3.3364 Y0.1729  
G01 X-3.3354 Y0.1721  
G01 X-3.3342 Y0.1714  
G01 X-3.3330 Y0.1706  
G01 X-3.3318 Y0.1701  
G01 X-3.3307 Y0.1695  
G01 X-3.3293 Y0.1691  
G01 X-3.3280 Y0.1686  
G01 X-3.3267 Y0.1683  
G01 X-3.3255 Y0.1679  
G01 X-3.3241 Y0.1678  
G01 X-3.3227 Y0.1675  
G01 X-3.3214 Y0.1675  
G01 X-3.3201 Y0.1674  
G01 X-3.3187 Y0.1675  
G01 X-2.9923 Y0.1675  
G01 X-2.9903 Y0.1679  
G01 X-2.9889 Y0.1665  
G01 X-2.9611 Y0.1665  
G01 X-2.9501 Y0.1775  
G01 X-2.7207 Y0.1775  
G01 X-2.7188 Y0.1774  
G01 X-2.7180 Y0.1775  
G01 X-2.3010 Y0.1775  
G01 X-2.2993 Y0.1774  
G01 X-2.2983 Y0.1775  
G01 X-2.2973 Y0.1775  
G01 X-2.2956 Y0.1778  
G01 X-2.2939 Y0.1781  
G01 X-2.2929 Y0.1784  
G01 X-2.2920 Y0.1786  
G01 X-2.2904 Y0.1792  
G01 X-2.2887 Y0.1798  
G01 X-2.2879 Y0.1803  
G01 X-2.2870 Y0.1806  
G01 X-2.2855 Y0.1816  
G01 X-2.2840 Y0.1824  
G01 X-2.2833 Y0.1831  
G01 X-2.2825 Y0.1836  
G01 X-2.2812 Y0.1849  
G01 X-2.2799 Y0.1860  
G01 X-2.2793 Y0.1868  
G01 X-2.2786 Y0.1875  
G01 X-2.2777 Y0.1889  
G01 X-2.2766 Y0.1903  
G01 X-2.2762 Y0.1912  
G01 X-2.2756 Y0.1920  
G01 X-2.2750 Y0.1936  
G01 X-2.2742 Y0.1951  
G01 X-2.2739 Y0.1961  
G01 X-2.2736 Y0.1970  
G01 X-2.2732 Y0.1987  
G01 X-2.2728 Y0.2003  
G01 X-2.2727 Y0.2013  
G01 X-2.2725 Y0.2023  
G01 X-2.2725 Y0.2040  
G01 X-2.2527 Y0.4813  
G01 X-2.2525 Y0.4823  
G01 X-2.2525 Y0.4840  
G01 X-2.2524 Y0.4857  
G01 X-2.2525 Y0.4867  
G01 X-2.2525 Y0.5213  
G01 X-2.1683 Y0.5176  
G01 X-2.1677 Y0.5175  
G01 X-2.1656 Y0.5175  
G01 X-2.1635 Y0.5174  
G01 X-2.1629 Y0.5175  
G01 X-1.9914 Y0.5175  
G01 X-1.9530 Y0.4791  
G01 X-1.9522 Y0.4752  
G01 X-1.9497 Y0.4691  
G01 X-1.9460 Y0.4636  
G01 X-1.9414 Y0.4590  
G01 X-1.9359 Y0.4553  
G01 X-1.9298 Y0.4528  
G01 X-1.9233 Y0.4515  
G01 X-1.9167 Y0.4515  
G01 X-1.9102 Y0.4528  
G01 X-1.9041 Y0.4553  
G01 X-1.8986 Y0.4590  
G01 X-1.8940 Y0.4636  
G01 X-1.8903 Y0.4691  
G01 X-1.8878 Y0.4752  
G01 X-1.8870 Y0.4791  
G01 X-1.8286 Y0.5375  
G01 X-1.8256 Y0.5420  
G01 X-1.8236 Y0.5470  
G01 X-1.8225 Y0.5523  
G01 X-1.8225 Y0.6735  
G01 X-1.5899 Y0.6825  
G01 X-1.5881 Y0.6824  
G01 X-1.5872 Y0.6826  
G01 X-1.5862 Y0.6826  
G01 X-1.5845 Y0.6830  
G01 X-1.5828 Y0.6833  
G01 X-1.5819 Y0.6837  
G01 X-1.5810 Y0.6839  
G01 X-1.5794 Y0.6846  
G01 X-1.5777 Y0.6852  
G01 X-1.5769 Y0.6858  
G01 X-1.5760 Y0.6861  
G01 X-1.5746 Y0.6872  
G01 X-1.4956 Y0.7365  
G01 X-1.4935 Y0.7378  
G01 X-1.4933 Y0.7380  
G01 X-1.4931 Y0.7381  
G01 X-1.4913 Y0.7398  
G01 X-1.4895 Y0.7415  
G01 X-1.4894 Y0.7417  
G01 X-1.4892 Y0.7418  
G01 X-1.4878 Y0.7438  
G01 X-1.4863 Y0.7458  
G01 X-1.4862 Y0.7460  
G01 X-1.4860 Y0.7462  
G01 X-1.4850 Y0.7485  
G01 X-1.4840 Y0.7507  
G01 X-1.4839 Y0.7509  
G01 X-1.4838 Y0.7512  
G01 X-1.4833 Y0.7536  
G01 X-1.4797 Y0.7679  
G01 X-1.4078 Y0.7535  
G01 X-1.3696 Y0.7153  
G01 X-1.2416 Y0.5828  
G01 X-1.2397 Y0.5808  
G01 X-1.2379 Y0.5789  
G01 X-0.6914 Y0.0226  
G01 X-0.6914 Y0.0225  
G01 X-0.6895 Y0.0206  
G01 X-0.6877 Y0.0188  
G01 X-0.6876 Y0.0187  
G01 X-0.6854 Y0.0172  
G01 X-0.6832 Y0.0157  
G01 X-0.6831 Y0.0157  
G01 X-0.6830 Y0.0156  
G01 X-0.6806 Y0.0146  
G01 X-0.6783 Y0.0136  
G01 X-0.6781 Y0.0136  
G01 X-0.6780 Y0.0136  
G01 X-0.6755 Y0.0131  
G01 X-0.6730 Y0.0125  
G01 X-0.6728 Y0.0125  
G01 X-0.6727 Y0.0125  
G01 X-0.6701 Y0.0125  
G01 X-0.6675 Y0.0125  
G01 X-0.6674 Y0.0125  
G01 X-0.2523 Y0.0125  
G01 X-0.2518 Y0.0124  
G01 X-0.2496 Y0.0125  
G01 X-0.2473 Y0.0125  
G01 X-0.2469 Y0.0126  
G01 X-0.2464 Y0.0126  
G01 X-0.2442 Y0.0131  
G01 X-0.2420 Y0.0136  
G01 X-0.2416 Y0.0137  
G01 X-0.2411 Y0.0138  
G01 X-0.2391 Y0.0148  
G01 X-0.2370 Y0.0156  
G01 X-0.2366 Y0.0159  
G01 X-0.2362 Y0.0161  
G01 X-0.2344 Y0.0174  
G01 X-0.2325 Y0.0186  
G01 X-0.2322 Y0.0190  
G01 X-0.2318 Y0.0192  
G00 Z0.0500  
G00 X-0.4376 Y0.1047  
G01 Z-0.0035 F10    
G01 X-0.4323 Y0.1120  F20    
G01 X-0.4282 Y0.1201  
G01 X-0.4254 Y0.1287  
G01 X-0.4240 Y0.1376  
G01 X-0.4240 Y0.1467  
G01 X-0.4254 Y0.1556  
G01 X-0.4282 Y0.1642  
G01 X-0.4323 Y0.1723  
G01 X-0.4376 Y0.1796  
G01 X-0.4440 Y0.1860  
G01 X-0.4514 Y0.1913  
G01 X-0.4594 Y0.1954  
G01 X-0.4680 Y0.1982  
G01 X-0.4770 Y0.1996  
G01 X-0.5860 Y0.1996  
G01 X-0.5950 Y0.1982  
G01 X-0.6036 Y0.1954  
G01 X-0.6116 Y0.1913  
G01 X-0.6190 Y0.1860  
G01 X-0.6254 Y0.1796  
G01 X-0.6307 Y0.1723  
G01 X-0.6348 Y0.1642  
G01 X-0.6376 Y0.1556  
G01 X-0.6390 Y0.1467  
G01 X-0.6390 Y0.1376  
G01 X-0.6376 Y0.1287  
G01 X-0.6348 Y0.1201  
G01 X-0.6307 Y0.1120  
G01 X-0.6254 Y0.1047  
G01 X-0.6190 Y0.0983  
G01 X-0.6116 Y0.0929  
G01 X-0.6036 Y0.0888  
G01 X-0.5950 Y0.0860  
G01 X-0.5860 Y0.0846  
G01 X-0.4770 Y0.0846  
G01 X-0.4680 Y0.0860  
G01 X-0.4594 Y0.0888  
G01 X-0.4514 Y0.0929  
G01 X-0.4440 Y0.0983  
G01 X-0.4376 Y0.1047  
G00 Z0.0500  
G00 X-0.5743 Y0.2594  
G01 Z-0.0035 F10    
G01 X-0.5689 Y0.2667  F20    
G01 X-0.5648 Y0.2748  
G01 X-0.5620 Y0.2834  
G01 X-0.5606 Y0.2923  
G01 X-0.5606 Y0.3405  
G01 X-0.4086 Y0.4925  
G01 X-0.4056 Y0.4970  
G01 X-0.4036 Y0.5020  
G01 X-0.4025 Y0.5073  
G01 X-0.4025 Y0.5801  
G01 X-0.3965 Y0.5861  
G01 X-0.3965 Y0.6139  
G01 X-0.4161 Y0.6335  
G01 X-0.4439 Y0.6335  
G01 X-0.4635 Y0.6139  
G01 X-0.4635 Y0.5861  
G01 X-0.4575 Y0.5801  
G01 X-0.4575 Y0.5214  
G01 X-0.5636 Y0.4153  
G01 X-0.5648 Y0.4189  
G01 X-0.5689 Y0.4270  
G01 X-0.5743 Y0.4343  
G01 X-0.5807 Y0.4407  
G01 X-0.5880 Y0.4460  
G01 X-0.5960 Y0.4501  
G01 X-0.6046 Y0.4529  
G01 X-0.6136 Y0.4544  
G01 X-0.6226 Y0.4544  
G01 X-0.6316 Y0.4529  
G01 X-0.6402 Y0.4501  
G01 X-0.6482 Y0.4460  
G01 X-0.6556 Y0.4407  
G01 X-0.6620 Y0.4343  
G01 X-0.6673 Y0.4270  
G01 X-0.6714 Y0.4189  
G01 X-0.6742 Y0.4103  
G01 X-0.6756 Y0.4014  
G01 X-0.6756 Y0.2923  
G01 X-0.6742 Y0.2834  
G01 X-0.6714 Y0.2748  
G01 X-0.6673 Y0.2667  
G01 X-0.6620 Y0.2594  
G01 X-0.6556 Y0.2530  
G01 X-0.6482 Y0.2477  
G01 X-0.6402 Y0.2436  
G01 X-0.6316 Y0.2408  
G01 X-0.6226 Y0.2394  
G01 X-0.6136 Y0.2394  
G01 X-0.6046 Y0.2408  
G01 X-0.5960 Y0.2436  
G01 X-0.5880 Y0.2477  
G01 X-0.5807 Y0.2530  
G01 X-0.5743 Y0.2594  
G00 Z0.0500  
G00 X-0.5925 Y0.4686  
G01 Z-0.0035 F10    
G01 X-0.5912 Y0.4699  F20    
G01 X-0.5134 Y0.5380  
G01 X-0.5128 Y0.5384  
G01 X-0.5114 Y0.5398  
G01 X-0.5099 Y0.5411  
G01 X-0.5094 Y0.5417  
G01 X-0.5089 Y0.5422  
G01 X-0.5078 Y0.5438  
G01 X-0.5066 Y0.5454  
G01 X-0.5062 Y0.5460  
G01 X-0.5058 Y0.5466  
G01 X-0.5050 Y0.5484  
G01 X-0.5041 Y0.5502  
G01 X-0.5040 Y0.5509  
G01 X-0.5037 Y0.5516  
G01 X-0.5033 Y0.5535  
G01 X-0.5027 Y0.5555  
G01 X-0.5027 Y0.5562  
G01 X-0.4778 Y0.6725  
G01 X-0.2404 Y0.6725  
G01 X-0.2380 Y0.6724  
G01 X-0.2376 Y0.6725  
G01 X-0.2373 Y0.6725  
G01 X-0.2350 Y0.6730  
G01 X-0.2327 Y0.6734  
G01 X-0.2323 Y0.6735  
G01 X-0.2320 Y0.6736  
G01 X-0.2298 Y0.6745  
G01 X-0.2276 Y0.6753  
G01 X-0.2273 Y0.6755  
G01 X-0.2270 Y0.6756  
G01 X-0.2250 Y0.6769  
G01 X-0.2230 Y0.6782  
G01 X-0.2228 Y0.6784  
G01 X-0.2225 Y0.6786  
G01 X-0.2208 Y0.6803  
G01 X-0.0228 Y0.8684  
G01 X-0.0225 Y0.8686  
G01 X-0.0208 Y0.8703  
G01 X-0.0191 Y0.8719  
G01 X-0.0189 Y0.8722  
G01 X-0.0186 Y0.8725  
G01 X-0.0173 Y0.8744  
G01 X-0.0160 Y0.8764  
G01 X-0.0158 Y0.8767  
G01 X-0.0156 Y0.8770  
G01 X-0.0147 Y0.8792  
G01 X-0.0138 Y0.8813  
G01 X-0.0137 Y0.8816  
G01 X-0.0136 Y0.8820  
G01 X-0.0131 Y0.8843  
G01 X-0.0126 Y0.8866  
G01 X-0.0126 Y0.8869  
G01 X-0.0125 Y0.8873  
G01 X-0.0125 Y0.8896  
G01 X-0.0124 Y0.8920  
G01 X-0.0125 Y0.8924  
G01 X-0.0125 Y1.4385  
G01 X-0.0124 Y1.4397  
G01 X-0.0125 Y1.4412  
G01 X-0.0125 Y1.4427  
G01 X-0.0127 Y1.4439  
G01 X-0.0128 Y1.4451  
G01 X-0.0133 Y1.4465  
G01 X-0.0136 Y1.4480  
G01 X-0.0140 Y1.4491  
G01 X-0.0143 Y1.4503  
G01 X-0.0150 Y1.4516  
G01 X-0.0156 Y1.4530  
G01 X-0.0163 Y1.4540  
G01 X-0.0168 Y1.4551  
G01 X-0.0178 Y1.4563  
G01 X-0.0186 Y1.4575  
G01 X-0.0195 Y1.4584  
G01 X-0.1725 Y1.6496  
G01 X-0.1725 Y2.1697  
G01 X-0.1720 Y2.1699  
G01 X-0.1699 Y2.1720  
G01 X-0.1688 Y2.1748  
G01 X-0.1688 Y2.2252  
G01 X-0.1699 Y2.2280  
G01 X-0.1720 Y2.2301  
G01 X-0.1748 Y2.2312  
G01 X-0.2252 Y2.2312  
G01 X-0.2280 Y2.2301  
G01 X-0.2301 Y2.2280  
G01 X-0.2312 Y2.2252  
G01 X-0.2312 Y2.1748  
G01 X-0.2301 Y2.1720  
G01 X-0.2280 Y2.1699  
G01 X-0.2275 Y2.1697  
G01 X-0.2275 Y1.6415  
G01 X-0.2276 Y1.6403  
G01 X-0.2275 Y1.6388  
G01 X-0.2275 Y1.6373  
G01 X-0.2273 Y1.6361  
G01 X-0.2272 Y1.6349  
G01 X-0.2267 Y1.6335  
G01 X-0.2264 Y1.6320  
G01 X-0.2260 Y1.6309  
G01 X-0.2257 Y1.6297  
G01 X-0.2250 Y1.6284  
G01 X-0.2244 Y1.6270  
G01 X-0.2237 Y1.6260  
G01 X-0.2232 Y1.6249  
G01 X-0.2222 Y1.6237  
G01 X-0.2214 Y1.6225  
G01 X-0.2205 Y1.6216  
G01 X-0.0675 Y1.4304  
G01 X-0.0675 Y0.9018  
G01 X-0.2510 Y0.7275  
G01 X-0.4998 Y0.7275  
G01 X-0.5023 Y0.7275  
G01 X-0.5025 Y0.7275  
G01 X-0.5027 Y0.7275  
G01 X-0.5052 Y0.7270  
G01 X-0.5076 Y0.7266  
G01 X-0.5078 Y0.7265  
G01 X-0.5080 Y0.7264  
G01 X-0.5103 Y0.7255  
G01 X-0.5127 Y0.7246  
G01 X-0.5128 Y0.7244  
G01 X-0.5130 Y0.7244  
G01 X-0.5151 Y0.7230  
G01 X-0.5172 Y0.7216  
G01 X-0.5174 Y0.7215  
G01 X-0.5175 Y0.7214  
G01 X-0.5193 Y0.7196  
G01 X-0.5211 Y0.7178  
G01 X-0.5212 Y0.7177  
G01 X-0.5214 Y0.7175  
G01 X-0.5228 Y0.7154  
G01 X-0.5242 Y0.7134  
G01 X-0.5243 Y0.7132  
G01 X-0.5244 Y0.7130  
G01 X-0.5253 Y0.7107  
G01 X-0.5263 Y0.7084  
G01 X-0.5264 Y0.7082  
G01 X-0.5264 Y0.7080  
G01 X-0.5269 Y0.7056  
G01 X-0.5550 Y0.5747  
G01 X-0.6203 Y0.5175  
G01 X-0.9786 Y0.5175  
G01 X-1.1425 Y0.6814  
G01 X-1.1425 Y0.9061  
G01 X-1.0792 Y0.9525  
G01 X-1.0775 Y0.9536  
G01 X-1.0771 Y0.9541  
G01 X-1.0766 Y0.9544  
G01 X-1.0751 Y0.9560  
G01 X-1.0737 Y0.9574  
G01 X-1.0733 Y0.9580  
G01 X-1.0729 Y0.9584  
G01 X-1.0718 Y0.9602  
G01 X-1.0706 Y0.9619  
G01 X-1.0704 Y0.9625  
G01 X-1.0701 Y0.9631  
G01 X-1.0694 Y0.9650  
G01 X-1.0686 Y0.9670  
G01 X-1.0684 Y0.9676  
G01 X-1.0682 Y0.9681  
G01 X-1.0679 Y0.9702  
G01 X-1.0518 Y1.0508  
G01 X-1.0415 Y1.0611  
G01 X-1.0415 Y1.0889  
G01 X-1.0611 Y1.1085  
G01 X-1.0889 Y1.1085  
G01 X-1.1044 Y1.0930  
G01 X-1.1591 Y1.0815  
G01 X-1.1611 Y1.0835  
G01 X-1.1889 Y1.0835  
G01 X-1.2085 Y1.0639  
G01 X-1.2085 Y1.0361  
G01 X-1.1889 Y1.0165  
G01 X-1.1611 Y1.0165  
G01 X-1.1506 Y1.0270  
G01 X-1.1110 Y1.0354  
G01 X-1.1199 Y0.9909  
G01 X-1.1858 Y0.9425  
G01 X-1.1875 Y0.9414  
G01 X-1.1880 Y0.9409  
G01 X-1.1884 Y0.9406  
G01 X-1.1899 Y0.9390  
G01 X-1.1914 Y0.9375  
G01 X-1.1917 Y0.9370  
G01 X-1.1921 Y0.9366  
G01 X-1.1932 Y0.9348  
G01 X-1.1944 Y0.9330  
G01 X-1.1946 Y0.9325  
G01 X-1.1949 Y0.9319  
G01 X-1.1956 Y0.9300  
G01 X-1.1964 Y0.9280  
G01 X-1.1966 Y0.9274  
G01 X-1.1968 Y0.9269  
G01 X-1.1971 Y0.9248  
G01 X-1.1975 Y0.9227  
G01 X-1.1975 Y0.9221  
G01 X-1.1976 Y0.9215  
G01 X-1.1975 Y0.9194  
G01 X-1.1975 Y0.6673  
G01 X-1.1964 Y0.6620  
G01 X-1.1944 Y0.6570  
G01 X-1.1914 Y0.6525  
G01 X-1.0114 Y0.4725  
G01 X-1.0075 Y0.4686  
G01 X-1.0030 Y0.4656  
G01 X-0.9980 Y0.4636  
G01 X-0.9927 Y0.4625  
G01 X-0.6109 Y0.4625  
G01 X-0.6091 Y0.4624  
G01 X-0.6082 Y0.4625  
G01 X-0.6073 Y0.4625  
G01 X-0.6055 Y0.4628  
G01 X-0.6038 Y0.4631  
G01 X-0.6029 Y0.4634  
G01 X-0.6020 Y0.4636  
G01 X-0.6003 Y0.4642  
G01 X-0.5986 Y0.4648  
G01 X-0.5978 Y0.4653  
G01 X-0.5970 Y0.4656  
G01 X-0.5955 Y0.4666  
G01 X-0.5939 Y0.4675  
G01 X-0.5932 Y0.4681  
G01 X-0.5925 Y0.4686  
G00 Z0.0500  
G00 X-0.6325 Y0.5386  
G01 Z-0.0035 F10    
G01 X-0.6316 Y0.5395  F20    
G01 X-0.5838 Y0.5778  
G01 X-0.5825 Y0.5786  
G01 X-0.5816 Y0.5795  
G01 X-0.5807 Y0.5802  
G01 X-0.5797 Y0.5814  
G01 X-0.5787 Y0.5824  
G01 X-0.5780 Y0.5834  
G01 X-0.5772 Y0.5844  
G01 X-0.5765 Y0.5857  
G01 X-0.5756 Y0.5869  
G01 X-0.5752 Y0.5881  
G01 X-0.5746 Y0.5891  
G01 X-0.5741 Y0.5906  
G01 X-0.5736 Y0.5920  
G01 X-0.5733 Y0.5931  
G01 X-0.5730 Y0.5943  
G01 X-0.5728 Y0.5958  
G01 X-0.5375 Y0.7725  
G01 X-0.3510 Y0.7725  
G01 X-0.3492 Y0.7724  
G01 X-0.3483 Y0.7725  
G01 X-0.3473 Y0.7725  
G01 X-0.3456 Y0.7728  
G01 X-0.3439 Y0.7731  
G01 X-0.3429 Y0.7734  
G01 X-0.3420 Y0.7736  
G01 X-0.3404 Y0.7742  
G01 X-0.3387 Y0.7748  
G01 X-0.3379 Y0.7753  
G01 X-0.3370 Y0.7756  
G01 X-0.3355 Y0.7766  
G01 X-0.3340 Y0.7775  
G01 X-0.3333 Y0.7781  
G01 X-0.3325 Y0.7786  
G01 X-0.3312 Y0.7799  
G01 X-0.3299 Y0.7810  
G01 X-0.3293 Y0.7818  
G01 X-0.3286 Y0.7825  
G01 X-0.3277 Y0.7839  
G01 X-0.3266 Y0.7853  
G01 X-0.3262 Y0.7862  
G01 X-0.3256 Y0.7870  
G01 X-0.3250 Y0.7886  
G01 X-0.2762 Y0.8862  
G01 X-0.2756 Y0.8870  
G01 X-0.2750 Y0.8886  
G01 X-0.2742 Y0.8901  
G01 X-0.2739 Y0.8911  
G01 X-0.2736 Y0.8920  
G01 X-0.2732 Y0.8937  
G01 X-0.2728 Y0.8953  
G01 X-0.2727 Y0.8963  
G01 X-0.2725 Y0.8973  
G01 X-0.2725 Y0.8990  
G01 X-0.2724 Y0.9008  
G01 X-0.2725 Y0.9017  
G01 X-0.2725 Y0.9983  
G01 X-0.2724 Y0.9993  
G01 X-0.2725 Y1.0010  
G01 X-0.2725 Y1.0027  
G01 X-0.2727 Y1.0037  
G01 X-0.2728 Y1.0047  
G01 X-0.2732 Y1.0063  
G01 X-0.2736 Y1.0080  
G01 X-0.2739 Y1.0089  
G01 X-0.2742 Y1.0099  
G01 X-0.2750 Y1.0114  
G01 X-0.2756 Y1.0130  
G01 X-0.2762 Y1.0138  
G01 X-0.2766 Y1.0147  
G01 X-0.2777 Y1.0161  
G01 X-0.2786 Y1.0175  
G01 X-0.2793 Y1.0182  
G01 X-0.2799 Y1.0190  
G01 X-0.2812 Y1.0201  
G01 X-0.2825 Y1.0214  
G01 X-0.2833 Y1.0219  
G01 X-0.4312 Y1.1501  
G01 X-0.4325 Y1.1514  
G01 X-0.4333 Y1.1519  
G01 X-0.4340 Y1.1526  
G01 X-0.4355 Y1.1534  
G01 X-0.4370 Y1.1544  
G01 X-0.4379 Y1.1547  
G01 X-0.4387 Y1.1552  
G01 X-0.4404 Y1.1558  
G01 X-0.4420 Y1.1564  
G01 X-0.4429 Y1.1566  
G01 X-0.4439 Y1.1569  
G01 X-0.4456 Y1.1572  
G01 X-0.4473 Y1.1575  
G01 X-0.4483 Y1.1575  
G01 X-0.4493 Y1.1576  
G01 X-0.4510 Y1.1575  
G01 X-0.5579 Y1.1575  
G01 X-0.6278 Y1.2337  
G01 X-0.2619 Y1.3175  
G01 X-0.1911 Y1.3175  
G01 X-0.1885 Y1.3140  
G01 X-0.1829 Y1.3083  
G01 X-0.1765 Y1.3037  
G01 X-0.1694 Y1.3001  
G01 X-0.1618 Y1.2976  
G01 X-0.1540 Y1.2964  
G01 X-0.1460 Y1.2964  
G01 X-0.1382 Y1.2976  
G01 X-0.1306 Y1.3001  
G01 X-0.1235 Y1.3037  
G01 X-0.1171 Y1.3083  
G01 X-0.1115 Y1.3140  
G01 X-0.1068 Y1.3204  
G01 X-0.1032 Y1.3275  
G01 X-0.1007 Y1.3350  
G01 X-0.0995 Y1.3429  
G01 X-0.0995 Y1.3508  
G01 X-0.1007 Y1.3587  
G01 X-0.1032 Y1.3662  
G01 X-0.1068 Y1.3733  
G01 X-0.1115 Y1.3797  
G01 X-0.1171 Y1.3854  
G01 X-0.1235 Y1.3900  
G01 X-0.1306 Y1.3937  
G01 X-0.1382 Y1.3961  
G01 X-0.1460 Y1.3974  
G01 X-0.1540 Y1.3974  
G01 X-0.1618 Y1.3961  
G01 X-0.1694 Y1.3937  
G01 X-0.1765 Y1.3900  
G01 X-0.1829 Y1.3854  
G01 X-0.1885 Y1.3797  
G01 X-0.1932 Y1.3733  
G01 X-0.1936 Y1.3725  
G01 X-0.2475 Y1.3725  
G01 X-0.2475 Y2.2625  
G01 X-0.0389 Y2.3598  
G01 X-0.0370 Y2.3606  
G01 X-0.0365 Y2.3610  
G01 X-0.0359 Y2.3612  
G01 X-0.0342 Y2.3625  
G01 X-0.0325 Y2.3636  
G01 X-0.0320 Y2.3641  
G01 X-0.0315 Y2.3644  
G01 X-0.0301 Y2.3660  
G01 X-0.0286 Y2.3675  
G01 X-0.0283 Y2.3680  
G01 X-0.0279 Y2.3684  
G01 X-0.0268 Y2.3702  
G01 X-0.0256 Y2.3720  
G01 X-0.0254 Y2.3725  
G01 X-0.0251 Y2.3731  
G01 X-0.0244 Y2.3750  
G01 X-0.0236 Y2.3770  
G01 X-0.0234 Y2.3776  
G01 X-0.0232 Y2.3781  
G01 X-0.0229 Y2.3802  
G01 X-0.0225 Y2.3823  
G01 X-0.0225 Y2.3829  
G01 X-0.0224 Y2.3835  
G01 X-0.0225 Y2.3856  
G01 X-0.0225 Y2.5527  
G01 X-0.0236 Y2.5580  
G01 X-0.0256 Y2.5630  
G01 X-0.0286 Y2.5675  
G01 X-0.1005 Y2.6394  
G01 X-0.0995 Y2.6460  
G01 X-0.0995 Y2.6540  
G01 X-0.1007 Y2.6618  
G01 X-0.1032 Y2.6694  
G01 X-0.1068 Y2.6765  
G01 X-0.1115 Y2.6829  
G01 X-0.1171 Y2.6885  
G01 X-0.1235 Y2.6932  
G01 X-0.1306 Y2.6968  
G01 X-0.1382 Y2.6993  
G01 X-0.1460 Y2.7005  
G01 X-0.1540 Y2.7005  
G01 X-0.1588 Y2.6997  
G01 X-0.2625 Y2.8108  
G01 X-0.2625 Y2.9238  
G01 X-0.2624 Y2.9253  
G01 X-0.2625 Y2.9265  
G01 X-0.2625 Y2.9277  
G01 X-0.2628 Y2.9292  
G01 X-0.2630 Y2.9307  
G01 X-0.2633 Y2.9319  
G01 X-0.2636 Y2.9330  
G01 X-0.2641 Y2.9344  
G01 X-0.2646 Y2.9359  
G01 X-0.2652 Y2.9369  
G01 X-0.2656 Y2.9380  
G01 X-0.2665 Y2.9393  
G01 X-0.3752 Y3.1369  
G01 X-0.3756 Y3.1380  
G01 X-0.3765 Y3.1393  
G01 X-0.3772 Y3.1406  
G01 X-0.3780 Y3.1415  
G01 X-0.3786 Y3.1425  
G01 X-0.3797 Y3.1436  
G01 X-0.3807 Y3.1448  
G01 X-0.3816 Y3.1455  
G01 X-0.3825 Y3.1464  
G01 X-0.3837 Y3.1472  
G01 X-0.3849 Y3.1482  
G01 X-0.3860 Y3.1487  
G01 X-0.3870 Y3.1494  
G01 X-0.3884 Y3.1500  
G01 X-0.3897 Y3.1507  
G01 X-0.3909 Y3.1510  
G01 X-0.3920 Y3.1514  
G01 X-0.3935 Y3.1517  
G01 X-0.3949 Y3.1522  
G01 X-0.3961 Y3.1523  
G01 X-0.3973 Y3.1525  
G01 X-0.3988 Y3.1525  
G01 X-0.4003 Y3.1526  
G01 X-0.4015 Y3.1525  
G01 X-2.3727 Y3.1525  
G01 X-2.3732 Y3.1526  
G01 X-2.3754 Y3.1525  
G01 X-2.3777 Y3.1525  
G01 X-2.3781 Y3.1524  
G01 X-2.3786 Y3.1524  
G01 X-2.3808 Y3.1519  
G01 X-2.3830 Y3.1514  
G01 X-2.3834 Y3.1513  
G01 X-2.3838 Y3.1512  
G01 X-2.3859 Y3.1502  
G01 X-2.3880 Y3.1494  
G01 X-2.3884 Y3.1491  
G01 X-2.3888 Y3.1490  
G01 X-2.3906 Y3.1476  
G01 X-2.3925 Y3.1464  
G01 X-2.3928 Y3.1461  
G01 X-2.9182 Y2.7708  
G01 X-2.9219 Y2.7669  
G01 X-2.9248 Y2.7623  
G01 X-2.9267 Y2.7572  
G01 X-2.9276 Y2.7518  
G01 X-2.9274 Y2.7464  
G01 X-2.9262 Y2.7412  
G01 X-2.9240 Y2.7362  
G01 X-2.9235 Y2.7356  
G01 X-2.9235 Y1.7239  
G01 X-2.9335 Y1.7139  
G01 X-2.9335 Y1.6861  
G01 X-2.9139 Y1.6665  
G01 X-2.8861 Y1.6665  
G01 X-2.8665 Y1.6861  
G01 X-2.8665 Y1.7139  
G01 X-2.8765 Y1.7239  
G01 X-2.8765 Y2.7330  
G01 X-2.3662 Y3.0975  
G01 X-0.4163 Y3.0975  
G01 X-0.3175 Y2.9179  
G01 X-0.3175 Y2.8005  
G01 X-0.3176 Y2.7982  
G01 X-0.3175 Y2.7978  
G01 X-0.3175 Y2.7973  
G01 X-0.3171 Y2.7951  
G01 X-0.3167 Y2.7929  
G01 X-0.3165 Y2.7924  
G01 X-0.3164 Y2.7920  
G01 X-0.3156 Y2.7899  
G01 X-0.3148 Y2.7878  
G01 X-0.3146 Y2.7874  
G01 X-0.3144 Y2.7870  
G01 X-0.3131 Y2.7851  
G01 X-0.3120 Y2.7832  
G01 X-0.3116 Y2.7829  
G01 X-0.3114 Y2.7825  
G01 X-0.3098 Y2.7809  
G01 X-0.1991 Y2.6623  
G01 X-0.1993 Y2.6618  
G01 X-0.2005 Y2.6540  
G01 X-0.2005 Y2.6460  
G01 X-0.1993 Y2.6382  
G01 X-0.1968 Y2.6306  
G01 X-0.1932 Y2.6235  
G01 X-0.1885 Y2.6171  
G01 X-0.1829 Y2.6115  
G01 X-0.1765 Y2.6068  
G01 X-0.1694 Y2.6032  
G01 X-0.1618 Y2.6007  
G01 X-0.1540 Y2.5995  
G01 X-0.1460 Y2.5995  
G01 X-0.1394 Y2.6005  
G01 X-0.0775 Y2.5386  
G01 X-0.0775 Y2.4025  
G01 X-0.2861 Y2.3052  
G01 X-0.2880 Y2.3044  
G01 X-0.2885 Y2.3040  
G01 X-0.2891 Y2.3038  
G01 X-0.2908 Y2.3025  
G01 X-0.2925 Y2.3014  
G01 X-0.2930 Y2.3009  
G01 X-0.2935 Y2.3006  
G01 X-0.2949 Y2.2990  
G01 X-0.2964 Y2.2975  
G01 X-0.2967 Y2.2970  
G01 X-0.2971 Y2.2966  
G01 X-0.2982 Y2.2948  
G01 X-0.2994 Y2.2930  
G01 X-0.2996 Y2.2925  
G01 X-0.2999 Y2.2919  
G01 X-0.3006 Y2.2900  
G01 X-0.3014 Y2.2880  
G01 X-0.3016 Y2.2874  
G01 X-0.3018 Y2.2869  
G01 X-0.3021 Y2.2848  
G01 X-0.3025 Y2.2827  
G01 X-0.3025 Y2.2821  
G01 X-0.3026 Y2.2815  
G01 X-0.3025 Y2.2794  
G01 X-0.3025 Y1.3646  
G01 X-0.6644 Y1.2818  
G01 X-0.6661 Y1.2835  
G01 X-0.6939 Y1.2835  
G01 X-0.6969 Y1.2804  
G01 X-0.7869 Y1.2943  
G01 X-0.7961 Y1.3035  
G01 X-0.8239 Y1.3035  
G01 X-0.8435 Y1.2839  
G01 X-0.8435 Y1.2561  
G01 X-0.8239 Y1.2365  
G01 X-0.7961 Y1.2365  
G01 X-0.7931 Y1.2396  
G01 X-0.7031 Y1.2257  
G01 X-0.6939 Y1.2165  
G01 X-0.6866 Y1.2165  
G01 X-0.5917 Y1.1130  
G01 X-0.5914 Y1.1125  
G01 X-0.5899 Y1.1110  
G01 X-0.5884 Y1.1094  
G01 X-0.5880 Y1.1091  
G01 X-0.5875 Y1.1086  
G01 X-0.5858 Y1.1075  
G01 X-0.5841 Y1.1062  
G01 X-0.5835 Y1.1060  
G01 X-0.5830 Y1.1056  
G01 X-0.5811 Y1.1048  
G01 X-0.5792 Y1.1039  
G01 X-0.5786 Y1.1038  
G01 X-0.5780 Y1.1036  
G01 X-0.5760 Y1.1031  
G01 X-0.5739 Y1.1026  
G01 X-0.5733 Y1.1026  
G01 X-0.5727 Y1.1025  
G01 X-0.5706 Y1.1025  
G01 X-0.5685 Y1.1024  
G01 X-0.5679 Y1.1025  
G01 X-0.4603 Y1.1025  
G01 X-0.3275 Y0.9874  
G01 X-0.3275 Y0.9065  
G01 X-0.3670 Y0.8275  
G01 X-0.5600 Y0.8275  
G01 X-0.5627 Y0.8275  
G01 X-0.5654 Y0.8270  
G01 X-0.5680 Y0.8265  
G01 X-0.5705 Y0.8254  
G01 X-0.5730 Y0.8244  
G01 X-0.5753 Y0.8229  
G01 X-0.5775 Y0.8214  
G01 X-0.5795 Y0.8194  
G01 X-0.5813 Y0.8176  
G01 X-0.5829 Y0.8153  
G01 X-0.5844 Y0.8131  
G01 X-0.5854 Y0.8105  
G01 X-0.5864 Y0.8080  
G01 X-0.5870 Y0.8054  
G01 X-0.6250 Y0.6152  
G01 X-0.6596 Y0.5875  
G01 X-0.7390 Y0.5875  
G01 X-0.9208 Y0.7597  
G01 X-0.9225 Y0.7614  
G01 X-0.9228 Y0.7616  
G01 X-0.9231 Y0.7618  
G01 X-0.9250 Y0.7631  
G01 X-0.9270 Y0.7644  
G01 X-0.9273 Y0.7645  
G01 X-0.9276 Y0.7647  
G01 X-0.9298 Y0.7655  
G01 X-0.9320 Y0.7664  
G01 X-0.9323 Y0.7665  
G01 X-0.9327 Y0.7667  
G01 X-0.9350 Y0.7670  
G01 X-0.9373 Y0.7675  
G01 X-0.9377 Y0.7675  
G01 X-0.9380 Y0.7676  
G01 X-0.9404 Y0.7675  
G01 X-0.9809 Y0.7675  
G01 X-0.9841 Y0.7697  
G01 X-0.9902 Y0.7722  
G01 X-0.9967 Y0.7735  
G01 X-1.0033 Y0.7735  
G01 X-1.0098 Y0.7722  
G01 X-1.0159 Y0.7697  
G01 X-1.0214 Y0.7660  
G01 X-1.0260 Y0.7614  
G01 X-1.0297 Y0.7559  
G01 X-1.0322 Y0.7498  
G01 X-1.0335 Y0.7433  
G01 X-1.0335 Y0.7367  
G01 X-1.0322 Y0.7302  
G01 X-1.0297 Y0.7241  
G01 X-1.0260 Y0.7186  
G01 X-1.0214 Y0.7140  
G01 X-1.0159 Y0.7103  
G01 X-1.0098 Y0.7078  
G01 X-1.0033 Y0.7065  
G01 X-0.9967 Y0.7065  
G01 X-0.9902 Y0.7078  
G01 X-0.9841 Y0.7103  
G01 X-0.9809 Y0.7125  
G01 X-0.9510 Y0.7125  
G01 X-0.7692 Y0.5403  
G01 X-0.7675 Y0.5386  
G01 X-0.7672 Y0.5384  
G01 X-0.7669 Y0.5382  
G01 X-0.7650 Y0.5369  
G01 X-0.7630 Y0.5356  
G01 X-0.7627 Y0.5355  
G01 X-0.7624 Y0.5353  
G01 X-0.7602 Y0.5345  
G01 X-0.7580 Y0.5336  
G01 X-0.7577 Y0.5335  
G01 X-0.7573 Y0.5333  
G01 X-0.7550 Y0.5330  
G01 X-0.7527 Y0.5325  
G01 X-0.7523 Y0.5325  
G01 X-0.7520 Y0.5324  
G01 X-0.7496 Y0.5325  
G01 X-0.6515 Y0.5325  
G01 X-0.6503 Y0.5324  
G01 X-0.6488 Y0.5325  
G01 X-0.6473 Y0.5325  
G01 X-0.6461 Y0.5327  
G01 X-0.6449 Y0.5328  
G01 X-0.6435 Y0.5333  
G01 X-0.6420 Y0.5336  
G01 X-0.6409 Y0.5340  
G01 X-0.6397 Y0.5343  
G01 X-0.6384 Y0.5350  
G01 X-0.6370 Y0.5356  
G01 X-0.6360 Y0.5363  
G01 X-0.6349 Y0.5368  
G01 X-0.6337 Y0.5378  
G01 X-0.6325 Y0.5386  
G00 Z0.0500  
G00 X-0.6740 Y0.6186  
G01 Z-0.0035 F10    
G01 X-0.6703 Y0.6241  F20    
G01 X-0.6678 Y0.6302  
G01 X-0.6665 Y0.6367  
G01 X-0.6665 Y0.6433  
G01 X-0.6678 Y0.6498  
G01 X-0.6703 Y0.6559  
G01 X-0.6740 Y0.6614  
G01 X-0.6786 Y0.6660  
G01 X-0.6841 Y0.6697  
G01 X-0.6902 Y0.6722  
G01 X-0.6967 Y0.6735  
G01 X-0.7033 Y0.6735  
G01 X-0.7098 Y0.6722  
G01 X-0.7159 Y0.6697  
G01 X-0.7214 Y0.6660  
G01 X-0.7260 Y0.6614  
G01 X-0.7297 Y0.6559  
G01 X-0.7322 Y0.6498  
G01 X-0.7335 Y0.6433  
G01 X-0.7335 Y0.6367  
G01 X-0.7322 Y0.6302  
G01 X-0.7297 Y0.6241  
G01 X-0.7260 Y0.6186  
G01 X-0.7214 Y0.6140  
G01 X-0.7159 Y0.6103  
G01 X-0.7098 Y0.6078  
G01 X-0.7033 Y0.6065  
G01 X-0.6967 Y0.6065  
G01 X-0.6902 Y0.6078  
G01 X-0.6841 Y0.6103  
G01 X-0.6786 Y0.6140  
G01 X-0.6740 Y0.6186  
G00 Z0.0500  
G00 X-0.6740 Y0.7186  
G01 Z-0.0035 F10    
G01 X-0.6703 Y0.7241  F20    
G01 X-0.6678 Y0.7302  
G01 X-0.6665 Y0.7367  
G01 X-0.6665 Y0.7433  
G01 X-0.6678 Y0.7498  
G01 X-0.6703 Y0.7559  
G01 X-0.6740 Y0.7614  
G01 X-0.6786 Y0.7660  
G01 X-0.6841 Y0.7697  
G01 X-0.6902 Y0.7722  
G01 X-0.6967 Y0.7735  
G01 X-0.7027 Y0.7735  
G01 X-0.8681 Y0.8710  
G01 X-0.8775 Y1.1353  
G01 X-0.8751 Y1.2766  
G01 X-0.8462 Y1.3441  
G01 X-0.4226 Y1.3826  
G01 X-0.4200 Y1.3828  
G01 X-0.4199 Y1.3828  
G01 X-0.4198 Y1.3829  
G01 X-0.4173 Y1.3836  
G01 X-0.4148 Y1.3843  
G01 X-0.4147 Y1.3844  
G01 X-0.4146 Y1.3844  
G01 X-0.4123 Y1.3856  
G01 X-0.4100 Y1.3868  
G01 X-0.4098 Y1.3869  
G01 X-0.4078 Y1.3885  
G01 X-0.4058 Y1.3901  
G01 X-0.4056 Y1.3903  
G01 X-0.4039 Y1.3923  
G01 X-0.4023 Y1.3943  
G01 X-0.4022 Y1.3944  
G01 X-0.4009 Y1.3968  
G01 X-0.3515 Y1.4857  
G01 X-0.3506 Y1.4870  
G01 X-0.3502 Y1.4880  
G01 X-0.3496 Y1.4890  
G01 X-0.3492 Y1.4905  
G01 X-0.3486 Y1.4920  
G01 X-0.3483 Y1.4931  
G01 X-0.3480 Y1.4942  
G01 X-0.3478 Y1.4957  
G01 X-0.3475 Y1.4973  
G01 X-0.3475 Y1.4984  
G01 X-0.3474 Y1.4996  
G01 X-0.3475 Y1.5011  
G01 X-0.3475 Y1.5991  
G01 X-0.3474 Y1.6009  
G01 X-0.3475 Y1.6018  
G01 X-0.3475 Y1.6027  
G01 X-0.3479 Y1.6045  
G01 X-0.3481 Y1.6063  
G01 X-0.3484 Y1.6071  
G01 X-0.3486 Y1.6080  
G01 X-0.3493 Y1.6097  
G01 X-0.3498 Y1.6114  
G01 X-0.3503 Y1.6122  
G01 X-0.3506 Y1.6130  
G01 X-0.3516 Y1.6145  
G01 X-0.4032 Y1.7036  
G01 X-0.4307 Y1.9920  
G01 X-0.4265 Y1.9961  
G01 X-0.4265 Y2.0239  
G01 X-0.4461 Y2.0435  
G01 X-0.4739 Y2.0435  
G01 X-0.4935 Y2.0239  
G01 X-0.4935 Y1.9961  
G01 X-0.4855 Y1.9882  
G01 X-0.4576 Y1.6946  
G01 X-0.4576 Y1.6941  
G01 X-0.4573 Y1.6919  
G01 X-0.4571 Y1.6897  
G01 X-0.4570 Y1.6892  
G01 X-0.4569 Y1.6887  
G01 X-0.4562 Y1.6866  
G01 X-0.4556 Y1.6845  
G01 X-0.4553 Y1.6841  
G01 X-0.4552 Y1.6836  
G01 X-0.4541 Y1.6817  
G01 X-0.4530 Y1.6797  
G01 X-0.4527 Y1.6793  
G01 X-0.4025 Y1.5926  
G01 X-0.4025 Y1.5071  
G01 X-0.4420 Y1.4361  
G01 X-0.8661 Y1.3975  
G01 X-0.8674 Y1.3975  
G01 X-0.8688 Y1.3973  
G01 X-0.8702 Y1.3971  
G01 X-0.8714 Y1.3968  
G01 X-0.8727 Y1.3965  
G01 X-0.8740 Y1.3960  
G01 X-0.8754 Y1.3956  
G01 X-0.8765 Y1.3950  
G01 X-0.8777 Y1.3945  
G01 X-0.8789 Y1.3938  
G01 X-0.8802 Y1.3931  
G01 X-0.8812 Y1.3923  
G01 X-0.8823 Y1.3916  
G01 X-0.8833 Y1.3906  
G01 X-0.8844 Y1.3897  
G01 X-0.8852 Y1.3887  
G01 X-0.8861 Y1.3878  
G01 X-0.8869 Y1.3866  
G01 X-0.8879 Y1.3855  
G01 X-0.8885 Y1.3844  
G01 X-0.8892 Y1.3833  
G01 X-0.8898 Y1.3820  
G01 X-0.8904 Y1.3808  
G01 X-0.8908 Y1.3795  
G01 X-0.9208 Y1.3095  
G01 X-0.9980 Y1.3076  
G01 X-1.0008 Y1.3075  
G01 X-1.0034 Y1.3074  
G01 X-1.3600 Y1.2980  
G01 X-1.3620 Y1.2994  
G01 X-1.3661 Y1.3035  
G01 X-1.3725 Y1.3035  
G01 X-1.3725 Y1.3809  
G01 X-1.3703 Y1.3841  
G01 X-1.3678 Y1.3902  
G01 X-1.3665 Y1.3967  
G01 X-1.3665 Y1.4033  
G01 X-1.3678 Y1.4098  
G01 X-1.3703 Y1.4159  
G01 X-1.3740 Y1.4214  
G01 X-1.3786 Y1.4260  
G01 X-1.3841 Y1.4297  
G01 X-1.3902 Y1.4322  
G01 X-1.3967 Y1.4335  
G01 X-1.4033 Y1.4335  
G01 X-1.4098 Y1.4322  
G01 X-1.4159 Y1.4297  
G01 X-1.4214 Y1.4260  
G01 X-1.4260 Y1.4214  
G01 X-1.4297 Y1.4159  
G01 X-1.4322 Y1.4098  
G01 X-1.4335 Y1.4033  
G01 X-1.4335 Y1.3967  
G01 X-1.4322 Y1.3902  
G01 X-1.4297 Y1.3841  
G01 X-1.4275 Y1.3809  
G01 X-1.4275 Y1.3029  
G01 X-1.7712 Y1.3074  
G01 X-1.8273 Y1.3462  
G01 X-1.8275 Y1.3464  
G01 X-1.8295 Y1.3477  
G01 X-1.8316 Y1.3492  
G01 X-1.8318 Y1.3492  
G01 X-1.8320 Y1.3494  
G01 X-1.8343 Y1.3503  
G01 X-1.8365 Y1.3513  
G01 X-1.8368 Y1.3514  
G01 X-1.8370 Y1.3514  
G01 X-1.8394 Y1.3519  
G01 X-1.8418 Y1.3525  
G01 X-1.8421 Y1.3525  
G01 X-1.8423 Y1.3525  
G01 X-1.8448 Y1.3525  
G01 X-1.8473 Y1.3525  
G01 X-1.8475 Y1.3525  
G01 X-1.9325 Y1.3525  
G01 X-1.9325 Y1.7493  
G01 X-1.6927 Y1.8903  
G01 X-1.6920 Y1.8906  
G01 X-1.6904 Y1.8917  
G01 X-1.6887 Y1.8927  
G01 X-1.6881 Y1.8932  
G01 X-1.6875 Y1.8936  
G01 X-1.6861 Y1.8950  
G01 X-1.6847 Y1.8963  
G01 X-1.6842 Y1.8969  
G01 X-1.6836 Y1.8975  
G01 X-1.6826 Y1.8991  
G01 X-1.6814 Y1.9006  
G01 X-1.6811 Y1.9013  
G01 X-1.6806 Y1.9020  
G01 X-1.6799 Y1.9037  
G01 X-1.6791 Y1.9055  
G01 X-1.6789 Y1.9062  
G01 X-1.6786 Y1.9070  
G01 X-1.6782 Y1.9089  
G01 X-1.6777 Y1.9107  
G01 X-1.6777 Y1.9115  
G01 X-1.6775 Y1.9123  
G01 X-1.6775 Y1.9142  
G01 X-1.6774 Y1.9161  
G01 X-1.6775 Y1.9169  
G01 X-1.6775 Y2.4438  
G01 X-1.6732 Y2.4912  
G01 X-1.6580 Y2.5165  
G01 X-1.6561 Y2.5165  
G01 X-1.6365 Y2.5361  
G01 X-1.6365 Y2.5639  
G01 X-1.6561 Y2.5835  
G01 X-1.6839 Y2.5835  
G01 X-1.7035 Y2.5639  
G01 X-1.7035 Y2.5476  
G01 X-1.7177 Y2.5239  
G01 X-1.8084 Y2.5012  
G01 X-1.8452 Y2.5012  
G01 X-1.8480 Y2.5001  
G01 X-1.8501 Y2.4980  
G01 X-1.8512 Y2.4952  
G01 X-1.8512 Y2.4448  
G01 X-1.8501 Y2.4420  
G01 X-1.8480 Y2.4399  
G01 X-1.8452 Y2.4388  
G01 X-1.7948 Y2.4388  
G01 X-1.7920 Y2.4399  
G01 X-1.7899 Y2.4420  
G01 X-1.7888 Y2.4448  
G01 X-1.7888 Y2.4495  
G01 X-1.7309 Y2.4639  
G01 X-1.7323 Y2.4489  
G01 X-1.7325 Y2.4477  
G01 X-1.7325 Y2.4462  
G01 X-1.7326 Y2.4448  
G01 X-1.7325 Y2.4435  
G01 X-1.7325 Y1.9307  
G01 X-1.9723 Y1.7897  
G01 X-1.9730 Y1.7894  
G01 X-1.9746 Y1.7883  
G01 X-1.9763 Y1.7873  
G01 X-1.9769 Y1.7868  
G01 X-1.9775 Y1.7864  
G01 X-1.9789 Y1.7850  
G01 X-1.9803 Y1.7837  
G01 X-1.9808 Y1.7831  
G01 X-1.9814 Y1.7825  
G01 X-1.9824 Y1.7809  
G01 X-1.9836 Y1.7794  
G01 X-1.9839 Y1.7787  
G01 X-1.9844 Y1.7780  
G01 X-1.9851 Y1.7763  
G01 X-1.9859 Y1.7745  
G01 X-1.9861 Y1.7738  
G01 X-1.9864 Y1.7730  
G01 X-1.9868 Y1.7711  
G01 X-1.9873 Y1.7693  
G01 X-1.9873 Y1.7685  
G01 X-1.9875 Y1.7677  
G01 X-1.9875 Y1.7658  
G01 X-1.9876 Y1.7639  
G01 X-1.9875 Y1.7631  
G01 X-1.9875 Y1.3525  
G01 X-2.1434 Y1.3525  
G01 X-2.1445 Y1.3526  
G01 X-2.1461 Y1.3525  
G01 X-2.1477 Y1.3525  
G01 X-2.1488 Y1.3523  
G01 X-2.1499 Y1.3522  
G01 X-2.1514 Y1.3518  
G01 X-2.1530 Y1.3514  
G01 X-2.1540 Y1.3510  
G01 X-2.1551 Y1.3507  
G01 X-2.1565 Y1.3500  
G01 X-2.1580 Y1.3494  
G01 X-2.1589 Y1.3488  
G01 X-2.1599 Y1.3483  
G01 X-2.1612 Y1.3473  
G01 X-2.1625 Y1.3464  
G01 X-2.1633 Y1.3456  
G01 X-2.2495 Y1.2775  
G01 X-2.3556 Y1.2775  
G01 X-2.3585 Y1.2795  
G01 X-2.3646 Y1.2820  
G01 X-2.3710 Y1.2832  
G01 X-2.4290 Y1.2832  
G01 X-2.4354 Y1.2820  
G01 X-2.4415 Y1.2795  
G01 X-2.4469 Y1.2758  
G01 X-2.4516 Y1.2712  
G01 X-2.4552 Y1.2657  
G01 X-2.4577 Y1.2597  
G01 X-2.4590 Y1.2533  
G01 X-2.4590 Y1.2467  
G01 X-2.4577 Y1.2403  
G01 X-2.4552 Y1.2343  
G01 X-2.4516 Y1.2288  
G01 X-2.4469 Y1.2242  
G01 X-2.4415 Y1.2205  
G01 X-2.4354 Y1.2180  
G01 X-2.4290 Y1.2168  
G01 X-2.3710 Y1.2168  
G01 X-2.3646 Y1.2180  
G01 X-2.3585 Y1.2205  
G01 X-2.3556 Y1.2225  
G01 X-2.2416 Y1.2225  
G01 X-2.2405 Y1.2224  
G01 X-2.2389 Y1.2225  
G01 X-2.2373 Y1.2225  
G01 X-2.2362 Y1.2227  
G01 X-2.2351 Y1.2228  
G01 X-2.2336 Y1.2232  
G01 X-2.2320 Y1.2236  
G01 X-2.2310 Y1.2240  
G01 X-2.2299 Y1.2243  
G01 X-2.2285 Y1.2250  
G01 X-2.2270 Y1.2256  
G01 X-2.2261 Y1.2262  
G01 X-2.2251 Y1.2267  
G01 X-2.2238 Y1.2277  
G01 X-2.2225 Y1.2286  
G01 X-2.2217 Y1.2294  
G01 X-2.1355 Y1.2975  
G01 X-1.8536 Y1.2975  
G01 X-1.7978 Y1.2589  
G01 X-1.7956 Y1.2574  
G01 X-1.7934 Y1.2558  
G01 X-1.7909 Y1.2548  
G01 X-1.7885 Y1.2537  
G01 X-1.7858 Y1.2531  
G01 X-1.7832 Y1.2525  
G01 X-1.7804 Y1.2525  
G01 X-1.7777 Y1.2525  
G01 X-1.4049 Y1.2476  
G01 X-1.3939 Y1.2365  
G01 X-1.3661 Y1.2365  
G01 X-1.3596 Y1.2430  
G01 X-0.9992 Y1.2525  
G01 X-0.9305 Y1.2543  
G01 X-0.9325 Y1.1374  
G01 X-0.9326 Y1.1367  
G01 X-0.9325 Y1.1347  
G01 X-0.9325 Y1.1328  
G01 X-0.9324 Y1.1320  
G01 X-0.9226 Y0.8564  
G01 X-0.9226 Y0.8562  
G01 X-0.9225 Y0.8537  
G01 X-0.9224 Y0.8513  
G01 X-0.9223 Y0.8510  
G01 X-0.9223 Y0.8508  
G01 X-0.9217 Y0.8484  
G01 X-0.9211 Y0.8460  
G01 X-0.9210 Y0.8458  
G01 X-0.9210 Y0.8455  
G01 X-0.9199 Y0.8433  
G01 X-0.9189 Y0.8411  
G01 X-0.9187 Y0.8409  
G01 X-0.9186 Y0.8406  
G01 X-0.9171 Y0.8387  
G01 X-0.9157 Y0.8367  
G01 X-0.9155 Y0.8365  
G01 X-0.9153 Y0.8363  
G01 X-0.9135 Y0.8347  
G01 X-0.9118 Y0.8330  
G01 X-0.9115 Y0.8329  
G01 X-0.9113 Y0.8327  
G01 X-0.9092 Y0.8315  
G01 X-0.9071 Y0.8302  
G01 X-0.9069 Y0.8301  
G01 X-0.7305 Y0.7261  
G01 X-0.7297 Y0.7241  
G01 X-0.7260 Y0.7186  
G01 X-0.7214 Y0.7140  
G01 X-0.7159 Y0.7103  
G01 X-0.7098 Y0.7078  
G01 X-0.7033 Y0.7065  
G01 X-0.6967 Y0.7065  
G01 X-0.6902 Y0.7078  
G01 X-0.6841 Y0.7103  
G01 X-0.6786 Y0.7140  
G01 X-0.6740 Y0.7186  
G00 Z0.0500  
G00 X-0.6740 Y0.8186  
G01 Z-0.0035 F10    
G01 X-0.6703 Y0.8241  F20    
G01 X-0.6682 Y0.8292  
G01 X-0.5463 Y0.9186  
G01 X-0.4601 Y0.8828  
G01 X-0.4439 Y0.8665  
G01 X-0.4161 Y0.8665  
G01 X-0.3965 Y0.8861  
G01 X-0.3965 Y0.9139  
G01 X-0.4161 Y0.9335  
G01 X-0.4389 Y0.9335  
G01 X-0.5225 Y0.9683  
G01 X-0.5225 Y1.0275  
G01 X-0.5217 Y1.0276  
G01 X-0.5185 Y1.0254  
G01 X-0.5114 Y1.0225  
G01 X-0.5038 Y1.0210  
G01 X-0.4962 Y1.0210  
G01 X-0.4886 Y1.0225  
G01 X-0.4815 Y1.0254  
G01 X-0.4751 Y1.0297  
G01 X-0.4697 Y1.0351  
G01 X-0.4654 Y1.0415  
G01 X-0.4625 Y1.0486  
G01 X-0.4610 Y1.0562  
G01 X-0.4610 Y1.0638  
G01 X-0.4625 Y1.0714  
G01 X-0.4654 Y1.0785  
G01 X-0.4697 Y1.0849  
G01 X-0.4751 Y1.0903  
G01 X-0.4815 Y1.0946  
G01 X-0.4886 Y1.0975  
G01 X-0.4962 Y1.0990  
G01 X-0.5038 Y1.0990  
G01 X-0.5114 Y1.0975  
G01 X-0.5185 Y1.0946  
G01 X-0.5249 Y1.0903  
G01 X-0.5303 Y1.0849  
G01 X-0.5325 Y1.0815  
G01 X-0.5527 Y1.0775  
G01 X-0.6601 Y1.0775  
G01 X-0.6661 Y1.0835  
G01 X-0.6939 Y1.0835  
G01 X-0.6967 Y1.0807  
G01 X-0.7331 Y1.0867  
G01 X-0.7334 Y1.0868  
G01 X-0.7358 Y1.0872  
G01 X-0.7382 Y1.0876  
G01 X-0.7385 Y1.0876  
G01 X-0.7871 Y1.0945  
G01 X-0.7961 Y1.1035  
G01 X-0.8239 Y1.1035  
G01 X-0.8435 Y1.0839  
G01 X-0.8435 Y1.0561  
G01 X-0.8239 Y1.0365  
G01 X-0.7961 Y1.0365  
G01 X-0.7929 Y1.0398  
G01 X-0.7442 Y1.0328  
G01 X-0.7034 Y1.0260  
G01 X-0.6939 Y1.0165  
G01 X-0.6661 Y1.0165  
G01 X-0.6601 Y1.0225  
G01 X-0.5775 Y1.0225  
G01 X-0.5775 Y0.9639  
G01 X-0.7008 Y0.8735  
G01 X-0.7033 Y0.8735  
G01 X-0.7098 Y0.8722  
G01 X-0.7159 Y0.8697  
G01 X-0.7214 Y0.8660  
G01 X-0.7260 Y0.8614  
G01 X-0.7297 Y0.8559  
G01 X-0.7322 Y0.8498  
G01 X-0.7335 Y0.8433  
G01 X-0.7335 Y0.8367  
G01 X-0.7322 Y0.8302  
G01 X-0.7297 Y0.8241  
G01 X-0.7260 Y0.8186  
G01 X-0.7214 Y0.8140  
G01 X-0.7159 Y0.8103  
G01 X-0.7098 Y0.8078  
G01 X-0.7033 Y0.8065  
G01 X-0.6967 Y0.8065  
G01 X-0.6902 Y0.8078  
G01 X-0.6841 Y0.8103  
G01 X-0.6786 Y0.8140  
G01 X-0.6740 Y0.8186  
G00 Z0.0500  
G00 X-0.6740 Y0.9186  
G01 Z-0.0035 F10    
G01 X-0.6703 Y0.9241  F20    
G01 X-0.6678 Y0.9302  
G01 X-0.6665 Y0.9367  
G01 X-0.6665 Y0.9433  
G01 X-0.6678 Y0.9498  
G01 X-0.6703 Y0.9559  
G01 X-0.6740 Y0.9614  
G01 X-0.6786 Y0.9660  
G01 X-0.6841 Y0.9697  
G01 X-0.6902 Y0.9722  
G01 X-0.6967 Y0.9735  
G01 X-0.7033 Y0.9735  
G01 X-0.7098 Y0.9722  
G01 X-0.7159 Y0.9697  
G01 X-0.7214 Y0.9660  
G01 X-0.7260 Y0.9614  
G01 X-0.7297 Y0.9559  
G01 X-0.7322 Y0.9498  
G01 X-0.7335 Y0.9433  
G01 X-0.7335 Y0.9367  
G01 X-0.7322 Y0.9302  
G01 X-0.7297 Y0.9241  
G01 X-0.7260 Y0.9186  
G01 X-0.7214 Y0.9140  
G01 X-0.7159 Y0.9103  
G01 X-0.7098 Y0.9078  
G01 X-0.7033 Y0.9065  
G01 X-0.6967 Y0.9065  
G01 X-0.6902 Y0.9078  
G01 X-0.6841 Y0.9103  
G01 X-0.6786 Y0.9140  
G01 X-0.6740 Y0.9186  
G00 Z0.0500  
G00 X-0.9740 Y0.9186  
G01 Z-0.0035 F10    
G01 X-0.9703 Y0.9241  F20    
G01 X-0.9678 Y0.9302  
G01 X-0.9665 Y0.9367  
G01 X-0.9665 Y0.9433  
G01 X-0.9678 Y0.9498  
G01 X-0.9703 Y0.9559  
G01 X-0.9725 Y0.9591  
G01 X-0.9725 Y1.1233  
G01 X-0.9724 Y1.1243  
G01 X-0.9725 Y1.1260  
G01 X-0.9725 Y1.1277  
G01 X-0.9727 Y1.1287  
G01 X-0.9728 Y1.1297  
G01 X-0.9732 Y1.1313  
G01 X-0.9736 Y1.1330  
G01 X-0.9739 Y1.1339  
G01 X-0.9742 Y1.1349  
G01 X-0.9750 Y1.1364  
G01 X-0.9756 Y1.1380  
G01 X-0.9762 Y1.1389  
G01 X-0.9766 Y1.1397  
G01 X-0.9777 Y1.1411  
G01 X-0.9786 Y1.1425  
G01 X-0.9793 Y1.1432  
G01 X-1.0127 Y1.1861  
G01 X-1.0136 Y1.1875  
G01 X-1.0143 Y1.1882  
G01 X-1.0150 Y1.1890  
G01 X-1.0163 Y1.1901  
G01 X-1.0175 Y1.1914  
G01 X-1.0183 Y1.1919  
G01 X-1.0191 Y1.1926  
G01 X-1.0205 Y1.1934  
G01 X-1.0220 Y1.1944  
G01 X-1.0229 Y1.1948  
G01 X-1.0238 Y1.1952  
G01 X-1.0254 Y1.1958  
G01 X-1.0270 Y1.1964  
G01 X-1.0280 Y1.1966  
G01 X-1.0289 Y1.1970  
G01 X-1.0306 Y1.1972  
G01 X-1.0323 Y1.1975  
G01 X-1.0333 Y1.1975  
G01 X-1.0343 Y1.1976  
G01 X-1.0360 Y1.1975  
G01 X-1.1583 Y1.1975  
G01 X-1.1593 Y1.1976  
G01 X-1.1610 Y1.1975  
G01 X-1.1627 Y1.1975  
G01 X-1.1637 Y1.1973  
G01 X-1.1647 Y1.1972  
G01 X-1.1663 Y1.1968  
G01 X-1.1680 Y1.1964  
G01 X-1.1689 Y1.1961  
G01 X-1.1699 Y1.1958  
G01 X-1.1714 Y1.1950  
G01 X-1.1730 Y1.1944  
G01 X-1.1739 Y1.1938  
G01 X-1.1747 Y1.1934  
G01 X-1.1761 Y1.1923  
G01 X-1.1775 Y1.1914  
G01 X-1.1782 Y1.1907  
G01 X-1.2517 Y1.1335  
G01 X-1.2584 Y1.1335  
G01 X-1.4471 Y1.2144  
G01 X-1.4476 Y1.2147  
G01 X-1.4496 Y1.2155  
G01 X-1.4517 Y1.2163  
G01 X-1.4521 Y1.2164  
G01 X-1.4526 Y1.2166  
G01 X-1.4548 Y1.2170  
G01 X-1.4570 Y1.2175  
G01 X-1.4575 Y1.2175  
G01 X-1.4579 Y1.2176  
G01 X-1.4602 Y1.2175  
G01 X-1.4624 Y1.2175  
G01 X-1.4629 Y1.2174  
G01 X-1.8724 Y1.2077  
G01 X-1.9451 Y1.2531  
G01 X-1.9470 Y1.2544  
G01 X-1.9474 Y1.2545  
G01 X-1.9477 Y1.2548  
G01 X-1.9499 Y1.2556  
G01 X-1.9520 Y1.2564  
G01 X-1.9524 Y1.2565  
G01 X-1.9528 Y1.2567  
G01 X-1.9550 Y1.2571  
G01 X-1.9573 Y1.2575  
G01 X-1.9577 Y1.2575  
G01 X-1.9581 Y1.2576  
G01 X-1.9604 Y1.2575  
G01 X-2.1095 Y1.2575  
G01 X-2.1118 Y1.2576  
G01 X-2.1122 Y1.2575  
G01 X-2.1127 Y1.2575  
G01 X-2.1149 Y1.2571  
G01 X-2.1171 Y1.2567  
G01 X-2.1176 Y1.2565  
G01 X-2.1180 Y1.2564  
G01 X-2.1201 Y1.2556  
G01 X-2.1222 Y1.2548  
G01 X-2.1226 Y1.2545  
G01 X-2.1230 Y1.2544  
G01 X-2.1249 Y1.2531  
G01 X-2.1268 Y1.2519  
G01 X-2.1271 Y1.2516  
G01 X-2.1275 Y1.2514  
G01 X-2.1291 Y1.2498  
G01 X-2.1308 Y1.2482  
G01 X-2.1310 Y1.2479  
G01 X-2.1314 Y1.2475  
G01 X-2.1326 Y1.2457  
G01 X-2.1888 Y1.1674  
G01 X-2.2904 Y1.2008  
G01 X-2.2920 Y1.2014  
G01 X-2.2930 Y1.2016  
G01 X-2.2940 Y1.2020  
G01 X-2.2956 Y1.2022  
G01 X-2.2973 Y1.2025  
G01 X-2.2983 Y1.2025  
G01 X-2.2994 Y1.2026  
G01 X-2.3010 Y1.2025  
G01 X-2.4589 Y1.2025  
G01 X-2.5807 Y1.3196  
G01 X-2.5825 Y1.3214  
G01 X-2.5827 Y1.3215  
G01 X-2.5829 Y1.3217  
G01 X-2.5849 Y1.3230  
G01 X-2.5870 Y1.3244  
G01 X-2.5872 Y1.3245  
G01 X-2.5875 Y1.3246  
G01 X-2.5897 Y1.3255  
G01 X-2.5920 Y1.3264  
G01 X-2.5922 Y1.3265  
G01 X-2.5925 Y1.3266  
G01 X-2.5949 Y1.3270  
G01 X-2.5973 Y1.3275  
G01 X-2.5976 Y1.3275  
G01 X-2.5978 Y1.3275  
G01 X-2.6003 Y1.3275  
G01 X-2.6225 Y1.3275  
G01 X-2.6225 Y1.5386  
G01 X-2.5825 Y1.5786  
G01 X-2.5786 Y1.5825  
G01 X-2.5756 Y1.5870  
G01 X-2.5736 Y1.5920  
G01 X-2.5725 Y1.5973  
G01 X-2.5725 Y1.6225  
G01 X-2.4444 Y1.6225  
G01 X-2.4415 Y1.6205  
G01 X-2.4354 Y1.6180  
G01 X-2.4290 Y1.6168  
G01 X-2.3761 Y1.6168  
G01 X-2.1512 Y1.5686  
G01 X-2.1512 Y1.5648  
G01 X-2.1501 Y1.5620  
G01 X-2.1480 Y1.5599  
G01 X-2.1452 Y1.5588  
G01 X-2.0948 Y1.5588  
G01 X-2.0920 Y1.5599  
G01 X-2.0899 Y1.5620  
G01 X-2.0888 Y1.5648  
G01 X-2.0888 Y1.6152  
G01 X-2.0899 Y1.6180  
G01 X-2.0920 Y1.6201  
G01 X-2.0948 Y1.6212  
G01 X-2.1346 Y1.6212  
G01 X-2.3452 Y1.6664  
G01 X-2.3484 Y1.6712  
G01 X-2.3531 Y1.6758  
G01 X-2.3585 Y1.6795  
G01 X-2.3646 Y1.6820  
G01 X-2.3710 Y1.6832  
G01 X-2.4290 Y1.6832  
G01 X-2.4354 Y1.6820  
G01 X-2.4415 Y1.6795  
G01 X-2.4444 Y1.6775  
G01 X-2.5801 Y1.6775  
G01 X-2.5861 Y1.6835  
G01 X-2.6139 Y1.6835  
G01 X-2.6335 Y1.6639  
G01 X-2.6335 Y1.6361  
G01 X-2.6275 Y1.6301  
G01 X-2.6275 Y1.6114  
G01 X-2.6714 Y1.5675  
G01 X-2.6744 Y1.5630  
G01 X-2.6764 Y1.5580  
G01 X-2.6775 Y1.5527  
G01 X-2.6775 Y1.3275  
G01 X-2.9701 Y1.3275  
G01 X-2.9761 Y1.3335  
G01 X-3.0039 Y1.3335  
G01 X-3.0099 Y1.3275  
G01 X-3.0627 Y1.3275  
G01 X-3.0680 Y1.3264  
G01 X-3.0730 Y1.3244  
G01 X-3.0775 Y1.3214  
G01 X-3.0814 Y1.3175  
G01 X-3.0841 Y1.3135  
G01 X-3.1093 Y1.3135  
G01 X-3.1158 Y1.3122  
G01 X-3.1219 Y1.3097  
G01 X-3.1274 Y1.3060  
G01 X-3.1320 Y1.3014  
G01 X-3.1357 Y1.2959  
G01 X-3.1382 Y1.2898  
G01 X-3.1395 Y1.2833  
G01 X-3.1395 Y1.2767  
G01 X-3.1382 Y1.2702  
G01 X-3.1357 Y1.2641  
G01 X-3.1320 Y1.2586  
G01 X-3.1274 Y1.2540  
G01 X-3.1219 Y1.2503  
G01 X-3.1158 Y1.2478  
G01 X-3.1093 Y1.2465  
G01 X-3.0507 Y1.2465  
G01 X-3.0442 Y1.2478  
G01 X-3.0381 Y1.2503  
G01 X-3.0326 Y1.2540  
G01 X-3.0280 Y1.2586  
G01 X-3.0243 Y1.2641  
G01 X-3.0218 Y1.2702  
G01 X-3.0213 Y1.2725  
G01 X-3.0099 Y1.2725  
G01 X-3.0039 Y1.2665  
G01 X-2.9761 Y1.2665  
G01 X-2.9701 Y1.2725  
G01 X-2.7575 Y1.2725  
G01 X-2.7575 Y1.0807  
G01 X-2.7576 Y1.0786  
G01 X-2.7575 Y1.0780  
G01 X-2.7575 Y1.0773  
G01 X-2.7571 Y1.0753  
G01 X-2.7568 Y1.0733  
G01 X-2.7566 Y1.0726  
G01 X-2.7564 Y1.0720  
G01 X-2.7557 Y1.0701  
G01 X-2.7550 Y1.0682  
G01 X-2.7546 Y1.0676  
G01 X-2.7544 Y1.0670  
G01 X-2.7532 Y1.0653  
G01 X-2.7275 Y1.0224  
G01 X-2.7275 Y0.9451  
G01 X-2.7297 Y0.9419  
G01 X-2.7322 Y0.9358  
G01 X-2.7335 Y0.9293  
G01 X-2.7335 Y0.8707  
G01 X-2.7322 Y0.8642  
G01 X-2.7297 Y0.8581  
G01 X-2.7260 Y0.8526  
G01 X-2.7214 Y0.8480  
G01 X-2.7159 Y0.8443  
G01 X-2.7098 Y0.8418  
G01 X-2.7033 Y0.8405  
G01 X-2.6967 Y0.8405  
G01 X-2.6902 Y0.8418  
G01 X-2.6841 Y0.8443  
G01 X-2.6786 Y0.8480  
G01 X-2.6740 Y0.8526  
G01 X-2.6703 Y0.8581  
G01 X-2.6678 Y0.8642  
G01 X-2.6665 Y0.8707  
G01 X-2.6665 Y0.9293  
G01 X-2.6678 Y0.9358  
G01 X-2.6703 Y0.9419  
G01 X-2.6725 Y0.9451  
G01 X-2.6725 Y1.0293  
G01 X-2.6724 Y1.0314  
G01 X-2.6725 Y1.0320  
G01 X-2.6725 Y1.0327  
G01 X-2.6729 Y1.0347  
G01 X-2.6732 Y1.0367  
G01 X-2.6734 Y1.0374  
G01 X-2.6736 Y1.0380  
G01 X-2.6743 Y1.0399  
G01 X-2.6750 Y1.0418  
G01 X-2.6754 Y1.0424  
G01 X-2.6756 Y1.0430  
G01 X-2.6768 Y1.0447  
G01 X-2.7025 Y1.0876  
G01 X-2.7025 Y1.2725  
G01 X-2.6111 Y1.2725  
G01 X-2.4893 Y1.1554  
G01 X-2.4875 Y1.1536  
G01 X-2.4873 Y1.1535  
G01 X-2.4871 Y1.1533  
G01 X-2.4851 Y1.1520  
G01 X-2.4830 Y1.1506  
G01 X-2.4828 Y1.1505  
G01 X-2.4825 Y1.1504  
G01 X-2.4803 Y1.1495  
G01 X-2.4780 Y1.1486  
G01 X-2.4778 Y1.1485  
G01 X-2.4775 Y1.1484  
G01 X-2.4751 Y1.1480  
G01 X-2.4727 Y1.1475  
G01 X-2.4724 Y1.1475  
G01 X-2.4722 Y1.1475  
G01 X-2.4697 Y1.1475  
G01 X-2.3044 Y1.1475  
G01 X-2.1908 Y1.1101  
G01 X-2.0585 Y1.0152  
G01 X-2.0585 Y1.0111  
G01 X-2.0389 Y0.9915  
G01 X-2.0111 Y0.9915  
G01 X-1.9915 Y1.0111  
G01 X-1.9915 Y1.0389  
G01 X-2.0111 Y1.0585  
G01 X-2.0245 Y1.0585  
G01 X-2.1398 Y1.1412  
G01 X-2.0959 Y1.2025  
G01 X-1.9679 Y1.2025  
G01 X-1.8946 Y1.1567  
G01 X-1.8924 Y1.1553  
G01 X-1.8923 Y1.1552  
G01 X-1.8898 Y1.1543  
G01 X-1.8874 Y1.1534  
G01 X-1.8872 Y1.1533  
G01 X-1.8846 Y1.1529  
G01 X-1.8821 Y1.1524  
G01 X-1.8819 Y1.1524  
G01 X-1.8793 Y1.1525  
G01 X-1.4653 Y1.1624  
G01 X-1.2805 Y1.0832  
G01 X-1.2639 Y1.0665  
G01 X-1.2361 Y1.0665  
G01 X-1.2165 Y1.0861  
G01 X-1.2165 Y1.0912  
G01 X-1.1506 Y1.1425  
G01 X-1.0484 Y1.1425  
G01 X-1.0275 Y1.1156  
G01 X-1.0275 Y0.9591  
G01 X-1.0297 Y0.9559  
G01 X-1.0322 Y0.9498  
G01 X-1.0335 Y0.9433  
G01 X-1.0335 Y0.9367  
G01 X-1.0322 Y0.9302  
G01 X-1.0297 Y0.9241  
G01 X-1.0260 Y0.9186  
G01 X-1.0214 Y0.9140  
G01 X-1.0159 Y0.9103  
G01 X-1.0098 Y0.9078  
G01 X-1.0033 Y0.9065  
G01 X-0.9967 Y0.9065  
G01 X-0.9902 Y0.9078  
G01 X-0.9841 Y0.9103  
G01 X-0.9786 Y0.9140  
G01 X-0.9740 Y0.9186  
G00 Z0.0500  
G00 X-0.9786 Y0.8660  
G01 Z-0.0035 F10    
G01 X-0.9841 Y0.8697  F20    
G01 X-0.9902 Y0.8722  
G01 X-0.9967 Y0.8735  
G01 X-1.0033 Y0.8735  
G01 X-1.0098 Y0.8722  
G01 X-1.0159 Y0.8697  
G01 X-1.0214 Y0.8660  
G01 X-1.0242 Y0.8632  
G01 X-1.0589 Y0.8563  
G01 X-1.0611 Y0.8585  
G01 X-1.0889 Y0.8585  
G01 X-1.1085 Y0.8389  
G01 X-1.1085 Y0.8111  
G01 X-1.0889 Y0.7915  
G01 X-1.0611 Y0.7915  
G01 X-1.0508 Y0.8018  
G01 X-1.0134 Y0.8093  
G01 X-1.0098 Y0.8078  
G01 X-1.0033 Y0.8065  
G01 X-0.9967 Y0.8065  
G01 X-0.9902 Y0.8078  
G01 X-0.9841 Y0.8103  
G01 X-0.9786 Y0.8140  
G01 X-0.9740 Y0.8186  
G01 X-0.9703 Y0.8241  
G01 X-0.9678 Y0.8302  
G01 X-0.9665 Y0.8367  
G01 X-0.9665 Y0.8433  
G01 X-0.9678 Y0.8498  
G01 X-0.9703 Y0.8559  
G01 X-0.9740 Y0.8614  
G01 X-0.9786 Y0.8660  
G00 Z0.0500  
G00 X-0.9786 Y0.6660  
G01 Z-0.0035 F10    
G01 X-0.9841 Y0.6697  F20    
G01 X-0.9902 Y0.6722  
G01 X-0.9967 Y0.6735  
G01 X-1.0033 Y0.6735  
G01 X-1.0098 Y0.6722  
G01 X-1.0159 Y0.6697  
G01 X-1.0214 Y0.6660  
G01 X-1.0260 Y0.6614  
G01 X-1.0297 Y0.6559  
G01 X-1.0322 Y0.6498  
G01 X-1.0335 Y0.6433  
G01 X-1.0335 Y0.6367  
G01 X-1.0322 Y0.6302  
G01 X-1.0297 Y0.6241  
G01 X-1.0260 Y0.6186  
G01 X-1.0214 Y0.6140  
G01 X-1.0159 Y0.6103  
G01 X-1.0098 Y0.6078  
G01 X-1.0033 Y0.6065  
G01 X-0.9967 Y0.6065  
G01 X-0.9902 Y0.6078  
G01 X-0.9841 Y0.6103  
G01 X-0.9786 Y0.6140  
G01 X-0.9740 Y0.6186  
G01 X-0.9703 Y0.6241  
G01 X-0.9678 Y0.6302  
G01 X-0.9665 Y0.6367  
G01 X-0.9665 Y0.6433  
G01 X-0.9678 Y0.6498  
G01 X-0.9703 Y0.6559  
G01 X-0.9740 Y0.6614  
G01 X-0.9786 Y0.6660  
G00 Z0.0500  
G00 X-1.2165 Y0.9861  
G01 Z-0.0035 F10    
G01 X-1.2165 Y1.0139  F20    
G01 X-1.2361 Y1.0335  
G01 X-1.2639 Y1.0335  
G01 X-1.2742 Y1.0232  
G01 X-1.3034 Y1.0174  
G01 X-1.3040 Y1.0173  
G01 X-1.3060 Y1.0168  
G01 X-1.3080 Y1.0164  
G01 X-1.3087 Y1.0162  
G01 X-1.3648 Y1.0022  
G01 X-1.3661 Y1.0035  
G01 X-1.3939 Y1.0035  
G01 X-1.3982 Y0.9992  
G01 X-1.7250 Y1.0272  
G01 X-1.7387 Y1.0311  
G01 X-1.7511 Y1.0435  
G01 X-1.7789 Y1.0435  
G01 X-1.7985 Y1.0239  
G01 X-1.7985 Y0.9961  
G01 X-1.7789 Y0.9765  
G01 X-1.7511 Y0.9765  
G01 X-1.7504 Y0.9772  
G01 X-1.7376 Y0.9736  
G01 X-1.7350 Y0.9728  
G01 X-1.7323 Y0.9726  
G01 X-1.4016 Y0.9443  
G01 X-1.3939 Y0.9365  
G01 X-1.3661 Y0.9365  
G01 X-1.3546 Y0.9480  
G01 X-1.2940 Y0.9632  
G01 X-1.2661 Y0.9687  
G01 X-1.2639 Y0.9665  
G01 X-1.2361 Y0.9665  
G01 X-1.2165 Y0.9861  
G00 Z0.0500  
G00 X-1.4665 Y1.0861  
G01 Z-0.0035 F10    
G01 X-1.4665 Y1.1139  F20    
G01 X-1.4861 Y1.1335  
G01 X-1.5139 Y1.1335  
G01 X-1.5199 Y1.1275  
G01 X-1.6001 Y1.1275  
G01 X-1.6061 Y1.1335  
G01 X-1.6339 Y1.1335  
G01 X-1.6414 Y1.1259  
G01 X-1.7966 Y1.1140  
G01 X-1.8011 Y1.1185  
G01 X-1.8289 Y1.1185  
G01 X-1.8485 Y1.0989  
G01 X-1.8485 Y1.0711  
G01 X-1.8289 Y1.0515  
G01 X-1.8011 Y1.0515  
G01 X-1.7936 Y1.0591  
G01 X-1.6384 Y1.0710  
G01 X-1.6339 Y1.0665  
G01 X-1.6061 Y1.0665  
G01 X-1.6001 Y1.0725  
G01 X-1.5199 Y1.0725  
G01 X-1.5139 Y1.0665  
G01 X-1.4861 Y1.0665  
G01 X-1.4665 Y1.0861  
G00 Z0.0500  
G00 X-1.4740 Y1.3786  
G01 Z-0.0035 F10    
G01 X-1.4703 Y1.3841  F20    
G01 X-1.4678 Y1.3902  
G01 X-1.4665 Y1.3967  
G01 X-1.4665 Y1.4033  
G01 X-1.4678 Y1.4098  
G01 X-1.4703 Y1.4159  
G01 X-1.4740 Y1.4214  
G01 X-1.4786 Y1.4260  
G01 X-1.4841 Y1.4297  
G01 X-1.4902 Y1.4322  
G01 X-1.4967 Y1.4335  
G01 X-1.5033 Y1.4335  
G01 X-1.5098 Y1.4322  
G01 X-1.5159 Y1.4297  
G01 X-1.5214 Y1.4260  
G01 X-1.5260 Y1.4214  
G01 X-1.5297 Y1.4159  
G01 X-1.5322 Y1.4098  
G01 X-1.5335 Y1.4033  
G01 X-1.5335 Y1.3967  
G01 X-1.5322 Y1.3902  
G01 X-1.5297 Y1.3841  
G01 X-1.5260 Y1.3786  
G01 X-1.5214 Y1.3740  
G01 X-1.5159 Y1.3703  
G01 X-1.5098 Y1.3678  
G01 X-1.5033 Y1.3665  
G01 X-1.4967 Y1.3665  
G01 X-1.4902 Y1.3678  
G01 X-1.4841 Y1.3703  
G01 X-1.4786 Y1.3740  
G01 X-1.4740 Y1.3786  
G00 Z0.0500  
G00 X-1.5136 Y1.4475  
G01 Z-0.0035 F10    
G01 X-1.3689 Y1.4475  F20    
G01 X-1.3335 Y1.3992  
G01 X-1.3335 Y1.3967  
G01 X-1.3322 Y1.3902  
G01 X-1.3297 Y1.3841  
G01 X-1.3260 Y1.3786  
G01 X-1.3214 Y1.3740  
G01 X-1.3159 Y1.3703  
G01 X-1.3098 Y1.3678  
G01 X-1.3033 Y1.3665  
G01 X-1.2967 Y1.3665  
G01 X-1.2902 Y1.3678  
G01 X-1.2841 Y1.3703  
G01 X-1.2786 Y1.3740  
G01 X-1.2740 Y1.3786  
G01 X-1.2703 Y1.3841  
G01 X-1.2678 Y1.3902  
G01 X-1.2665 Y1.3967  
G01 X-1.2665 Y1.4033  
G01 X-1.2678 Y1.4098  
G01 X-1.2703 Y1.4159  
G01 X-1.2740 Y1.4214  
G01 X-1.2786 Y1.4260  
G01 X-1.2841 Y1.4297  
G01 X-1.2892 Y1.4318  
G01 X-1.3325 Y1.4908  
G01 X-1.3336 Y1.4925  
G01 X-1.3341 Y1.4930  
G01 X-1.3344 Y1.4934  
G01 X-1.3360 Y1.4949  
G01 X-1.3375 Y1.4964  
G01 X-1.3380 Y1.4967  
G01 X-1.3384 Y1.4971  
G01 X-1.3402 Y1.4982  
G01 X-1.3420 Y1.4994  
G01 X-1.3425 Y1.4996  
G01 X-1.3431 Y1.4999  
G01 X-1.3450 Y1.5006  
G01 X-1.3470 Y1.5014  
G01 X-1.3476 Y1.5016  
G01 X-1.3481 Y1.5018  
G01 X-1.3502 Y1.5021  
G01 X-1.3523 Y1.5025  
G01 X-1.3529 Y1.5025  
G01 X-1.3535 Y1.5026  
G01 X-1.3556 Y1.5025  
G01 X-1.5277 Y1.5025  
G01 X-1.5330 Y1.5014  
G01 X-1.5380 Y1.4994  
G01 X-1.5425 Y1.4964  
G01 X-1.6176 Y1.4213  
G01 X-1.6195 Y1.4194  
G01 X-1.6214 Y1.4175  
G01 X-1.6229 Y1.4152  
G01 X-1.6244 Y1.4130  
G01 X-1.6244 Y1.4129  
G01 X-1.6254 Y1.4105  
G01 X-1.6264 Y1.4080  
G01 X-1.6374 Y1.3811  
G01 X-1.6451 Y1.3821  
G01 X-1.6865 Y1.3918  
G01 X-1.6865 Y1.4039  
G01 X-1.7061 Y1.4235  
G01 X-1.7339 Y1.4235  
G01 X-1.7436 Y1.4138  
G01 X-1.8575 Y1.4897  
G01 X-1.8575 Y1.6897  
G01 X-1.7819 Y1.7365  
G01 X-1.7661 Y1.7365  
G01 X-1.7465 Y1.7561  
G01 X-1.7465 Y1.7603  
G01 X-1.5911 Y1.8725  
G01 X-1.4699 Y1.8725  
G01 X-1.4639 Y1.8665  
G01 X-1.4361 Y1.8665  
G01 X-1.4165 Y1.8861  
G01 X-1.4165 Y1.9139  
G01 X-1.4361 Y1.9335  
G01 X-1.4639 Y1.9335  
G01 X-1.4699 Y1.9275  
G01 X-1.5978 Y1.9275  
G01 X-1.5983 Y1.9276  
G01 X-1.6005 Y1.9275  
G01 X-1.6027 Y1.9275  
G01 X-1.6032 Y1.9274  
G01 X-1.6037 Y1.9274  
G01 X-1.6059 Y1.9269  
G01 X-1.6080 Y1.9264  
G01 X-1.6085 Y1.9262  
G01 X-1.6090 Y1.9261  
G01 X-1.6110 Y1.9252  
G01 X-1.6130 Y1.9244  
G01 X-1.6134 Y1.9241  
G01 X-1.6139 Y1.9239  
G01 X-1.6157 Y1.9226  
G01 X-1.6175 Y1.9214  
G01 X-1.6179 Y1.9210  
G01 X-1.7806 Y1.8035  
G01 X-1.7939 Y1.8035  
G01 X-1.8135 Y1.7839  
G01 X-1.8135 Y1.7816  
G01 X-1.8976 Y1.7296  
G01 X-1.8980 Y1.7294  
G01 X-1.8999 Y1.7281  
G01 X-1.9018 Y1.7270  
G01 X-1.9021 Y1.7266  
G01 X-1.9025 Y1.7264  
G01 X-1.9041 Y1.7248  
G01 X-1.9057 Y1.7233  
G01 X-1.9060 Y1.7229  
G01 X-1.9064 Y1.7225  
G01 X-1.9076 Y1.7207  
G01 X-1.9089 Y1.7189  
G01 X-1.9091 Y1.7184  
G01 X-1.9094 Y1.7180  
G01 X-1.9102 Y1.7160  
G01 X-1.9111 Y1.7139  
G01 X-1.9113 Y1.7135  
G01 X-1.9114 Y1.7130  
G01 X-1.9119 Y1.7108  
G01 X-1.9124 Y1.7087  
G01 X-1.9124 Y1.7082  
G01 X-1.9125 Y1.7077  
G01 X-1.9125 Y1.7055  
G01 X-1.9126 Y1.7032  
G01 X-1.9125 Y1.7028  
G01 X-1.9125 Y1.4777  
G01 X-1.9125 Y1.4750  
G01 X-1.9125 Y1.4723  
G01 X-1.9120 Y1.4696  
G01 X-1.9114 Y1.4670  
G01 X-1.9104 Y1.4645  
G01 X-1.9094 Y1.4620  
G01 X-1.9079 Y1.4597  
G01 X-1.9064 Y1.4575  
G01 X-1.9045 Y1.4556  
G01 X-1.9025 Y1.4536  
G01 X-1.9003 Y1.4522  
G01 X-1.8980 Y1.4506  
G01 X-1.7507 Y1.3524  
G01 X-1.7489 Y1.3511  
G01 X-1.7484 Y1.3509  
G01 X-1.7480 Y1.3506  
G01 X-1.7460 Y1.3498  
G01 X-1.7439 Y1.3489  
G01 X-1.7435 Y1.3487  
G01 X-1.7430 Y1.3485  
G01 X-1.7408 Y1.3481  
G01 X-1.6576 Y1.3285  
G01 X-1.6562 Y1.3281  
G01 X-1.6549 Y1.3279  
G01 X-1.6537 Y1.3276  
G01 X-1.6523 Y1.3276  
G01 X-1.6422 Y1.3263  
G01 X-1.6338 Y1.3179  
G01 X-1.6062 Y1.3179  
G01 X-1.5868 Y1.3373  
G01 X-1.5868 Y1.3597  
G01 X-1.5766 Y1.3845  
G01 X-1.5136 Y1.4475  
G00 Z0.0500  
G00 X-1.5868 Y1.4751  
G01 Z-0.0035 F10    
G01 X-1.5868 Y1.5027  F20    
G01 X-1.5925 Y1.5084  
G01 X-1.5925 Y1.5225  
G01 X-1.1154 Y1.5225  
G01 X-1.1131 Y1.5224  
G01 X-1.1127 Y1.5225  
G01 X-1.1123 Y1.5225  
G01 X-1.1100 Y1.5230  
G01 X-1.1077 Y1.5233  
G01 X-1.1074 Y1.5235  
G01 X-1.1070 Y1.5236  
G01 X-1.1048 Y1.5244  
G01 X-1.1027 Y1.5253  
G01 X-1.1023 Y1.5255  
G01 X-1.1020 Y1.5256  
G01 X-1.1001 Y1.5269  
G01 X-1.0981 Y1.5281  
G01 X-1.0978 Y1.5284  
G01 X-1.0975 Y1.5286  
G01 X-1.0958 Y1.5303  
G01 X-1.0942 Y1.5319  
G01 X-1.0939 Y1.5322  
G01 X-1.0936 Y1.5325  
G01 X-1.0924 Y1.5344  
G01 X-1.0910 Y1.5363  
G01 X-1.0909 Y1.5366  
G01 X-1.0906 Y1.5370  
G01 X-1.0897 Y1.5391  
G01 X-1.0321 Y1.6677  
G01 X-1.0145 Y1.6853  
G01 X-1.0145 Y1.7147  
G01 X-1.0187 Y1.7189  
G01 X-1.0056 Y1.8070  
G01 X-0.9965 Y1.8161  
G01 X-0.9965 Y1.8439  
G01 X-1.0161 Y1.8635  
G01 X-1.0439 Y1.8635  
G01 X-1.0605 Y1.8468  
G01 X-1.0916 Y1.8335  
G01 X-1.1139 Y1.8335  
G01 X-1.1335 Y1.8139  
G01 X-1.1335 Y1.7861  
G01 X-1.1139 Y1.7665  
G01 X-1.0861 Y1.7665  
G01 X-1.0695 Y1.7832  
G01 X-1.0644 Y1.7853  
G01 X-1.0730 Y1.7272  
G01 X-1.0855 Y1.7147  
G01 X-1.0855 Y1.6853  
G01 X-1.0848 Y1.6846  
G01 X-1.1328 Y1.5775  
G01 X-1.5994 Y1.5775  
G01 X-1.6062 Y1.5844  
G01 X-1.6338 Y1.5844  
G01 X-1.6532 Y1.5649  
G01 X-1.6532 Y1.5373  
G01 X-1.6475 Y1.5316  
G01 X-1.6475 Y1.5084  
G01 X-1.6532 Y1.5027  
G01 X-1.6532 Y1.4751  
G01 X-1.6338 Y1.4556  
G01 X-1.6062 Y1.4556  
G01 X-1.5868 Y1.4751  
G00 Z0.0500  
G00 X-1.6189 Y1.5925  
G01 Z-0.0035 F10    
G01 X-1.2322 Y1.5925  F20    
G01 X-1.2318 Y1.5924  
G01 X-1.2295 Y1.5925  
G01 X-1.2273 Y1.5925  
G01 X-1.2268 Y1.5926  
G01 X-1.2264 Y1.5926  
G01 X-1.2242 Y1.5931  
G01 X-1.2220 Y1.5936  
G01 X-1.2215 Y1.5937  
G01 X-1.2211 Y1.5938  
G01 X-1.2190 Y1.5948  
G01 X-1.2170 Y1.5956  
G01 X-1.2166 Y1.5959  
G01 X-1.2162 Y1.5961  
G01 X-1.2143 Y1.5974  
G01 X-1.2125 Y1.5986  
G01 X-1.2121 Y1.5990  
G01 X-1.2118 Y1.5992  
G01 X-1.2102 Y1.6009  
G01 X-1.2086 Y1.6025  
G01 X-1.2084 Y1.6029  
G01 X-1.2081 Y1.6032  
G01 X-1.2069 Y1.6051  
G01 X-1.2056 Y1.6070  
G01 X-1.2054 Y1.6074  
G01 X-1.2052 Y1.6078  
G01 X-1.2044 Y1.6099  
G01 X-1.2036 Y1.6120  
G01 X-1.2035 Y1.6124  
G01 X-1.1810 Y1.6724  
G01 X-1.1786 Y1.6740  
G01 X-1.1740 Y1.6786  
G01 X-1.1703 Y1.6841  
G01 X-1.1678 Y1.6902  
G01 X-1.1665 Y1.6967  
G01 X-1.1665 Y1.7033  
G01 X-1.1678 Y1.7098  
G01 X-1.1703 Y1.7159  
G01 X-1.1712 Y1.7172  
G01 X-1.1544 Y1.9525  
G01 X-1.0409 Y1.9525  
G01 X-1.0391 Y1.9524  
G01 X-1.0382 Y1.9525  
G01 X-1.0373 Y1.9525  
G01 X-1.0355 Y1.9528  
G01 X-1.0338 Y1.9531  
G01 X-1.0329 Y1.9534  
G01 X-1.0320 Y1.9536  
G01 X-1.0303 Y1.9542  
G01 X-1.0286 Y1.9548  
G01 X-1.0278 Y1.9553  
G01 X-1.0270 Y1.9556  
G01 X-1.0255 Y1.9566  
G01 X-1.0239 Y1.9575  
G01 X-1.0232 Y1.9581  
G01 X-1.0225 Y1.9586  
G01 X-1.0212 Y1.9599  
G01 X-0.9432 Y2.0281  
G01 X-0.9425 Y2.0286  
G01 X-0.9412 Y2.0299  
G01 X-0.9399 Y2.0311  
G01 X-0.9393 Y2.0318  
G01 X-0.9386 Y2.0325  
G01 X-0.9376 Y2.0340  
G01 X-0.9366 Y2.0354  
G01 X-0.9361 Y2.0362  
G01 X-0.9356 Y2.0370  
G01 X-0.9349 Y2.0386  
G01 X-0.9341 Y2.0402  
G01 X-0.9339 Y2.0411  
G01 X-0.9336 Y2.0420  
G01 X-0.9332 Y2.0437  
G01 X-0.9327 Y2.0455  
G01 X-0.9327 Y2.0464  
G01 X-0.9325 Y2.0473  
G01 X-0.9325 Y2.0491  
G01 X-0.9324 Y2.0509  
G01 X-0.9325 Y2.0518  
G01 X-0.9325 Y2.6985  
G01 X-0.9324 Y2.6998  
G01 X-0.9325 Y2.7012  
G01 X-0.9325 Y2.7027  
G01 X-0.9327 Y2.7039  
G01 X-0.9329 Y2.7052  
G01 X-0.9333 Y2.7066  
G01 X-0.9336 Y2.7080  
G01 X-0.9340 Y2.7092  
G01 X-0.9344 Y2.7104  
G01 X-0.9351 Y2.7117  
G01 X-0.9356 Y2.7130  
G01 X-0.9363 Y2.7141  
G01 X-0.9369 Y2.7152  
G01 X-0.9378 Y2.7163  
G01 X-0.9386 Y2.7175  
G01 X-0.9395 Y2.7184  
G01 X-0.9403 Y2.7194  
G01 X-0.9414 Y2.7203  
G01 X-0.9425 Y2.7214  
G01 X-0.9435 Y2.7221  
G01 X-1.0014 Y2.7703  
G01 X-1.0025 Y2.7714  
G01 X-1.0035 Y2.7721  
G01 X-1.0045 Y2.7729  
G01 X-1.0058 Y2.7736  
G01 X-1.0070 Y2.7744  
G01 X-1.0081 Y2.7748  
G01 X-1.0092 Y2.7754  
G01 X-1.0106 Y2.7759  
G01 X-1.0120 Y2.7764  
G01 X-1.0132 Y2.7767  
G01 X-1.0144 Y2.7771  
G01 X-1.0159 Y2.7772  
G01 X-1.0173 Y2.7775  
G01 X-1.0185 Y2.7775  
G01 X-1.0198 Y2.7776  
G01 X-1.0212 Y2.7775  
G01 X-1.1794 Y2.7775  
G01 X-1.2711 Y2.8600  
G01 X-1.2725 Y2.8614  
G01 X-1.2731 Y2.8618  
G01 X-1.2736 Y2.8623  
G01 X-1.2753 Y2.8633  
G01 X-1.2770 Y2.8644  
G01 X-1.2776 Y2.8646  
G01 X-1.2783 Y2.8650  
G01 X-1.2801 Y2.8657  
G01 X-1.2820 Y2.8664  
G01 X-1.2827 Y2.8666  
G01 X-1.2834 Y2.8668  
G01 X-1.2853 Y2.8671  
G01 X-1.2873 Y2.8675  
G01 X-1.2880 Y2.8675  
G01 X-1.2887 Y2.8676  
G01 X-1.2907 Y2.8675  
G01 X-1.4555 Y2.8675  
G01 X-1.4555 Y2.8684  
G01 X-1.4725 Y2.8854  
G01 X-1.4725 Y2.9146  
G01 X-1.4646 Y2.9225  
G01 X-0.8399 Y2.9225  
G01 X-0.8339 Y2.9165  
G01 X-0.8061 Y2.9165  
G01 X-0.7865 Y2.9361  
G01 X-0.7865 Y2.9639  
G01 X-0.8061 Y2.9835  
G01 X-0.8339 Y2.9835  
G01 X-0.8399 Y2.9775  
G01 X-1.4646 Y2.9775  
G01 X-1.4816 Y2.9945  
G01 X-1.5184 Y2.9945  
G01 X-1.5445 Y2.9684  
G01 X-1.5445 Y2.9316  
G01 X-1.5275 Y2.9146  
G01 X-1.5275 Y2.8854  
G01 X-1.5445 Y2.8684  
G01 X-1.5445 Y2.8316  
G01 X-1.5184 Y2.8055  
G01 X-1.4816 Y2.8055  
G01 X-1.4746 Y2.8125  
G01 X-1.3006 Y2.8125  
G01 X-1.2089 Y2.7300  
G01 X-1.2075 Y2.7286  
G01 X-1.2069 Y2.7282  
G01 X-1.2064 Y2.7277  
G01 X-1.2047 Y2.7267  
G01 X-1.2030 Y2.7256  
G01 X-1.2024 Y2.7254  
G01 X-1.2017 Y2.7250  
G01 X-1.1999 Y2.7243  
G01 X-1.1980 Y2.7236  
G01 X-1.1973 Y2.7234  
G01 X-1.1966 Y2.7232  
G01 X-1.1947 Y2.7229  
G01 X-1.1927 Y2.7225  
G01 X-1.1920 Y2.7225  
G01 X-1.1913 Y2.7224  
G01 X-1.1893 Y2.7225  
G01 X-1.0300 Y2.7225  
G01 X-0.9875 Y2.6871  
G01 X-0.9875 Y2.0625  
G01 X-1.0503 Y2.0075  
G01 X-1.1601 Y2.0075  
G01 X-1.1661 Y2.0135  
G01 X-1.1939 Y2.0135  
G01 X-1.2135 Y1.9939  
G01 X-1.2135 Y1.9661  
G01 X-1.2089 Y1.9615  
G01 X-1.2260 Y1.7213  
G01 X-1.2297 Y1.7159  
G01 X-1.2322 Y1.7098  
G01 X-1.2335 Y1.7033  
G01 X-1.2335 Y1.6967  
G01 X-1.2325 Y1.6917  
G01 X-1.2491 Y1.6475  
G01 X-1.6184 Y1.6475  
G01 X-1.6194 Y1.6476  
G01 X-1.6211 Y1.6475  
G01 X-1.6227 Y1.6475  
G01 X-1.6238 Y1.6473  
G01 X-1.7501 Y1.6376  
G01 X-1.7508 Y1.6376  
G01 X-1.7528 Y1.6374  
G01 X-1.7548 Y1.6372  
G01 X-1.7555 Y1.6370  
G01 X-1.7561 Y1.6369  
G01 X-1.7581 Y1.6363  
G01 X-1.7600 Y1.6358  
G01 X-1.7606 Y1.6354  
G01 X-1.8032 Y1.6212  
G01 X-1.8352 Y1.6212  
G01 X-1.8380 Y1.6201  
G01 X-1.8401 Y1.6180  
G01 X-1.8412 Y1.6152  
G01 X-1.8412 Y1.5648  
G01 X-1.8401 Y1.5620  
G01 X-1.8380 Y1.5599  
G01 X-1.8352 Y1.5588  
G01 X-1.7848 Y1.5588  
G01 X-1.7820 Y1.5599  
G01 X-1.7799 Y1.5620  
G01 X-1.7788 Y1.5648  
G01 X-1.7788 Y1.5714  
G01 X-1.7445 Y1.5828  
G01 X-1.6189 Y1.5925  
G00 Z0.0500  
G00 X-1.6062 Y1.6556  
G01 Z-0.0035 F10    
G01 X-1.5868 Y1.6751  F20    
G01 X-1.5868 Y1.6988  
G01 X-1.5854 Y1.7023  
G01 X-1.5553 Y1.7475  
G01 X-1.4606 Y1.7475  
G01 X-1.4335 Y1.7024  
G01 X-1.4335 Y1.6967  
G01 X-1.4322 Y1.6902  
G01 X-1.4297 Y1.6841  
G01 X-1.4260 Y1.6786  
G01 X-1.4214 Y1.6740  
G01 X-1.4159 Y1.6703  
G01 X-1.4098 Y1.6678  
G01 X-1.4033 Y1.6665  
G01 X-1.3967 Y1.6665  
G01 X-1.3902 Y1.6678  
G01 X-1.3841 Y1.6703  
G01 X-1.3786 Y1.6740  
G01 X-1.3740 Y1.6786  
G01 X-1.3703 Y1.6841  
G01 X-1.3678 Y1.6902  
G01 X-1.3665 Y1.6967  
G01 X-1.3665 Y1.7033  
G01 X-1.3678 Y1.7098  
G01 X-1.3703 Y1.7159  
G01 X-1.3740 Y1.7214  
G01 X-1.3786 Y1.7260  
G01 X-1.3841 Y1.7297  
G01 X-1.3863 Y1.7306  
G01 X-1.4204 Y1.7874  
G01 X-1.4206 Y1.7880  
G01 X-1.4218 Y1.7897  
G01 X-1.4228 Y1.7915  
G01 X-1.4233 Y1.7920  
G01 X-1.4236 Y1.7925  
G01 X-1.4251 Y1.7940  
G01 X-1.4265 Y1.7955  
G01 X-1.4270 Y1.7959  
G01 X-1.4275 Y1.7964  
G01 X-1.4292 Y1.7975  
G01 X-1.4308 Y1.7987  
G01 X-1.4314 Y1.7990  
G01 X-1.4320 Y1.7994  
G01 X-1.4339 Y1.8002  
G01 X-1.4357 Y1.8010  
G01 X-1.4364 Y1.8012  
G01 X-1.4370 Y1.8014  
G01 X-1.4390 Y1.8018  
G01 X-1.4410 Y1.8023  
G01 X-1.4416 Y1.8024  
G01 X-1.4423 Y1.8025  
G01 X-1.4443 Y1.8025  
G01 X-1.4464 Y1.8026  
G01 X-1.4470 Y1.8025  
G01 X-1.5673 Y1.8025  
G01 X-1.5700 Y1.8025  
G01 X-1.5727 Y1.8025  
G01 X-1.5754 Y1.8020  
G01 X-1.5780 Y1.8014  
G01 X-1.5805 Y1.8004  
G01 X-1.5830 Y1.7994  
G01 X-1.5853 Y1.7979  
G01 X-1.5875 Y1.7964  
G01 X-1.5894 Y1.7945  
G01 X-1.5914 Y1.7925  
G01 X-1.5928 Y1.7903  
G01 X-1.5944 Y1.7880  
G01 X-1.6305 Y1.7338  
G01 X-1.6453 Y1.7219  
G01 X-1.7013 Y1.7186  
G01 X-1.7061 Y1.7235  
G01 X-1.7339 Y1.7235  
G01 X-1.7535 Y1.7039  
G01 X-1.7535 Y1.6761  
G01 X-1.7339 Y1.6565  
G01 X-1.7061 Y1.6565  
G01 X-1.6989 Y1.6637  
G01 X-1.6450 Y1.6669  
G01 X-1.6338 Y1.6556  
G01 X-1.6062 Y1.6556  
G00 Z0.0500  
G00 X-1.5214 Y1.6740  
G01 Z-0.0035 F10    
G01 X-1.5159 Y1.6703  F20    
G01 X-1.5098 Y1.6678  
G01 X-1.5033 Y1.6665  
G01 X-1.4967 Y1.6665  
G01 X-1.4902 Y1.6678  
G01 X-1.4841 Y1.6703  
G01 X-1.4786 Y1.6740  
G01 X-1.4740 Y1.6786  
G01 X-1.4703 Y1.6841  
G01 X-1.4678 Y1.6902  
G01 X-1.4665 Y1.6967  
G01 X-1.4665 Y1.7033  
G01 X-1.4678 Y1.7098  
G01 X-1.4703 Y1.7159  
G01 X-1.4740 Y1.7214  
G01 X-1.4786 Y1.7260  
G01 X-1.4841 Y1.7297  
G01 X-1.4902 Y1.7322  
G01 X-1.4967 Y1.7335  
G01 X-1.5033 Y1.7335  
G01 X-1.5098 Y1.7322  
G01 X-1.5159 Y1.7297  
G01 X-1.5214 Y1.7260  
G01 X-1.5260 Y1.7214  
G01 X-1.5297 Y1.7159  
G01 X-1.5322 Y1.7098  
G01 X-1.5335 Y1.7033  
G01 X-1.5335 Y1.6967  
G01 X-1.5322 Y1.6902  
G01 X-1.5297 Y1.6841  
G01 X-1.5260 Y1.6786  
G01 X-1.5214 Y1.6740  
G00 Z0.0500  
G00 X-1.5740 Y1.9526  
G01 Z-0.0035 F10    
G01 X-1.5703 Y1.9581  F20    
G01 X-1.5678 Y1.9642  
G01 X-1.5665 Y1.9707  
G01 X-1.5665 Y1.9847  
G01 X-1.3394 Y2.0846  
G01 X-1.2694 Y2.1126  
G01 X-1.2659 Y2.1103  
G01 X-1.2598 Y2.1078  
G01 X-1.2533 Y2.1065  
G01 X-1.2467 Y2.1065  
G01 X-1.2402 Y2.1078  
G01 X-1.2341 Y2.1103  
G01 X-1.2286 Y2.1140  
G01 X-1.2240 Y2.1186  
G01 X-1.2203 Y2.1241  
G01 X-1.2178 Y2.1302  
G01 X-1.2165 Y2.1367  
G01 X-1.2165 Y2.1433  
G01 X-1.2178 Y2.1498  
G01 X-1.2179 Y2.1500  
G01 X-1.1780 Y2.2165  
G01 X-1.1761 Y2.2165  
G01 X-1.1565 Y2.2361  
G01 X-1.1565 Y2.2639  
G01 X-1.1761 Y2.2835  
G01 X-1.2039 Y2.2835  
G01 X-1.2235 Y2.2639  
G01 X-1.2235 Y2.2476  
G01 X-1.2688 Y2.1721  
G01 X-1.3581 Y2.1364  
G01 X-1.3586 Y2.1363  
G01 X-1.3606 Y2.1354  
G01 X-1.3627 Y2.1345  
G01 X-1.3631 Y2.1343  
G01 X-1.5710 Y2.0428  
G01 X-1.5740 Y2.0474  
G01 X-1.5786 Y2.0520  
G01 X-1.5841 Y2.0557  
G01 X-1.5902 Y2.0582  
G01 X-1.5967 Y2.0595  
G01 X-1.6033 Y2.0595  
G01 X-1.6098 Y2.0582  
G01 X-1.6159 Y2.0557  
G01 X-1.6214 Y2.0520  
G01 X-1.6260 Y2.0474  
G01 X-1.6297 Y2.0419  
G01 X-1.6322 Y2.0358  
G01 X-1.6335 Y2.0293  
G01 X-1.6335 Y1.9707  
G01 X-1.6322 Y1.9642  
G01 X-1.6297 Y1.9581  
G01 X-1.6260 Y1.9526  
G01 X-1.6214 Y1.9480  
G01 X-1.6159 Y1.9443  
G01 X-1.6098 Y1.9418  
G01 X-1.6033 Y1.9405  
G01 X-1.5967 Y1.9405  
G01 X-1.5902 Y1.9418  
G01 X-1.5841 Y1.9443  
G01 X-1.5786 Y1.9480  
G01 X-1.5740 Y1.9526  
G00 Z0.0500  
G00 X-1.7465 Y1.9561  
G01 Z-0.0035 F10    
G01 X-1.7465 Y1.9839  F20    
G01 X-1.7661 Y2.0035  
G01 X-1.7807 Y2.0035  
G01 X-1.7939 Y2.0123  
G01 X-1.7953 Y2.0134  
G01 X-1.7962 Y2.0138  
G01 X-1.7970 Y2.0144  
G01 X-1.7986 Y2.0150  
G01 X-1.8167 Y2.0241  
G01 X-1.8361 Y2.0435  
G01 X-1.8639 Y2.0435  
G01 X-1.8835 Y2.0239  
G01 X-1.8835 Y1.9961  
G01 X-1.8639 Y1.9765  
G01 X-1.8445 Y1.9765  
G01 X-1.8238 Y1.9662  
G01 X-1.8135 Y1.9593  
G01 X-1.8135 Y1.9561  
G01 X-1.7939 Y1.9365  
G01 X-1.7661 Y1.9365  
G01 X-1.7465 Y1.9561  
G00 Z0.0500  
G00 X-1.8365 Y2.1561  
G01 Z-0.0035 F10    
G01 X-1.8365 Y2.1839  F20    
G01 X-1.8442 Y2.1916  
G01 X-1.8520 Y2.2846  
G01 X-1.8359 Y2.3167  
G01 X-1.8165 Y2.3361  
G01 X-1.8165 Y2.3639  
G01 X-1.8361 Y2.3835  
G01 X-1.8376 Y2.3835  
G01 X-1.9225 Y2.5311  
G01 X-1.9261 Y2.5351  
G01 X-1.9304 Y2.5384  
G01 X-1.9315 Y2.5390  
G01 X-1.9315 Y2.5639  
G01 X-1.9511 Y2.5835  
G01 X-1.9789 Y2.5835  
G01 X-1.9985 Y2.5639  
G01 X-1.9985 Y2.5361  
G01 X-1.9789 Y2.5165  
G01 X-1.9729 Y2.5165  
G01 X-1.9725 Y2.5158  
G01 X-1.9726 Y2.5141  
G01 X-1.9719 Y2.5088  
G01 X-1.9702 Y2.5036  
G01 X-1.8835 Y2.3531  
G01 X-1.8835 Y2.3445  
G01 X-1.9043 Y2.3028  
G01 X-1.9054 Y2.3010  
G01 X-1.9055 Y2.3004  
G01 X-1.9058 Y2.2999  
G01 X-1.9064 Y2.2978  
G01 X-1.9070 Y2.2958  
G01 X-1.9071 Y2.2952  
G01 X-1.9072 Y2.2947  
G01 X-1.9074 Y2.2925  
G01 X-1.9076 Y2.2904  
G01 X-1.9076 Y2.2898  
G01 X-1.9076 Y2.2892  
G01 X-1.9074 Y2.2871  
G01 X-1.8991 Y2.1883  
G01 X-1.9035 Y2.1839  
G01 X-1.9035 Y2.1561  
G01 X-1.8839 Y2.1365  
G01 X-1.8561 Y2.1365  
G01 X-1.8365 Y2.1561  
G00 Z0.0500  
G00 X-2.0365 Y2.1561  
G01 Z-0.0035 F10    
G01 X-2.0365 Y2.1839  F20    
G01 X-2.0561 Y2.2035  
G01 X-2.0839 Y2.2035  
G01 X-2.0906 Y2.1968  
G01 X-2.3209 Y2.1882  
G01 X-2.3261 Y2.1935  
G01 X-2.3539 Y2.1935  
G01 X-2.3735 Y2.1739  
G01 X-2.3735 Y2.1461  
G01 X-2.3539 Y2.1265  
G01 X-2.3261 Y2.1265  
G01 X-2.3194 Y2.1332  
G01 X-2.0891 Y2.1418  
G01 X-2.0839 Y2.1365  
G01 X-2.0561 Y2.1365  
G01 X-2.0365 Y2.1561  
G00 Z0.0500  
G00 X-2.0361 Y2.3165  
G01 Z-0.0035 F10    
G01 X-2.0165 Y2.3361  F20    
G01 X-2.0165 Y2.3639  
G01 X-2.0212 Y2.3686  
G01 X-2.0139 Y2.4788  
G01 X-2.0065 Y2.4861  
G01 X-2.0065 Y2.5139  
G01 X-2.0261 Y2.5335  
G01 X-2.0535 Y2.5335  
G01 X-2.1625 Y2.5698  
G01 X-2.1625 Y2.6786  
G01 X-2.0786 Y2.7625  
G01 X-2.0756 Y2.7670  
G01 X-2.0736 Y2.7720  
G01 X-2.0725 Y2.7773  
G01 X-2.0725 Y2.8146  
G01 X-2.0555 Y2.8316  
G01 X-2.0555 Y2.8684  
G01 X-2.0725 Y2.8854  
G01 X-2.0725 Y2.9146  
G01 X-2.0555 Y2.9316  
G01 X-2.0555 Y2.9684  
G01 X-2.0816 Y2.9945  
G01 X-2.1184 Y2.9945  
G01 X-2.1445 Y2.9684  
G01 X-2.1445 Y2.9316  
G01 X-2.1275 Y2.9146  
G01 X-2.1275 Y2.8854  
G01 X-2.1445 Y2.8684  
G01 X-2.1445 Y2.8316  
G01 X-2.1275 Y2.8146  
G01 X-2.1275 Y2.7914  
G01 X-2.2075 Y2.7114  
G01 X-2.2114 Y2.7075  
G01 X-2.2144 Y2.7030  
G01 X-2.2164 Y2.6980  
G01 X-2.2175 Y2.6927  
G01 X-2.2175 Y2.5517  
G01 X-2.2176 Y2.5508  
G01 X-2.2175 Y2.5490  
G01 X-2.2175 Y2.5473  
G01 X-2.2173 Y2.5463  
G01 X-2.2172 Y2.5453  
G01 X-2.2168 Y2.5437  
G01 X-2.2164 Y2.5420  
G01 X-2.2161 Y2.5411  
G01 X-2.2158 Y2.5401  
G01 X-2.2150 Y2.5386  
G01 X-2.2144 Y2.5370  
G01 X-2.2138 Y2.5362  
G01 X-2.2134 Y2.5353  
G01 X-2.2123 Y2.5339  
G01 X-2.2114 Y2.5325  
G01 X-2.2107 Y2.5318  
G01 X-2.2101 Y2.5310  
G01 X-2.2088 Y2.5299  
G01 X-2.2075 Y2.5286  
G01 X-2.2067 Y2.5281  
G01 X-2.2060 Y2.5275  
G01 X-2.2045 Y2.5266  
G01 X-2.2030 Y2.5256  
G01 X-2.2021 Y2.5253  
G01 X-2.2013 Y2.5248  
G01 X-2.1996 Y2.5242  
G01 X-2.1980 Y2.5236  
G01 X-2.1971 Y2.5234  
G01 X-2.0689 Y2.4806  
G01 X-2.0761 Y2.3712  
G01 X-2.0835 Y2.3639  
G01 X-2.0835 Y2.3361  
G01 X-2.0639 Y2.3165  
G01 X-2.0361 Y2.3165  
G00 Z0.0500  
G00 X-2.0261 Y2.5665  
G01 Z-0.0035 F10    
G01 X-2.0089 Y2.5837  F20    
G01 X-1.9527 Y2.6087  
G01 X-1.8752 Y2.5571  
G01 X-1.8730 Y2.5556  
G01 X-1.8705 Y2.5546  
G01 X-1.8680 Y2.5536  
G01 X-1.8654 Y2.5530  
G01 X-1.8627 Y2.5525  
G01 X-1.8600 Y2.5525  
G01 X-1.7773 Y2.5525  
G01 X-1.7720 Y2.5536  
G01 X-1.7670 Y2.5556  
G01 X-1.7625 Y2.5586  
G01 X-1.7586 Y2.5625  
G01 X-1.7159 Y2.6052  
G01 X-1.6895 Y2.6118  
G01 X-1.6445 Y2.6021  
G01 X-1.6339 Y2.5915  
G01 X-1.6061 Y2.5915  
G01 X-1.5865 Y2.6111  
G01 X-1.5865 Y2.6389  
G01 X-1.6061 Y2.6585  
G01 X-1.6339 Y2.6585  
G01 X-1.6359 Y2.6565  
G01 X-1.6824 Y2.6665  
G01 X-1.6833 Y2.6668  
G01 X-1.6851 Y2.6671  
G01 X-1.6869 Y2.6675  
G01 X-1.6878 Y2.6675  
G01 X-1.6886 Y2.6676  
G01 X-1.6905 Y2.6675  
G01 X-1.6923 Y2.6675  
G01 X-1.6932 Y2.6674  
G01 X-1.6940 Y2.6673  
G01 X-1.6958 Y2.6669  
G01 X-1.6976 Y2.6666  
G01 X-1.6984 Y2.6662  
G01 X-1.7360 Y2.6568  
G01 X-1.7380 Y2.6564  
G01 X-1.7386 Y2.6562  
G01 X-1.7393 Y2.6560  
G01 X-1.7411 Y2.6552  
G01 X-1.7430 Y2.6544  
G01 X-1.7436 Y2.6540  
G01 X-1.7442 Y2.6537  
G01 X-1.7458 Y2.6525  
G01 X-1.7475 Y2.6514  
G01 X-1.7480 Y2.6509  
G01 X-1.7485 Y2.6505  
G01 X-1.7499 Y2.6490  
G01 X-1.7914 Y2.6075  
G01 X-1.8517 Y2.6075  
G01 X-1.9328 Y2.6616  
G01 X-1.9330 Y2.6618  
G01 X-1.9350 Y2.6631  
G01 X-1.9370 Y2.6644  
G01 X-1.9373 Y2.6645  
G01 X-1.9376 Y2.6647  
G01 X-1.9398 Y2.6655  
G01 X-1.9420 Y2.6665  
G01 X-1.9423 Y2.6665  
G01 X-1.9427 Y2.6666  
G01 X-1.9450 Y2.6670  
G01 X-1.9473 Y2.6675  
G01 X-1.9477 Y2.6675  
G01 X-1.9480 Y2.6676  
G01 X-1.9504 Y2.6675  
G01 X-1.9527 Y2.6675  
G01 X-1.9531 Y2.6674  
G01 X-1.9534 Y2.6674  
G01 X-1.9557 Y2.6669  
G01 X-1.9580 Y2.6664  
G01 X-1.9584 Y2.6663  
G01 X-1.9587 Y2.6662  
G01 X-1.9609 Y2.6653  
G01 X-1.9631 Y2.6644  
G01 X-1.9633 Y2.6642  
G01 X-2.0323 Y2.6335  
G01 X-2.0539 Y2.6335  
G01 X-2.0552 Y2.6322  
G01 X-2.0946 Y2.6420  
G01 X-2.1061 Y2.6535  
G01 X-2.1339 Y2.6535  
G01 X-2.1535 Y2.6339  
G01 X-2.1535 Y2.6061  
G01 X-2.1339 Y2.5865  
G01 X-2.1061 Y2.5865  
G01 X-2.1048 Y2.5878  
G01 X-2.0654 Y2.5780  
G01 X-2.0539 Y2.5665  
G01 X-2.0261 Y2.5665  
G00 Z0.0500  
G00 X-2.2011 Y2.4985  
G01 Z-0.0035 F10    
G01 X-2.2129 Y2.4985  F20    
G01 X-2.2375 Y2.5182  
G01 X-2.2375 Y2.7822  
G01 X-2.2100 Y2.8055  
G01 X-2.1816 Y2.8055  
G01 X-2.1555 Y2.8316  
G01 X-2.1555 Y2.8684  
G01 X-2.1725 Y2.8854  
G01 X-2.1725 Y2.9146  
G01 X-2.1555 Y2.9316  
G01 X-2.1555 Y2.9684  
G01 X-2.1816 Y2.9945  
G01 X-2.2184 Y2.9945  
G01 X-2.2445 Y2.9684  
G01 X-2.2445 Y2.9316  
G01 X-2.2275 Y2.9146  
G01 X-2.2275 Y2.8854  
G01 X-2.2445 Y2.8684  
G01 X-2.2445 Y2.8484  
G01 X-2.2816 Y2.8170  
G01 X-2.2825 Y2.8164  
G01 X-2.2836 Y2.8153  
G01 X-2.2848 Y2.8142  
G01 X-2.2855 Y2.8133  
G01 X-2.2864 Y2.8125  
G01 X-2.2872 Y2.8112  
G01 X-2.2882 Y2.8100  
G01 X-2.2887 Y2.8090  
G01 X-2.2894 Y2.8080  
G01 X-2.2900 Y2.8066  
G01 X-2.2907 Y2.8052  
G01 X-2.2910 Y2.8041  
G01 X-2.2914 Y2.8030  
G01 X-2.2917 Y2.8015  
G01 X-2.2922 Y2.8000  
G01 X-2.2923 Y2.7988  
G01 X-2.2925 Y2.7977  
G01 X-2.2925 Y2.7961  
G01 X-2.2926 Y2.7946  
G01 X-2.2925 Y2.7934  
G01 X-2.2925 Y2.5062  
G01 X-2.2926 Y2.5047  
G01 X-2.2925 Y2.5035  
G01 X-2.2925 Y2.5023  
G01 X-2.2922 Y2.5008  
G01 X-2.2920 Y2.4993  
G01 X-2.2917 Y2.4981  
G01 X-2.2914 Y2.4970  
G01 X-2.2909 Y2.4956  
G01 X-2.2904 Y2.4941  
G01 X-2.2898 Y2.4931  
G01 X-2.2894 Y2.4920  
G01 X-2.2885 Y2.4907  
G01 X-2.2878 Y2.4894  
G01 X-2.2870 Y2.4885  
G01 X-2.2864 Y2.4875  
G01 X-2.2853 Y2.4864  
G01 X-2.2843 Y2.4852  
G01 X-2.2834 Y2.4845  
G01 X-2.2825 Y2.4836  
G01 X-2.2813 Y2.4828  
G01 X-2.2485 Y2.4566  
G01 X-2.2485 Y2.4511  
G01 X-2.2289 Y2.4315  
G01 X-2.2011 Y2.4315  
G01 X-2.1815 Y2.4511  
G01 X-2.1815 Y2.4789  
G01 X-2.2011 Y2.4985  
G00 Z0.0500  
G00 X-2.3865 Y2.6061  
G01 Z-0.0035 F10    
G01 X-2.3865 Y2.6339  F20    
G01 X-2.4061 Y2.6535  
G01 X-2.4339 Y2.6535  
G01 X-2.4499 Y2.6375  
G01 X-2.6496 Y2.5558  
G01 X-2.6513 Y2.5552  
G01 X-2.6521 Y2.5548  
G01 X-2.6529 Y2.5544  
G01 X-2.6544 Y2.5534  
G01 X-2.6560 Y2.5525  
G01 X-2.6567 Y2.5519  
G01 X-2.6574 Y2.5514  
G01 X-2.6587 Y2.5501  
G01 X-2.6601 Y2.5489  
G01 X-2.6607 Y2.5482  
G01 X-2.6613 Y2.5476  
G01 X-2.6623 Y2.5461  
G01 X-2.6634 Y2.5447  
G01 X-2.6638 Y2.5439  
G01 X-2.6643 Y2.5431  
G01 X-2.6650 Y2.5414  
G01 X-2.6658 Y2.5398  
G01 X-2.6661 Y2.5390  
G01 X-2.6664 Y2.5381  
G01 X-2.6668 Y2.5363  
G01 X-2.6673 Y2.5346  
G01 X-2.6673 Y2.5337  
G01 X-2.6675 Y2.5328  
G01 X-2.6675 Y2.5310  
G01 X-2.7261 Y1.6713  
G01 X-2.7335 Y1.6639  
G01 X-2.7335 Y1.6361  
G01 X-2.7298 Y1.6324  
G01 X-2.8228 Y1.5225  
G01 X-3.2087 Y1.5225  
G01 X-3.2102 Y1.5226  
G01 X-3.2114 Y1.5225  
G01 X-3.2127 Y1.5225  
G01 X-3.2141 Y1.5222  
G01 X-3.2156 Y1.5221  
G01 X-3.2168 Y1.5217  
G01 X-3.2180 Y1.5214  
G01 X-3.2194 Y1.5209  
G01 X-3.2207 Y1.5205  
G01 X-3.2219 Y1.5199  
G01 X-3.2230 Y1.5194  
G01 X-3.2242 Y1.5186  
G01 X-3.2255 Y1.5179  
G01 X-3.2265 Y1.5171  
G01 X-3.2275 Y1.5164  
G01 X-3.2286 Y1.5153  
G01 X-3.2297 Y1.5144  
G01 X-3.2305 Y1.5134  
G01 X-3.2314 Y1.5125  
G01 X-3.2322 Y1.5113  
G01 X-3.2331 Y1.5102  
G01 X-3.2337 Y1.5091  
G01 X-3.2344 Y1.5080  
G01 X-3.2349 Y1.5067  
G01 X-3.2835 Y1.4143  
G01 X-3.2841 Y1.4135  
G01 X-3.2848 Y1.4119  
G01 X-3.2856 Y1.4104  
G01 X-3.2859 Y1.4094  
G01 X-3.2863 Y1.4085  
G01 X-3.2867 Y1.4068  
G01 X-3.2871 Y1.4052  
G01 X-3.2872 Y1.4042  
G01 X-3.2874 Y1.4032  
G01 X-3.2875 Y1.4015  
G01 X-3.2876 Y1.3998  
G01 X-3.2875 Y1.3988  
G01 X-3.2924 Y1.1281  
G01 X-3.3265 Y0.9675  
G01 X-3.3268 Y0.9667  
G01 X-3.3271 Y0.9649  
G01 X-3.3275 Y0.9631  
G01 X-3.3275 Y0.9622  
G01 X-3.3276 Y0.9614  
G01 X-3.3275 Y0.9595  
G01 X-3.3275 Y0.9576  
G01 X-3.3274 Y0.9568  
G01 X-3.3273 Y0.9560  
G01 X-3.3269 Y0.9541  
G01 X-3.3265 Y0.9523  
G01 X-3.3262 Y0.9515  
G01 X-3.3071 Y0.8751  
G01 X-3.3070 Y0.8743  
G01 X-3.3065 Y0.8725  
G01 X-3.3060 Y0.8707  
G01 X-3.3057 Y0.8699  
G01 X-3.3054 Y0.8691  
G01 X-3.3045 Y0.8675  
G01 X-3.3037 Y0.8658  
G01 X-3.3032 Y0.8651  
G01 X-3.3028 Y0.8644  
G01 X-3.3016 Y0.8629  
G01 X-3.3005 Y0.8615  
G01 X-3.2998 Y0.8609  
G01 X-3.2993 Y0.8602  
G01 X-3.2978 Y0.8591  
G01 X-3.2965 Y0.8578  
G01 X-3.2957 Y0.8574  
G01 X-3.2951 Y0.8568  
G01 X-3.2934 Y0.8560  
G01 X-3.2918 Y0.8550  
G01 X-3.2910 Y0.8547  
G01 X-3.2903 Y0.8543  
G01 X-3.2885 Y0.8538  
G01 X-3.2867 Y0.8532  
G01 X-3.2859 Y0.8531  
G01 X-3.2851 Y0.8528  
G01 X-3.2832 Y0.8527  
G01 X-3.2814 Y0.8524  
G01 X-3.2805 Y0.8524  
G01 X-3.2797 Y0.8524  
G01 X-3.2778 Y0.8526  
G01 X-3.2760 Y0.8527  
G01 X-3.2751 Y0.8529  
G01 X-3.1331 Y0.8687  
G01 X-3.1322 Y0.8642  
G01 X-3.1297 Y0.8581  
G01 X-3.1260 Y0.8526  
G01 X-3.1214 Y0.8480  
G01 X-3.1159 Y0.8443  
G01 X-3.1098 Y0.8418  
G01 X-3.1033 Y0.8405  
G01 X-3.0967 Y0.8405  
G01 X-3.0902 Y0.8418  
G01 X-3.0841 Y0.8443  
G01 X-3.0786 Y0.8480  
G01 X-3.0740 Y0.8526  
G01 X-3.0703 Y0.8581  
G01 X-3.0678 Y0.8642  
G01 X-3.0665 Y0.8707  
G01 X-3.0665 Y0.9293  
G01 X-3.0678 Y0.9358  
G01 X-3.0703 Y0.9419  
G01 X-3.0740 Y0.9474  
G01 X-3.0786 Y0.9520  
G01 X-3.0841 Y0.9557  
G01 X-3.0902 Y0.9582  
G01 X-3.0967 Y0.9595  
G01 X-3.1033 Y0.9595  
G01 X-3.1098 Y0.9582  
G01 X-3.1159 Y0.9557  
G01 X-3.1214 Y0.9520  
G01 X-3.1260 Y0.9474  
G01 X-3.1297 Y0.9419  
G01 X-3.1322 Y0.9358  
G01 X-3.1335 Y0.9293  
G01 X-3.1335 Y0.9239  
G01 X-3.2592 Y0.9100  
G01 X-3.2718 Y0.9605  
G01 X-3.2381 Y1.1192  
G01 X-3.2376 Y1.1218  
G01 X-3.2375 Y1.1219  
G01 X-3.2375 Y1.1246  
G01 X-3.2326 Y1.3930  
G01 X-3.1934 Y1.4675  
G01 X-2.8116 Y1.4675  
G01 X-2.8104 Y1.4674  
G01 X-2.8089 Y1.4675  
G01 X-2.8073 Y1.4675  
G01 X-2.8062 Y1.4677  
G01 X-2.8050 Y1.4678  
G01 X-2.8035 Y1.4683  
G01 X-2.8020 Y1.4686  
G01 X-2.8009 Y1.4690  
G01 X-2.7998 Y1.4693  
G01 X-2.7984 Y1.4700  
G01 X-2.7970 Y1.4706  
G01 X-2.7960 Y1.4713  
G01 X-2.7950 Y1.4718  
G01 X-2.7938 Y1.4728  
G01 X-2.7925 Y1.4736  
G01 X-2.7917 Y1.4745  
G01 X-2.7908 Y1.4752  
G01 X-2.7897 Y1.4764  
G01 X-2.7886 Y1.4775  
G01 X-2.7880 Y1.4784  
G01 X-2.6773 Y1.6093  
G01 X-2.6746 Y1.6140  
G01 X-2.6730 Y1.6192  
G01 X-2.6724 Y1.6246  
G01 X-2.6728 Y1.6298  
G01 X-2.6665 Y1.6361  
G01 X-2.6665 Y1.6639  
G01 X-2.6712 Y1.6685  
G01 X-2.6137 Y2.5110  
G01 X-2.4293 Y2.5865  
G01 X-2.4061 Y2.5865  
G01 X-2.3865 Y2.6061  
G00 Z0.0500  
G00 X-2.5011 Y2.4985  
G01 Z-0.0035 F10    
G01 X-2.5289 Y2.4985  F20    
G01 X-2.5485 Y2.4789  
G01 X-2.5485 Y2.4554  
G01 X-2.5777 Y2.4035  
G01 X-2.5789 Y2.4035  
G01 X-2.5985 Y2.3839  
G01 X-2.5985 Y2.3561  
G01 X-2.5789 Y2.3365  
G01 X-2.5757 Y2.3365  
G01 X-2.4979 Y2.2198  
G01 X-2.4964 Y2.2175  
G01 X-2.4945 Y2.2156  
G01 X-2.4926 Y2.2137  
G01 X-2.4903 Y2.2122  
G01 X-2.4881 Y2.2107  
G01 X-2.4856 Y2.2096  
G01 X-2.4451 Y2.1928  
G01 X-2.4289 Y2.1765  
G01 X-2.4011 Y2.1765  
G01 X-2.3815 Y2.1961  
G01 X-2.3815 Y2.2239  
G01 X-2.4011 Y2.2435  
G01 X-2.4239 Y2.2435  
G01 X-2.4567 Y2.2572  
G01 X-2.5315 Y2.3693  
G01 X-2.5315 Y2.3735  
G01 X-2.4961 Y2.4365  
G01 X-2.4959 Y2.4367  
G01 X-2.4815 Y2.4511  
G01 X-2.4815 Y2.4789  
G01 X-2.5011 Y2.4985  
G00 Z0.0500  
G00 X-2.4516 Y2.0712  
G01 Z-0.0035 F10    
G01 X-2.4552 Y2.0657  F20    
G01 X-2.4577 Y2.0597  
G01 X-2.4590 Y2.0533  
G01 X-2.4590 Y2.0467  
G01 X-2.4577 Y2.0403  
G01 X-2.4552 Y2.0343  
G01 X-2.4516 Y2.0288  
G01 X-2.4469 Y2.0242  
G01 X-2.4415 Y2.0205  
G01 X-2.4354 Y2.0180  
G01 X-2.4290 Y2.0168  
G01 X-2.3710 Y2.0168  
G01 X-2.3646 Y2.0180  
G01 X-2.3585 Y2.0205  
G01 X-2.3556 Y2.0225  
G01 X-2.2507 Y2.0225  
G01 X-2.2486 Y2.0224  
G01 X-2.2480 Y2.0225  
G01 X-2.2473 Y2.0225  
G01 X-2.2453 Y2.0229  
G01 X-2.2433 Y2.0232  
G01 X-2.2426 Y2.0234  
G01 X-2.2420 Y2.0236  
G01 X-2.2401 Y2.0243  
G01 X-2.2382 Y2.0250  
G01 X-2.2376 Y2.0254  
G01 X-2.2370 Y2.0256  
G01 X-2.2353 Y2.0268  
G01 X-2.2024 Y2.0465  
G01 X-2.1861 Y2.0465  
G01 X-2.1665 Y2.0661  
G01 X-2.1665 Y2.0939  
G01 X-2.1861 Y2.1135  
G01 X-2.2139 Y2.1135  
G01 X-2.2335 Y2.0939  
G01 X-2.2335 Y2.0920  
G01 X-2.2576 Y2.0775  
G01 X-2.3556 Y2.0775  
G01 X-2.3585 Y2.0795  
G01 X-2.3646 Y2.0820  
G01 X-2.3710 Y2.0832  
G01 X-2.4290 Y2.0832  
G01 X-2.4354 Y2.0820  
G01 X-2.4415 Y2.0795  
G01 X-2.4469 Y2.0758  
G01 X-2.4516 Y2.0712  
G00 Z0.0500  
G00 X-2.4516 Y1.9712  
G01 Z-0.0035 F10    
G01 X-2.4552 Y1.9657  F20    
G01 X-2.4577 Y1.9597  
G01 X-2.4590 Y1.9533  
G01 X-2.4590 Y1.9467  
G01 X-2.4577 Y1.9403  
G01 X-2.4552 Y1.9343  
G01 X-2.4516 Y1.9288  
G01 X-2.4469 Y1.9242  
G01 X-2.4415 Y1.9205  
G01 X-2.4354 Y1.9180  
G01 X-2.4290 Y1.9168  
G01 X-2.3710 Y1.9168  
G01 X-2.3646 Y1.9180  
G01 X-2.3585 Y1.9205  
G01 X-2.3556 Y1.9225  
G01 X-2.2400 Y1.9225  
G01 X-2.2035 Y1.8921  
G01 X-2.2035 Y1.8861  
G01 X-2.1839 Y1.8665  
G01 X-2.1561 Y1.8665  
G01 X-2.1365 Y1.8861  
G01 X-2.1365 Y1.9139  
G01 X-2.1561 Y1.9335  
G01 X-2.1672 Y1.9335  
G01 X-2.1857 Y1.9489  
G01 X-2.1488 Y1.9765  
G01 X-2.1361 Y1.9765  
G01 X-2.1165 Y1.9961  
G01 X-2.1165 Y2.0239  
G01 X-2.1361 Y2.0435  
G01 X-2.1639 Y2.0435  
G01 X-2.1835 Y2.0239  
G01 X-2.1835 Y2.0192  
G01 X-2.2392 Y1.9775  
G01 X-2.3556 Y1.9775  
G01 X-2.3585 Y1.9795  
G01 X-2.3646 Y1.9820  
G01 X-2.3710 Y1.9832  
G01 X-2.4290 Y1.9832  
G01 X-2.4354 Y1.9820  
G01 X-2.4415 Y1.9795  
G01 X-2.4469 Y1.9758  
G01 X-2.4516 Y1.9712  
G00 Z0.0500  
G00 X-2.4516 Y1.8712  
G01 Z-0.0035 F10    
G01 X-2.4552 Y1.8657  F20    
G01 X-2.4577 Y1.8597  
G01 X-2.4590 Y1.8533  
G01 X-2.4590 Y1.8467  
G01 X-2.4577 Y1.8403  
G01 X-2.4552 Y1.8343  
G01 X-2.4516 Y1.8288  
G01 X-2.4469 Y1.8242  
G01 X-2.4415 Y1.8205  
G01 X-2.4354 Y1.8180  
G01 X-2.4290 Y1.8168  
G01 X-2.3710 Y1.8168  
G01 X-2.3646 Y1.8180  
G01 X-2.3585 Y1.8205  
G01 X-2.3531 Y1.8242  
G01 X-2.3484 Y1.8288  
G01 X-2.3448 Y1.8343  
G01 X-2.3423 Y1.8403  
G01 X-2.3410 Y1.8467  
G01 X-2.3410 Y1.8533  
G01 X-2.3423 Y1.8597  
G01 X-2.3448 Y1.8657  
G01 X-2.3484 Y1.8712  
G01 X-2.3531 Y1.8758  
G01 X-2.3585 Y1.8795  
G01 X-2.3646 Y1.8820  
G01 X-2.3710 Y1.8832  
G01 X-2.4290 Y1.8832  
G01 X-2.4354 Y1.8820  
G01 X-2.4415 Y1.8795  
G01 X-2.4469 Y1.8758  
G01 X-2.4516 Y1.8712  
G00 Z0.0500  
G00 X-2.4516 Y1.7712  
G01 Z-0.0035 F10    
G01 X-2.4552 Y1.7657  F20    
G01 X-2.4577 Y1.7597  
G01 X-2.4590 Y1.7533  
G01 X-2.4590 Y1.7467  
G01 X-2.4577 Y1.7403  
G01 X-2.4552 Y1.7343  
G01 X-2.4516 Y1.7288  
G01 X-2.4469 Y1.7242  
G01 X-2.4415 Y1.7205  
G01 X-2.4354 Y1.7180  
G01 X-2.4290 Y1.7168  
G01 X-2.3710 Y1.7168  
G01 X-2.3646 Y1.7180  
G01 X-2.3631 Y1.7186  
G01 X-2.0675 Y1.6436  
G01 X-2.0675 Y1.4649  
G01 X-2.0735 Y1.4589  
G01 X-2.0735 Y1.4311  
G01 X-2.0539 Y1.4115  
G01 X-2.0261 Y1.4115  
G01 X-2.0065 Y1.4311  
G01 X-2.0065 Y1.4589  
G01 X-2.0125 Y1.4649  
G01 X-2.0125 Y1.6643  
G01 X-2.0124 Y1.6663  
G01 X-2.0125 Y1.6670  
G01 X-2.0125 Y1.6677  
G01 X-2.0129 Y1.6697  
G01 X-2.0132 Y1.6716  
G01 X-2.0134 Y1.6723  
G01 X-2.0136 Y1.6730  
G01 X-2.0143 Y1.6749  
G01 X-2.0150 Y1.6767  
G01 X-2.0154 Y1.6774  
G01 X-2.0156 Y1.6780  
G01 X-2.0167 Y1.6797  
G01 X-2.0178 Y1.6814  
G01 X-2.0182 Y1.6819  
G01 X-2.0186 Y1.6825  
G01 X-2.0200 Y1.6839  
G01 X-2.0214 Y1.6854  
G01 X-2.0220 Y1.6858  
G01 X-2.0225 Y1.6864  
G01 X-2.0241 Y1.6875  
G01 X-2.0257 Y1.6887  
G01 X-2.0264 Y1.6890  
G01 X-2.0270 Y1.6894  
G01 X-2.0288 Y1.6901  
G01 X-2.0306 Y1.6910  
G01 X-2.0313 Y1.6912  
G01 X-2.0320 Y1.6914  
G01 X-2.0339 Y1.6918  
G01 X-2.3490 Y1.7718  
G01 X-2.3531 Y1.7758  
G01 X-2.3585 Y1.7795  
G01 X-2.3646 Y1.7820  
G01 X-2.3710 Y1.7832  
G01 X-2.4290 Y1.7832  
G01 X-2.4354 Y1.7820  
G01 X-2.4415 Y1.7795  
G01 X-2.4469 Y1.7758  
G01 X-2.4516 Y1.7712  
G00 Z0.0500  
G00 X-2.4516 Y1.5712  
G01 Z-0.0035 F10    
G01 X-2.4552 Y1.5657  F20    
G01 X-2.4577 Y1.5597  
G01 X-2.4590 Y1.5533  
G01 X-2.4590 Y1.5467  
G01 X-2.4577 Y1.5403  
G01 X-2.4552 Y1.5343  
G01 X-2.4516 Y1.5288  
G01 X-2.4469 Y1.5242  
G01 X-2.4415 Y1.5205  
G01 X-2.4354 Y1.5180  
G01 X-2.4290 Y1.5168  
G01 X-2.4275 Y1.5168  
G01 X-2.4275 Y1.4832  
G01 X-2.4290 Y1.4832  
G01 X-2.4354 Y1.4820  
G01 X-2.4415 Y1.4795  
G01 X-2.4469 Y1.4758  
G01 X-2.4516 Y1.4712  
G01 X-2.4552 Y1.4657  
G01 X-2.4577 Y1.4597  
G01 X-2.4590 Y1.4533  
G01 X-2.4590 Y1.4467  
G01 X-2.4577 Y1.4403  
G01 X-2.4552 Y1.4343  
G01 X-2.4516 Y1.4288  
G01 X-2.4469 Y1.4242  
G01 X-2.4415 Y1.4205  
G01 X-2.4354 Y1.4180  
G01 X-2.4290 Y1.4168  
G01 X-2.3710 Y1.4168  
G01 X-2.3646 Y1.4180  
G01 X-2.3585 Y1.4205  
G01 X-2.3531 Y1.4242  
G01 X-2.3484 Y1.4288  
G01 X-2.3448 Y1.4343  
G01 X-2.3436 Y1.4371  
G01 X-2.2347 Y1.4674  
G01 X-2.2339 Y1.4665  
G01 X-2.2061 Y1.4665  
G01 X-2.1865 Y1.4861  
G01 X-2.1865 Y1.5139  
G01 X-2.2061 Y1.5335  
G01 X-2.2339 Y1.5335  
G01 X-2.2461 Y1.5213  
G01 X-2.3725 Y1.4862  
G01 X-2.3725 Y1.5168  
G01 X-2.3710 Y1.5168  
G01 X-2.3646 Y1.5180  
G01 X-2.3585 Y1.5205  
G01 X-2.3531 Y1.5242  
G01 X-2.3484 Y1.5288  
G01 X-2.3448 Y1.5343  
G01 X-2.3423 Y1.5403  
G01 X-2.3410 Y1.5467  
G01 X-2.3410 Y1.5533  
G01 X-2.3423 Y1.5597  
G01 X-2.3448 Y1.5657  
G01 X-2.3484 Y1.5712  
G01 X-2.3531 Y1.5758  
G01 X-2.3585 Y1.5795  
G01 X-2.3646 Y1.5820  
G01 X-2.3710 Y1.5832  
G01 X-2.4290 Y1.5832  
G01 X-2.4354 Y1.5820  
G01 X-2.4415 Y1.5795  
G01 X-2.4469 Y1.5758  
G01 X-2.4516 Y1.5712  
G00 Z0.0500  
G00 X-2.4428 Y1.3786  
G01 Z-0.0035 F10    
G01 X-2.5564 Y1.4223  F20    
G01 X-2.5673 Y1.4332  
G01 X-2.5949 Y1.4332  
G01 X-2.6144 Y1.4138  
G01 X-2.6144 Y1.3862  
G01 X-2.5949 Y1.3668  
G01 X-2.5673 Y1.3668  
G01 X-2.5667 Y1.3674  
G01 X-2.4552 Y1.3245  
G01 X-2.4530 Y1.3236  
G01 X-2.4527 Y1.3235  
G01 X-2.4523 Y1.3234  
G01 X-2.4500 Y1.3230  
G01 X-2.4477 Y1.3225  
G01 X-2.4474 Y1.3225  
G01 X-2.4470 Y1.3224  
G01 X-2.4446 Y1.3225  
G01 X-2.4444 Y1.3225  
G01 X-2.4415 Y1.3205  
G01 X-2.4354 Y1.3180  
G01 X-2.4290 Y1.3168  
G01 X-2.3710 Y1.3168  
G01 X-2.3646 Y1.3180  
G01 X-2.3585 Y1.3205  
G01 X-2.3531 Y1.3242  
G01 X-2.3484 Y1.3288  
G01 X-2.3448 Y1.3343  
G01 X-2.3423 Y1.3403  
G01 X-2.3410 Y1.3467  
G01 X-2.3410 Y1.3533  
G01 X-2.3423 Y1.3597  
G01 X-2.3448 Y1.3657  
G01 X-2.3484 Y1.3712  
G01 X-2.3531 Y1.3758  
G01 X-2.3585 Y1.3795  
G01 X-2.3646 Y1.3820  
G01 X-2.3710 Y1.3832  
G01 X-2.4290 Y1.3832  
G01 X-2.4354 Y1.3820  
G01 X-2.4415 Y1.3795  
G01 X-2.4428 Y1.3786  
G00 Z0.0500  
G00 X-2.6856 Y1.3862  
G01 Z-0.0035 F10    
G01 X-2.6856 Y1.4138  F20    
