(/Applications/pcbgcode.repo/pcb-gcode.ulp)
(Copyright 2005 - 2012 by John Johnson)
(See readme.txt for licensing terms.)
(This file generated from the board:)
(.../808-Handclap/eagle/808_handclap.brd)
(Current profile is .../pcbgcode.repo/profiles/mach.pp  )
(This file generated 4/26/16 10:34 PM)
(Settings from pcb-machine.h)
(spindle on time = 0.0000)
(spindle speed = 20000.0000)
(tool change at 0.0000  0.0000  1.5000  )
(feed rate xy = F0     )
(feed rate z  = F20    )
(Z Axis Settings)
(  High     Up        Down     Drill)
(0.2500  	0.0500  	-0.0035 	-0.0750 )
(Settings from pcb-defaults.h)
(isolate min = 0.0060)
(isolate max = 0.0200)
(isolate step = 0.0015)
(Generated bottom outlines, bottom drill, )
(Unit of measure: inch)
( Tool|       Size       |  Min Sub |  Max Sub |   Count )
( T01 | 0.800mm 0.0315in | 0.0000in | 0.0000in |       0 )
( T02 | 0.813mm 0.0320in | 0.0000in | 0.0000in |       0 )
( T03 | 0.914mm 0.0360in | 0.0000in | 0.0000in |       0 )
( T04 | 1.000mm 0.0394in | 0.0000in | 0.0000in |       0 )
( T05 | 1.016mm 0.0400in | 0.0000in | 0.0000in |       0 )
( T06 | 1.200mm 0.0472in | 0.0000in | 0.0000in |       0 )
( T07 | 1.300mm 0.0512in | 0.0000in | 0.0000in |       0 )
(Inch Mode)
G20
(Absolute Coordinates)
G90
S20000
G00 Z0.2500  
G00 X0.0000  Y0.0000  
M03
G04 P0.000000
M05
G00 Z1.5000  
M06 T01  ; 0.0315  
G01 Z0.0000  F20    
M06 
G00 Z0.0500  
M03
G04 P0.000000
G82 X-0.1000 Y2.0000  Z-0.0750 F20    R0.0500  P0.020000
G82 X-0.2000 Y2.2000  
G82 X-0.3500 Y2.2000  
G82 X-0.3500 Y2.0000  
G82 X-0.3811 Y2.6000  
G82 X-0.5189 Y2.6000  
G82 X-0.4500 Y2.8213  
G82 X-0.4500 Y2.9787  
G82 X-1.3000 Y2.7189  
G82 X-1.3000 Y2.5811  
G82 X-1.8200 Y2.6650  
G82 X-1.8200 Y2.4700  
G82 X-2.4000 Y2.0500  
G82 X-2.4000 Y1.9500  
G82 X-2.4000 Y1.8500  
G82 X-2.4000 Y1.7500  
G82 X-2.4000 Y1.6500  
G82 X-2.4000 Y1.5500  
G82 X-2.4000 Y1.4500  
G82 X-2.4000 Y1.3500  
G82 X-2.4000 Y1.2500  
G82 X-2.5811 Y1.4000  
G82 X-2.7189 Y1.4000  
G82 X-2.1200 Y1.5900  
G82 X-1.8100 Y1.5900  
G82 X-1.6200 Y1.5511  
G82 X-1.6200 Y1.4889  
G82 X-1.6200 Y1.3511  
G82 X-1.6200 Y1.6889  
G82 X-1.3000 Y1.9000  
G82 X-1.1000 Y1.9000  
G82 X-2.6000 Y0.3000  
G82 X-2.8500 Y0.3000  
G82 X-3.3311 Y0.6500  
G82 X-3.4689 Y0.6500  
M05
G00 Z1.5000  
G00 X0.0000  Y0.0000  
M06 T02  ; 0.0320  
G01 Z0.0000  F20    
M06 
G00 Z0.0500  
M03
G04 P0.000000
G82 X-0.4300 Y0.6000  Z-0.0750 F20    R0.0500  P0.020000
G82 X-0.7000 Y0.6400  
G82 X-0.7000 Y0.7400  
G82 X-0.7000 Y0.8400  
G82 X-0.7000 Y0.9400  
G82 X-0.6800 Y1.0500  
G82 X-0.8100 Y1.0700  
G82 X-0.8100 Y1.2700  
G82 X-0.6800 Y1.2500  
G82 X-0.5000 Y1.2000  
G82 X-0.5000 Y1.0600  
G82 X-0.4300 Y0.9000  
G82 X-1.0000 Y0.9400  
G82 X-1.0000 Y0.8400  
G82 X-1.0750 Y0.8250  
G82 X-1.0000 Y0.7400  
G82 X-1.0000 Y0.6400  
G82 X-1.3750 Y0.8250  
G82 X-1.5000 Y0.8000  
G82 X-1.6200 Y0.8000  
G82 X-1.7000 Y0.8000  
G82 X-1.8500 Y0.7000  
G82 X-2.0500 Y0.7000  
G82 X-2.1700 Y0.7350  
G82 X-2.2800 Y0.8500  
G82 X-2.3800 Y0.9100  
G82 X-2.5000 Y0.9000  
G82 X-2.6000 Y0.9000  
G82 X-2.5750 Y0.9950  
G82 X-2.5200 Y1.0900  
G82 X-2.6300 Y1.1500  
G82 X-2.8300 Y1.1500  
G82 X-2.9900 Y1.1000  
G82 X-3.1500 Y1.1300  
G82 X-3.0800 Y1.2800  
G82 X-2.9900 Y1.3000  
G82 X-2.9000 Y1.4000  
G82 X-3.1500 Y1.3800  
G82 X-3.3500 Y1.3800  
G82 X-3.3800 Y1.2800  
G82 X-3.3500 Y1.1300  
G82 X-3.2200 Y0.9700  
G82 X-3.1000 Y0.9000  
G82 X-3.0000 Y0.9000  
G82 X-2.9000 Y0.9000  
G82 X-2.8000 Y0.9000  
G82 X-2.7000 Y0.9000  
G82 X-2.7000 Y0.6000  
G82 X-2.8000 Y0.6000  
G82 X-2.9000 Y0.6000  
G82 X-3.0000 Y0.6000  
G82 X-3.1000 Y0.6000  
G82 X-3.2200 Y0.5700  
G82 X-2.9750 Y0.5000  
G82 X-2.7250 Y0.4750  
G82 X-2.6000 Y0.6000  
G82 X-2.5000 Y0.6000  
G82 X-2.3800 Y0.6100  
G82 X-2.2800 Y0.5500  
G82 X-2.1700 Y0.4350  
G82 X-2.1000 Y0.3700  
G82 X-1.9200 Y0.4050  
G82 X-1.9200 Y0.4850  
G82 X-1.7000 Y0.5000  
G82 X-1.7650 Y1.0100  
G82 X-1.8150 Y1.0850  
G82 X-1.8650 Y1.0100  
G82 X-2.0250 Y1.0250  
G82 X-2.1000 Y0.9750  
G82 X-2.0250 Y0.9250  
G82 X-2.0400 Y1.1450  
G82 X-2.2750 Y0.9950  
G82 X-2.3200 Y1.0900  
G82 X-2.2200 Y1.5000  
G82 X-2.0400 Y1.4450  
G82 X-1.7200 Y1.3900  
G82 X-1.5000 Y1.4000  
G82 X-1.4000 Y1.4000  
G82 X-1.3000 Y1.4000  
G82 X-1.2000 Y1.4000  
G82 X-1.0750 Y1.4750  
G82 X-1.2000 Y1.7000  
G82 X-1.3000 Y1.7000  
G82 X-1.4000 Y1.7000  
G82 X-1.5000 Y1.7000  
G82 X-1.4500 Y1.9000  
G82 X-1.3000 Y1.8000  
G82 X-1.1000 Y1.8000  
G82 X-1.0300 Y1.8300  
G82 X-1.1800 Y1.9800  
G82 X-1.2500 Y2.0600  
G82 X-1.2500 Y2.1400  
G82 X-1.1900 Y2.2500  
G82 X-1.2000 Y2.3500  
G82 X-1.2000 Y2.4500  
G82 X-1.1600 Y2.5500  
G82 X-1.0600 Y2.6500  
G82 X-1.0600 Y2.8500  
G82 X-1.1600 Y2.8500  
G82 X-0.8200 Y2.9500  
G82 X-0.7200 Y2.9500  
G82 X-0.6200 Y2.9500  
G82 X-0.7200 Y2.8500  
G82 X-0.8000 Y2.7200  
G82 X-0.6800 Y2.6600  
G82 X-0.8000 Y2.5200  
G82 X-0.5600 Y2.4700  
G82 X-0.5100 Y2.3950  
G82 X-0.4600 Y2.4700  
G82 X-0.4600 Y2.3100  
G82 X-0.5800 Y2.1200  
G82 X-0.4600 Y2.0100  
G82 X-0.7300 Y1.8300  
G82 X-0.8800 Y1.9800  
G82 X-0.8800 Y2.1200  
G82 X-0.7900 Y2.2500  
G82 X-0.6800 Y2.2600  
G82 X-1.4500 Y2.2000  
G82 X-1.5000 Y2.3500  
G82 X-1.6000 Y2.3000  
G82 X-1.6000 Y2.4500  
G82 X-1.5700 Y2.5500  
G82 X-1.6200 Y2.6250  
G82 X-1.6700 Y2.5500  
G82 X-1.8500 Y2.3500  
G82 X-1.8700 Y2.1700  
G82 X-1.8500 Y2.0100  
G82 X-1.7800 Y1.9700  
G82 X-1.6000 Y2.0000  
G82 X-1.7800 Y1.7700  
G82 X-1.7200 Y1.6900  
G82 X-1.9700 Y1.9000  
G82 X-2.1700 Y1.9000  
G82 X-2.1500 Y2.0100  
G82 X-2.2000 Y2.0800  
G82 X-2.0700 Y2.1700  
G82 X-2.2000 Y2.2800  
G82 X-2.2650 Y2.3700  
G82 X-2.2150 Y2.4650  
G82 X-2.0400 Y2.5000  
G82 X-1.9650 Y2.5500  
G82 X-2.0400 Y2.6000  
G82 X-2.1200 Y2.6200  
G82 X-2.0500 Y2.3500  
G82 X-2.3400 Y2.2600  
G82 X-2.4150 Y2.2100  
G82 X-2.3400 Y2.1600  
G82 X-2.5650 Y2.3700  
G82 X-2.5150 Y2.4650  
G82 X-2.4200 Y2.6200  
G82 X-2.2200 Y1.8000  
G82 X-2.6000 Y1.6500  
G82 X-2.7000 Y1.6500  
G82 X-2.9000 Y1.7000  
G82 X-2.5250 Y0.4750  
G82 X-2.5000 Y0.3700  
G82 X-2.9750 Y0.2000  
G82 X-1.6200 Y1.1000  
G82 X-1.5000 Y1.1000  
G82 X-1.3800 Y0.9700  
G82 X-1.2500 Y1.0000  
G82 X-1.1750 Y1.0500  
G82 X-1.2500 Y1.1000  
G82 X-1.0750 Y1.0750  
G82 X-1.3800 Y1.2700  
M05
G00 Z1.5000  
G00 X0.0000  Y0.0000  
M06 T03  ; 0.0360  
G01 Z0.0000  F20    
M06 
G00 Z0.0500  
M03
G04 P0.000000
G82 X-0.7500 Y1.7000  Z-0.0750 F20    R0.0500  P0.020000
G82 X-1.0500 Y1.7000  
G82 X-1.1000 Y2.3800  
G82 X-0.8000 Y2.3800  
M05
G00 Z1.5000  
G00 X0.0000  Y0.0000  
M06 T04  ; 0.0394  
G01 Z0.0000  F20    
M06 
G00 Z0.0500  
M03
G04 P0.000000
G82 X-0.7300 Y1.4900  Z-0.0750 F20    R0.0500  P0.020000
G82 X-0.8300 Y1.4900  
M05
G00 Z1.5000  
G00 X0.0000  Y0.0000  
M06 T05  ; 0.0400  
G01 Z0.0000  F20    
M06 
G00 Z0.0500  
M03
G04 P0.000000
G82 X-1.5000 Y2.8500  Z-0.0750 F20    R0.0500  P0.020000
G82 X-1.5000 Y2.9500  
G82 X-1.6000 Y2.9500  
G82 X-1.7000 Y2.9500  
G82 X-1.7000 Y2.8500  
G82 X-1.6000 Y2.8500  
G82 X-1.8000 Y2.8500  
G82 X-1.9000 Y2.8500  
G82 X-1.9000 Y2.9500  
G82 X-1.8000 Y2.9500  
G82 X-2.0000 Y2.9500  
G82 X-2.0000 Y2.8500  
G82 X-2.1000 Y2.8500  
G82 X-2.1000 Y2.9500  
G82 X-2.2000 Y2.9500  
G82 X-2.2000 Y2.8500  
M05
G00 Z1.5000  
G00 X0.0000  Y0.0000  
M06 T06  ; 0.0472  
G01 Z0.0000  F20    
M06 
G00 Z0.0500  
M03
G04 P0.000000
G82 X-0.1500 Y0.9531  Z-0.0750 F20    R0.0500  P0.020000
G82 X-0.1500 Y1.1500  
G82 X-0.1500 Y1.3469  
G82 X-0.1500 Y2.4531  
G82 X-0.1500 Y2.6500  
G82 X-0.1500 Y2.8469  
M05
G00 Z1.5000  
G00 X0.0000  Y0.0000  
M06 T07  ; 0.0512  
G01 Z0.0000  F20    
M06 
G00 Z0.0500  
M03
G04 P0.000000
G82 X-0.0980 Y0.3130  Z-0.0750 F20    R0.0500  P0.020000
G82 X-0.0984 Y0.3469  
G82 X-0.0980 Y0.3800  
G82 X-0.4980 Y0.1420  
G82 X-0.5315 Y0.1421  
G82 X-0.5650 Y0.1420  
G82 X-0.6180 Y0.3140  
G82 X-0.6181 Y0.3469  
G82 X-0.6180 Y0.3800  
G82 X-0.5650 Y1.5420  
G82 X-0.5315 Y1.5421  
G82 X-0.4980 Y1.5420  
G82 X-0.6180 Y1.7140  
G82 X-0.6181 Y1.7469  
G82 X-0.6180 Y1.7800  
G82 X-0.0980 Y1.7800  
G82 X-0.0984 Y1.7469  
G82 X-0.0980 Y1.7130  
T01 
G00 Z0.2500  
M05
M02
